(G-CODE GENERATED BY FLATCAM v8.913 - www.flatcam.org - Version Date: 2019/04/13)

(Name: 7_segment_display-B.Cu.gbr_iso_cnc)
(Type: G-code from Geometry)
(Units: MM)

(Created on Sunday, 12 May 2019 at 20:17)

(TOOL DIAMETER: 0.18 mm)

(Feedrate: 200.0 mm/min)
(Feedrate_Z: 100.0 mm/min)
(Feedrate rapids 76.2 mm/min)

(Z_Cut: -0.1 mm)
(Z_Move: 2.54 mm)
(Z Toolchange: 20.0 mm)
(X,Y Toolchange: 0.0000, 0.0000 mm)
(Z Start: None mm)
(Z End: 20.0 mm)
(Steps per circle: 64)
(Postprocessor Geometry: grbl_11)

(X range:    0.3399 ...   32.6801  mm)
(Y range:  -47.8481 ...  -28.0199  mm)

(Spindle Speed: 20000 RPM)


G21
G90
G94
G17

G01 F200.00
G00 Z2.5400

M03 S20000
G4 P1.0
G00 X3.7324 Y-31.0581
G01 F100.00
G01 Z-0.1000
G01 F200.00
G01 X3.6966 Y-31.0676 F200.00
G01 X3.6737 Y-31.0755 F200.00
G01 X3.6502 Y-31.0852 F200.00
G01 X3.6256 Y-31.0970 F200.00
G01 X3.5985 Y-31.1122 F200.00
G01 X3.5646 Y-31.1354 F200.00
G01 X3.5433 Y-31.1524 F200.00
G01 X3.5266 Y-31.1673 F200.00
G01 X3.4873 Y-31.2066 F200.00
G01 X3.4617 Y-31.2361 F200.00
G01 X3.4424 Y-31.2629 F200.00
G01 X3.4322 Y-31.2785 F200.00
G01 X3.4170 Y-31.3056 F200.00
G01 X3.4052 Y-31.3302 F200.00
G01 X3.3955 Y-31.3537 F200.00
G01 X3.3876 Y-31.3766 F200.00
G01 X3.3805 Y-31.4015 F200.00
G01 X3.3754 Y-31.4248 F200.00
G01 X3.3716 Y-31.4469 F200.00
G01 X3.3692 Y-31.4656 F200.00
G01 X3.3669 Y-31.5100 F200.00
G01 X3.3669 Y-31.6670 F200.00
G01 X3.0031 Y-31.6670 F200.00
G01 X3.0031 Y-31.6535 F200.00
G01 X3.5985 Y-31.0581 F200.00
G01 X3.7324 Y-31.0581 F200.00
G01 X3.6966 Y-31.0676 F200.00
G00 Z2.5400
G00 X2.2700 Y-31.4650
G01 F100.00
G01 Z-0.1000
G01 F200.00
G01 X2.2715 Y-31.4394 F200.00
G01 X2.2781 Y-31.4018 F200.00
G01 X2.2876 Y-31.3705 F200.00
G01 X2.2966 Y-31.3487 F200.00
G01 X2.3118 Y-31.3200 F200.00
G01 X2.3172 Y-31.3115 F200.00
G01 X2.3325 Y-31.2900 F200.00
G01 X2.3549 Y-31.2649 F200.00
G01 X3.2135 Y-30.4064 F200.00
G01 X3.2350 Y-30.3875 F200.00
G01 X3.2565 Y-30.3722 F200.00
G01 X3.2847 Y-30.3559 F200.00
G01 X3.2937 Y-30.3516 F200.00
G01 X3.3155 Y-30.3426 F200.00
G01 X3.3468 Y-30.3331 F200.00
G01 X3.3845 Y-30.3265 F200.00
G01 X3.4150 Y-30.3249 F200.00
G01 X12.5460 Y-30.3249 F200.00
G01 X12.5765 Y-30.3265 F200.00
G01 X12.6142 Y-30.3331 F200.00
G01 X12.6455 Y-30.3426 F200.00
G01 X12.6763 Y-30.3559 F200.00
G01 X12.6988 Y-30.3684 F200.00
G01 X12.7228 Y-30.3851 F200.00
G01 X12.7475 Y-30.4064 F200.00
G01 X13.7062 Y-31.3649 F200.00
G01 X14.5374 Y-31.3649 F200.00
G01 X14.5649 Y-31.3663 F200.00
G01 X14.5749 Y-31.3674 F200.00
G01 X14.6056 Y-31.3731 F200.00
G01 X14.6380 Y-31.3830 F200.00
G01 X14.6587 Y-31.3916 F200.00
G01 X14.6874 Y-31.4068 F200.00
G01 X14.7143 Y-31.4252 F200.00
G01 X14.7222 Y-31.4314 F200.00
G01 X14.7426 Y-31.4499 F200.00
G01 X20.8426 Y-37.5499 F200.00
G01 X29.5867 Y-37.5499 F200.00
G01 X29.5941 Y-37.5258 F200.00
G01 X29.6310 Y-37.4368 F200.00
G01 X29.6354 Y-37.4277 F200.00
G01 X29.6815 Y-37.3442 F200.00
G01 X29.6869 Y-37.3357 F200.00
G01 X29.7444 Y-37.2548 F200.00
G01 X29.8119 Y-37.1790 F200.00
G01 X29.8190 Y-37.1719 F200.00
G01 X29.8901 Y-37.1083 F200.00
G01 X29.8980 Y-37.1020 F200.00
G01 X29.9815 Y-37.0431 F200.00
G01 X30.0677 Y-36.9954 F200.00
G01 X30.0768 Y-36.9910 F200.00
G01 X30.1658 Y-36.9541 F200.00
G01 X30.2672 Y-36.9245 F200.00
G01 X30.3698 Y-36.9066 F200.00
G01 X30.3798 Y-36.9055 F200.00
G01 X30.4750 Y-36.9001 F200.00
G01 X30.4850 Y-36.9001 F200.00
G01 X30.5833 Y-36.9057 F200.00
G01 X30.6928 Y-36.9245 F200.00
G01 X30.7942 Y-36.9541 F200.00
G01 X30.8832 Y-36.9910 F200.00
G01 X30.8923 Y-36.9954 F200.00
G01 X30.9785 Y-37.0431 F200.00
G01 X31.0652 Y-37.1044 F200.00
G01 X31.1447 Y-37.1753 F200.00
G01 X31.2156 Y-37.2548 F200.00
G01 X31.2769 Y-37.3415 F200.00
G01 X31.3246 Y-37.4277 F200.00
G01 X31.3290 Y-37.4368 F200.00
G01 X31.3659 Y-37.5258 F200.00
G01 X31.3955 Y-37.6272 F200.00
G01 X31.4143 Y-37.7367 F200.00
G01 X31.4200 Y-37.8400 F200.00
G01 X31.4143 Y-37.9433 F200.00
G01 X31.3955 Y-38.0528 F200.00
G01 X31.3659 Y-38.1542 F200.00
G01 X31.3290 Y-38.2432 F200.00
G01 X31.3246 Y-38.2523 F200.00
G01 X31.2769 Y-38.3385 F200.00
G01 X31.2180 Y-38.4220 F200.00
G01 X31.2117 Y-38.4299 F200.00
G01 X31.1447 Y-38.5047 F200.00
G01 X31.0652 Y-38.5756 F200.00
G01 X30.9843 Y-38.6331 F200.00
G01 X30.9758 Y-38.6385 F200.00
G01 X30.8923 Y-38.6846 F200.00
G01 X30.8832 Y-38.6890 F200.00
G01 X30.7942 Y-38.7259 F200.00
G01 X30.6941 Y-38.7552 F200.00
G01 X30.6842 Y-38.7574 F200.00
G01 X30.5833 Y-38.7743 F200.00
G01 X30.4800 Y-38.7800 F200.00
G01 X30.3767 Y-38.7743 F200.00
G01 X30.2758 Y-38.7574 F200.00
G01 X30.2659 Y-38.7552 F200.00
G01 X30.1658 Y-38.7259 F200.00
G01 X30.0768 Y-38.6890 F200.00
G01 X30.0677 Y-38.6846 F200.00
G01 X29.9815 Y-38.6369 F200.00
G01 X29.8980 Y-38.5780 F200.00
G01 X29.8901 Y-38.5717 F200.00
G01 X29.8190 Y-38.5081 F200.00
G01 X29.8119 Y-38.5010 F200.00
G01 X29.7444 Y-38.4252 F200.00
G01 X29.6869 Y-38.3443 F200.00
G01 X29.6815 Y-38.3358 F200.00
G01 X29.6354 Y-38.2523 F200.00
G01 X29.6310 Y-38.2432 F200.00
G01 X29.5941 Y-38.1542 F200.00
G01 X29.5867 Y-38.1301 F200.00
G01 X20.7224 Y-38.1301 F200.00
G01 X20.6919 Y-38.1285 F200.00
G01 X20.6628 Y-38.1238 F200.00
G01 X20.6530 Y-38.1216 F200.00
G01 X20.6229 Y-38.1124 F200.00
G01 X20.5921 Y-38.0991 F200.00
G01 X20.5697 Y-38.0866 F200.00
G01 X20.5424 Y-38.0675 F200.00
G01 X20.5173 Y-38.0451 F200.00
G01 X14.4173 Y-31.9451 F200.00
G01 X13.5810 Y-31.9450 F200.00
G01 X13.5554 Y-31.9435 F200.00
G01 X13.5178 Y-31.9369 F200.00
G01 X13.4865 Y-31.9274 F200.00
G01 X13.4556 Y-31.9141 F200.00
G01 X13.4332 Y-31.9016 F200.00
G01 X13.4092 Y-31.8848 F200.00
G01 X13.3809 Y-31.8601 F200.00
G01 X12.4258 Y-30.9051 F200.00
G01 X3.5352 Y-30.9051 F200.00
G01 X2.8501 Y-31.5902 F200.00
G01 X2.8501 Y-33.7349 F200.00
G01 X6.2950 Y-33.7349 F200.00
G01 X6.2955 Y-33.6156 F200.00
G01 X6.2994 Y-33.5972 F200.00
G01 X6.3028 Y-33.5884 F200.00
G01 X6.3070 Y-33.5800 F200.00
G01 X6.3181 Y-33.5648 F200.00
G01 X6.3321 Y-33.5522 F200.00
G01 X6.3484 Y-33.5428 F200.00
G01 X6.3572 Y-33.5394 F200.00
G01 X6.3756 Y-33.5355 F200.00
G01 X7.6850 Y-33.5350 F200.00
G01 X7.7037 Y-33.5370 F200.00
G01 X7.7216 Y-33.5428 F200.00
G01 X7.7300 Y-33.5470 F200.00
G01 X7.7379 Y-33.5522 F200.00
G01 X7.7519 Y-33.5648 F200.00
G01 X7.7630 Y-33.5800 F200.00
G01 X7.7672 Y-33.5884 F200.00
G01 X7.7730 Y-33.6063 F200.00
G01 X7.7745 Y-33.6156 F200.00
G01 X7.7750 Y-34.4250 F200.00
G01 X7.7730 Y-34.4437 F200.00
G01 X7.7672 Y-34.4616 F200.00
G01 X7.7578 Y-34.4779 F200.00
G01 X7.7519 Y-34.4852 F200.00
G01 X7.7452 Y-34.4919 F200.00
G01 X7.7300 Y-34.5030 F200.00
G01 X7.7128 Y-34.5106 F200.00
G01 X7.6944 Y-34.5145 F200.00
G01 X6.3756 Y-34.5145 F200.00
G01 X6.3572 Y-34.5106 F200.00
G01 X6.3484 Y-34.5072 F200.00
G01 X6.3321 Y-34.4978 F200.00
G01 X6.3248 Y-34.4919 F200.00
G01 X6.3122 Y-34.4779 F200.00
G01 X6.3028 Y-34.4616 F200.00
G01 X6.2994 Y-34.4528 F200.00
G01 X6.2955 Y-34.4344 F200.00
G01 X6.2950 Y-34.3151 F200.00
G01 X2.6550 Y-34.3151 F200.00
G01 X2.6244 Y-34.3135 F200.00
G01 X2.5868 Y-34.3069 F200.00
G01 X2.5545 Y-34.2970 F200.00
G01 X2.5337 Y-34.2884 F200.00
G01 X2.5050 Y-34.2732 F200.00
G01 X2.4750 Y-34.2525 F200.00
G01 X2.4499 Y-34.2301 F200.00
G01 X2.3549 Y-34.1351 F200.00
G01 X2.3325 Y-34.1100 F200.00
G01 X2.3118 Y-34.0800 F200.00
G01 X2.3009 Y-34.0604 F200.00
G01 X2.2880 Y-34.0305 F200.00
G01 X2.2781 Y-33.9982 F200.00
G01 X2.2715 Y-33.9606 F200.00
G01 X2.2699 Y-33.9300 F200.00
G01 X2.2700 Y-31.4650 F200.00
G01 X2.2715 Y-31.4394 F200.00
G00 Z2.5400
G00 X2.8700 Y-33.6100
G01 F100.00
G01 Z-0.1000
G01 F200.00
G01 X2.8700 Y-31.9100 F200.00
G01 X2.8705 Y-31.9006 F200.00
G01 X2.8744 Y-31.8822 F200.00
G01 X2.8820 Y-31.8650 F200.00
G01 X2.8872 Y-31.8571 F200.00
G01 X2.8998 Y-31.8431 F200.00
G01 X2.9150 Y-31.8320 F200.00
G01 X2.9234 Y-31.8278 F200.00
G01 X2.9322 Y-31.8244 F200.00
G01 X2.9506 Y-31.8205 F200.00
G01 X3.5199 Y-31.8200 F200.00
G01 X3.5200 Y-31.5050 F200.00
G01 X3.5215 Y-31.4794 F200.00
G01 X3.5262 Y-31.4504 F200.00
G01 X3.5284 Y-31.4406 F200.00
G01 X3.5376 Y-31.4105 F200.00
G01 X3.5509 Y-31.3796 F200.00
G01 X3.5634 Y-31.3572 F200.00
G01 X3.5825 Y-31.3300 F200.00
G01 X3.6049 Y-31.3049 F200.00
G01 X3.6249 Y-31.2849 F200.00
G01 X3.6453 Y-31.2664 F200.00
G01 X3.6715 Y-31.2472 F200.00
G01 X3.6996 Y-31.2309 F200.00
G01 X3.7305 Y-31.2176 F200.00
G01 X3.7606 Y-31.2084 F200.00
G01 X3.7704 Y-31.2062 F200.00
G01 X3.7994 Y-31.2015 F200.00
G01 X3.8300 Y-31.1999 F200.00
G01 X8.6944 Y-31.1999 F200.00
G01 X8.6988 Y-31.1716 F200.00
G01 X8.7057 Y-31.1444 F200.00
G01 X8.7169 Y-31.1135 F200.00
G01 X8.7278 Y-31.0904 F200.00
G01 X8.7445 Y-31.0623 F200.00
G01 X8.7599 Y-31.0414 F200.00
G01 X8.7861 Y-31.0124 F200.00
G01 X8.8039 Y-30.9963 F200.00
G01 X8.8298 Y-30.9770 F200.00
G01 X8.8579 Y-30.9603 F200.00
G01 X8.8810 Y-30.9494 F200.00
G01 X8.9119 Y-30.9382 F200.00
G01 X8.9390 Y-30.9313 F200.00
G01 X8.9709 Y-30.9265 F200.00
G01 X8.9968 Y-30.9251 F200.00
G01 X9.4388 Y-30.9250 F200.00
G01 X9.4691 Y-30.9265 F200.00
G01 X9.5010 Y-30.9313 F200.00
G01 X9.5281 Y-30.9382 F200.00
G01 X9.5590 Y-30.9494 F200.00
G01 X9.5821 Y-30.9603 F200.00
G01 X9.6102 Y-30.9770 F200.00
G01 X9.6361 Y-30.9963 F200.00
G01 X9.6571 Y-31.0154 F200.00
G01 X9.6762 Y-31.0364 F200.00
G01 X9.6955 Y-31.0623 F200.00
G01 X9.7130 Y-31.0921 F200.00
G01 X9.7231 Y-31.1135 F200.00
G01 X9.7328 Y-31.1399 F200.00
G01 X9.7412 Y-31.1716 F200.00
G01 X9.7463 Y-31.2079 F200.00
G01 X9.7475 Y-31.2337 F200.00
G01 X9.7475 Y-31.7463 F200.00
G01 X9.7460 Y-31.7766 F200.00
G01 X9.7412 Y-31.8084 F200.00
G01 X9.7328 Y-31.8401 F200.00
G01 X9.7231 Y-31.8665 F200.00
G01 X9.7122 Y-31.8896 F200.00
G01 X9.6929 Y-31.9214 F200.00
G01 X9.6762 Y-31.9436 F200.00
G01 X9.6571 Y-31.9646 F200.00
G01 X9.6311 Y-31.9876 F200.00
G01 X9.6102 Y-32.0030 F200.00
G01 X9.5881 Y-32.0164 F200.00
G01 X9.5528 Y-32.0331 F200.00
G01 X9.5281 Y-32.0418 F200.00
G01 X9.5101 Y-32.0464 F200.00
G01 X9.5101 Y-34.7888 F200.00
G01 X11.4897 Y-36.7684 F200.00
G01 X11.5121 Y-36.7936 F200.00
G01 X11.5312 Y-36.8208 F200.00
G01 X11.5480 Y-36.8523 F200.00
G01 X11.5599 Y-36.8826 F200.00
G01 X11.5684 Y-36.9140 F200.00
G01 X11.5730 Y-36.9430 F200.00
G01 X11.5745 Y-36.9685 F200.00
G01 X11.5745 Y-38.0572 F200.00
G01 X11.5730 Y-38.0827 F200.00
G01 X11.5684 Y-38.1118 F200.00
G01 X11.5661 Y-38.1216 F200.00
G01 X11.5570 Y-38.1517 F200.00
G01 X11.5480 Y-38.1734 F200.00
G01 X11.5328 Y-38.2022 F200.00
G01 X11.5144 Y-38.2290 F200.00
G01 X11.5081 Y-38.2369 F200.00
G01 X11.4897 Y-38.2573 F200.00
G01 X10.6513 Y-39.0957 F200.00
G01 X10.6513 Y-41.0908 F200.00
G01 X10.6706 Y-41.1051 F200.00
G01 X10.7112 Y-41.1422 F200.00
G01 X10.7450 Y-41.1803 F200.00
G01 X10.7733 Y-41.2201 F200.00
G01 X10.8004 Y-41.2679 F200.00
G01 X10.8047 Y-41.2770 F200.00
G01 X10.8223 Y-41.3195 F200.00
G01 X10.8380 Y-41.3723 F200.00
G01 X10.8474 Y-41.4251 F200.00
G01 X10.8486 Y-41.4352 F200.00
G01 X10.8512 Y-41.4850 F200.00
G01 X10.8483 Y-41.5379 F200.00
G01 X10.8380 Y-41.5977 F200.00
G01 X10.8252 Y-41.6420 F200.00
G01 X10.8047 Y-41.6930 F200.00
G01 X10.8004 Y-41.7021 F200.00
G01 X10.7771 Y-41.7441 F200.00
G01 X10.7473 Y-41.7865 F200.00
G01 X10.7077 Y-41.8315 F200.00
G01 X10.6627 Y-41.8711 F200.00
G01 X10.6203 Y-41.9009 F200.00
G01 X10.5783 Y-41.9241 F200.00
G01 X10.5692 Y-41.9285 F200.00
G01 X10.5182 Y-41.9490 F200.00
G01 X10.4739 Y-41.9618 F200.00
G01 X10.4211 Y-41.9712 F200.00
G01 X10.3612 Y-41.9750 F200.00
G01 X10.3083 Y-41.9721 F200.00
G01 X10.2876 Y-41.9689 F200.00
G01 X9.1263 Y-43.1301 F200.00
G01 X9.1012 Y-43.1525 F200.00
G01 X9.0740 Y-43.1716 F200.00
G01 X9.0425 Y-43.1884 F200.00
G01 X9.0122 Y-43.2004 F200.00
G01 X8.9808 Y-43.2088 F200.00
G01 X8.9517 Y-43.2135 F200.00
G01 X8.9262 Y-43.2150 F200.00
G01 X7.7750 Y-43.2151 F200.00
G01 X7.7745 Y-43.3344 F200.00
G01 X7.7706 Y-43.3528 F200.00
G01 X7.7672 Y-43.3616 F200.00
G01 X7.7630 Y-43.3700 F200.00
G01 X7.7519 Y-43.3852 F200.00
G01 X7.7379 Y-43.3978 F200.00
G01 X7.7216 Y-43.4072 F200.00
G01 X7.7128 Y-43.4106 F200.00
G01 X7.6944 Y-43.4145 F200.00
G01 X6.3756 Y-43.4145 F200.00
G01 X6.3572 Y-43.4106 F200.00
G01 X6.3484 Y-43.4072 F200.00
G01 X6.3321 Y-43.3978 F200.00
G01 X6.3248 Y-43.3919 F200.00
G01 X6.3181 Y-43.3852 F200.00
G01 X6.3070 Y-43.3700 F200.00
G01 X6.2994 Y-43.3528 F200.00
G01 X6.2955 Y-43.3344 F200.00
G01 X6.2955 Y-42.5156 F200.00
G01 X6.2994 Y-42.4972 F200.00
G01 X6.3028 Y-42.4884 F200.00
G01 X6.3122 Y-42.4721 F200.00
G01 X6.3248 Y-42.4581 F200.00
G01 X6.3321 Y-42.4522 F200.00
G01 X6.3484 Y-42.4428 F200.00
G01 X6.3663 Y-42.4370 F200.00
G01 X6.3850 Y-42.4350 F200.00
G01 X7.6944 Y-42.4355 F200.00
G01 X7.7128 Y-42.4394 F200.00
G01 X7.7216 Y-42.4428 F200.00
G01 X7.7379 Y-42.4522 F200.00
G01 X7.7452 Y-42.4581 F200.00
G01 X7.7578 Y-42.4721 F200.00
G01 X7.7672 Y-42.4884 F200.00
G01 X7.7706 Y-42.4972 F200.00
G01 X7.7745 Y-42.5156 F200.00
G01 X7.7750 Y-42.6349 F200.00
G01 X8.8010 Y-42.6349 F200.00
G01 X9.8773 Y-41.5586 F200.00
G01 X9.8741 Y-41.5379 F200.00
G01 X9.8712 Y-41.4850 F200.00
G01 X9.8750 Y-41.4251 F200.00
G01 X9.8844 Y-41.3723 F200.00
G01 X9.8972 Y-41.3280 F200.00
G01 X9.9177 Y-41.2770 F200.00
G01 X9.9453 Y-41.2259 F200.00
G01 X9.9774 Y-41.1803 F200.00
G01 X10.0147 Y-41.1385 F200.00
G01 X10.0518 Y-41.1051 F200.00
G01 X10.0711 Y-41.0908 F200.00
G01 X10.0711 Y-38.9756 F200.00
G01 X10.0736 Y-38.9381 F200.00
G01 X10.0793 Y-38.9073 F200.00
G01 X10.0859 Y-38.8845 F200.00
G01 X10.0978 Y-38.8543 F200.00
G01 X10.1146 Y-38.8228 F200.00
G01 X10.1337 Y-38.7955 F200.00
G01 X10.1561 Y-38.7704 F200.00
G01 X10.9945 Y-37.9320 F200.00
G01 X10.9945 Y-37.0937 F200.00
G01 X9.0149 Y-35.1141 F200.00
G01 X8.9925 Y-35.0890 F200.00
G01 X8.9734 Y-35.0618 F200.00
G01 X8.9609 Y-35.0394 F200.00
G01 X8.9476 Y-35.0085 F200.00
G01 X8.9384 Y-34.9784 F200.00
G01 X8.9362 Y-34.9686 F200.00
G01 X8.9315 Y-34.9396 F200.00
G01 X8.9299 Y-34.9090 F200.00
G01 X8.9299 Y-32.0464 F200.00
G01 X8.9119 Y-32.0418 F200.00
G01 X8.8810 Y-32.0306 F200.00
G01 X8.8579 Y-32.0197 F200.00
G01 X8.8335 Y-32.0053 F200.00
G01 X8.8039 Y-31.9837 F200.00
G01 X8.7829 Y-31.9646 F200.00
G01 X8.7655 Y-31.9455 F200.00
G01 X8.7422 Y-31.9140 F200.00
G01 X8.7278 Y-31.8896 F200.00
G01 X8.7169 Y-31.8665 F200.00
G01 X8.7046 Y-31.8316 F200.00
G01 X8.6988 Y-31.8084 F200.00
G01 X8.6944 Y-31.7801 F200.00
G01 X4.1001 Y-31.7801 F200.00
G01 X4.1001 Y-31.8200 F200.00
G01 X4.6600 Y-31.8200 F200.00
G01 X4.6787 Y-31.8220 F200.00
G01 X4.6966 Y-31.8278 F200.00
G01 X4.7129 Y-31.8372 F200.00
G01 X4.7269 Y-31.8498 F200.00
G01 X4.7380 Y-31.8650 F200.00
G01 X4.7422 Y-31.8734 F200.00
G01 X4.7480 Y-31.8913 F200.00
G01 X4.7500 Y-31.9100 F200.00
G01 X4.7500 Y-32.4699 F200.00
G01 X5.3208 Y-32.4699 F200.00
G01 X5.3352 Y-32.4506 F200.00
G01 X5.3722 Y-32.4100 F200.00
G01 X5.4103 Y-32.3762 F200.00
G01 X5.4559 Y-32.3441 F200.00
G01 X5.4979 Y-32.3208 F200.00
G01 X5.5495 Y-32.2989 F200.00
G01 X5.6023 Y-32.2832 F200.00
G01 X5.6621 Y-32.2729 F200.00
G01 X5.7150 Y-32.2700 F200.00
G01 X5.7648 Y-32.2727 F200.00
G01 X5.7749 Y-32.2738 F200.00
G01 X5.8277 Y-32.2832 F200.00
G01 X5.8805 Y-32.2989 F200.00
G01 X5.9230 Y-32.3165 F200.00
G01 X5.9741 Y-32.3441 F200.00
G01 X6.0197 Y-32.3762 F200.00
G01 X6.0578 Y-32.4100 F200.00
G01 X6.0650 Y-32.4172 F200.00
G01 X6.1011 Y-32.4585 F200.00
G01 X6.1309 Y-32.5009 F200.00
G01 X6.1585 Y-32.5520 F200.00
G01 X6.1761 Y-32.5945 F200.00
G01 X6.1918 Y-32.6473 F200.00
G01 X6.2021 Y-32.7071 F200.00
G01 X6.2049 Y-32.7550 F200.00
G01 X6.2023 Y-32.8098 F200.00
G01 X6.2012 Y-32.8199 F200.00
G01 X6.1918 Y-32.8727 F200.00
G01 X6.1761 Y-32.9255 F200.00
G01 X6.1542 Y-32.9771 F200.00
G01 X6.1309 Y-33.0191 F200.00
G01 X6.0988 Y-33.0647 F200.00
G01 X6.0615 Y-33.1065 F200.00
G01 X6.0197 Y-33.1438 F200.00
G01 X5.9713 Y-33.1775 F200.00
G01 X5.9230 Y-33.2035 F200.00
G01 X5.8805 Y-33.2211 F200.00
G01 X5.8289 Y-33.2365 F200.00
G01 X5.8191 Y-33.2387 F200.00
G01 X5.7679 Y-33.2471 F200.00
G01 X5.7150 Y-33.2500 F200.00
G01 X5.6621 Y-33.2471 F200.00
G01 X5.6023 Y-33.2368 F200.00
G01 X5.5495 Y-33.2211 F200.00
G01 X5.4979 Y-33.1992 F200.00
G01 X5.4559 Y-33.1759 F200.00
G01 X5.4135 Y-33.1461 F200.00
G01 X5.4056 Y-33.1398 F200.00
G01 X5.3650 Y-33.1028 F200.00
G01 X5.3352 Y-33.0694 F200.00
G01 X5.3208 Y-33.0501 F200.00
G01 X4.7500 Y-33.0501 F200.00
G01 X4.7495 Y-33.6194 F200.00
G01 X4.7456 Y-33.6378 F200.00
G01 X4.7422 Y-33.6466 F200.00
G01 X4.7328 Y-33.6629 F200.00
G01 X4.7269 Y-33.6702 F200.00
G01 X4.7129 Y-33.6828 F200.00
G01 X4.7050 Y-33.6880 F200.00
G01 X4.6966 Y-33.6922 F200.00
G01 X4.6787 Y-33.6980 F200.00
G01 X4.6600 Y-33.7000 F200.00
G01 X2.9600 Y-33.7000 F200.00
G01 X2.9413 Y-33.6980 F200.00
G01 X2.9234 Y-33.6922 F200.00
G01 X2.9071 Y-33.6828 F200.00
G01 X2.8931 Y-33.6702 F200.00
G01 X2.8820 Y-33.6550 F200.00
G01 X2.8778 Y-33.6466 F200.00
G01 X2.8720 Y-33.6287 F200.00
G01 X2.8700 Y-33.6100 F200.00
G01 X2.8700 Y-31.9100 F200.00
G00 Z2.5400
G00 X4.5174 Y-34.4681
G01 F100.00
G01 Z-0.1000
G01 F200.00
G01 X6.1461 Y-34.4681 F200.00
G01 X6.1473 Y-34.4754 F200.00
G01 X6.1539 Y-34.5000 F200.00
G01 X6.1629 Y-34.5237 F200.00
G01 X6.1745 Y-34.5464 F200.00
G01 X6.1884 Y-34.5678 F200.00
G01 X6.2044 Y-34.5876 F200.00
G01 X6.2224 Y-34.6056 F200.00
G01 X6.2422 Y-34.6216 F200.00
G01 X6.2636 Y-34.6355 F200.00
G01 X6.2863 Y-34.6471 F200.00
G01 X6.3100 Y-34.6561 F200.00
G01 X6.3346 Y-34.6627 F200.00
G01 X6.3491 Y-34.6650 F200.00
G01 X6.3346 Y-34.6673 F200.00
G01 X6.3100 Y-34.6739 F200.00
G01 X6.2863 Y-34.6829 F200.00
G01 X6.2636 Y-34.6945 F200.00
G01 X6.2422 Y-34.7084 F200.00
G01 X6.2224 Y-34.7244 F200.00
G01 X6.2044 Y-34.7424 F200.00
G01 X6.1884 Y-34.7622 F200.00
G01 X6.1745 Y-34.7836 F200.00
G01 X6.1629 Y-34.8063 F200.00
G01 X6.1537 Y-34.8306 F200.00
G01 X6.1263 Y-34.8061 F200.00
G01 X6.1103 Y-34.7930 F200.00
G01 X6.1019 Y-34.7572 F200.00
G01 X6.0977 Y-34.7438 F200.00
G01 X6.0912 Y-34.7255 F200.00
G01 X6.0774 Y-34.6942 F200.00
G01 X6.0552 Y-34.6559 F200.00
G01 X6.0365 Y-34.6302 F200.00
G01 X6.0238 Y-34.6151 F200.00
G01 X6.0143 Y-34.6048 F200.00
G01 X5.9953 Y-34.5862 F200.00
G01 X5.9739 Y-34.5680 F200.00
G01 X5.9634 Y-34.5603 F200.00
G01 X5.9480 Y-34.5496 F200.00
G01 X5.9167 Y-34.5315 F200.00
G01 X5.8925 Y-34.5201 F200.00
G01 X5.8795 Y-34.5148 F200.00
G01 X5.8541 Y-34.5061 F200.00
G01 X5.8406 Y-34.5022 F200.00
G01 X5.8144 Y-34.4964 F200.00
G01 X5.7847 Y-34.4919 F200.00
G01 X5.7599 Y-34.4903 F200.00
G01 X5.2171 Y-34.4899 F200.00
G01 X5.1804 Y-34.4918 F200.00
G01 X5.1461 Y-34.4969 F200.00
G01 X5.1240 Y-34.5019 F200.00
G01 X5.0909 Y-34.5121 F200.00
G01 X5.0783 Y-34.5171 F200.00
G01 X5.0599 Y-34.5250 F200.00
G01 X5.0270 Y-34.5426 F200.00
G01 X5.0035 Y-34.5579 F200.00
G01 X4.9867 Y-34.5704 F200.00
G01 X4.9594 Y-34.5946 F200.00
G01 X4.9400 Y-34.6149 F200.00
G01 X4.9238 Y-34.6342 F200.00
G01 X4.8991 Y-34.6706 F200.00
G01 X4.8796 Y-34.7081 F200.00
G01 X4.8681 Y-34.7372 F200.00
G01 X4.8598 Y-34.7640 F200.00
G01 X4.8531 Y-34.7932 F200.00
G01 X4.8516 Y-34.8029 F200.00
G01 X4.7826 Y-34.8029 F200.00
G01 X4.7381 Y-34.7228 F200.00
G01 X4.7279 Y-34.7072 F200.00
G01 X4.6664 Y-34.6208 F200.00
G01 X4.6557 Y-34.6081 F200.00
G01 X4.5829 Y-34.5271 F200.00
G01 X4.5174 Y-34.4681 F200.00
G01 X6.1461 Y-34.4681 F200.00
G00 Z2.5400
G00 X6.3850 Y-34.8150
G01 F100.00
G01 Z-0.1000
G01 F200.00
G01 X7.6850 Y-34.8150 F200.00
G01 X7.7037 Y-34.8170 F200.00
G01 X7.7216 Y-34.8228 F200.00
G01 X7.7300 Y-34.8270 F200.00
G01 X7.7452 Y-34.8381 F200.00
G01 X7.7519 Y-34.8448 F200.00
G01 X7.7630 Y-34.8600 F200.00
G01 X7.7672 Y-34.8684 F200.00
G01 X7.7730 Y-34.8863 F200.00
G01 X7.7750 Y-34.9050 F200.00
G01 X7.7750 Y-35.0254 F200.00
G01 X7.7984 Y-35.0326 F200.00
G01 X7.8202 Y-35.0416 F200.00
G01 X7.8517 Y-35.0584 F200.00
G01 X7.8789 Y-35.0775 F200.00
G01 X7.9040 Y-35.0999 F200.00
G01 X10.2672 Y-37.4631 F200.00
G01 X10.2896 Y-37.4882 F200.00
G01 X10.3049 Y-37.5096 F200.00
G01 X10.3177 Y-37.5311 F200.00
G01 X10.3255 Y-37.5469 F200.00
G01 X10.3345 Y-37.5687 F200.00
G01 X10.3412 Y-37.5891 F200.00
G01 X10.3479 Y-37.6186 F200.00
G01 X10.3506 Y-37.6376 F200.00
G01 X10.3521 Y-37.6579 F200.00
G01 X10.3892 Y-37.6844 F200.00
G01 X10.4311 Y-37.7217 F200.00
G01 X10.4683 Y-37.7635 F200.00
G01 X10.4967 Y-37.8033 F200.00
G01 X10.5237 Y-37.8511 F200.00
G01 X10.5281 Y-37.8602 F200.00
G01 X10.5486 Y-37.9112 F200.00
G01 X10.5633 Y-37.9641 F200.00
G01 X10.5717 Y-38.0153 F200.00
G01 X10.5746 Y-38.0682 F200.00
G01 X10.5717 Y-38.1211 F200.00
G01 X10.5614 Y-38.1809 F200.00
G01 X10.5457 Y-38.2337 F200.00
G01 X10.5237 Y-38.2853 F200.00
G01 X10.5004 Y-38.3273 F200.00
G01 X10.4707 Y-38.3697 F200.00
G01 X10.4644 Y-38.3776 F200.00
G01 X10.4311 Y-38.4147 F200.00
G01 X10.3892 Y-38.4520 F200.00
G01 X10.3437 Y-38.4840 F200.00
G01 X10.3017 Y-38.5073 F200.00
G01 X10.2501 Y-38.5293 F200.00
G01 X10.1973 Y-38.5450 F200.00
G01 X10.1375 Y-38.5553 F200.00
G01 X10.0896 Y-38.5580 F200.00
G01 X10.0316 Y-38.5553 F200.00
G01 X9.9805 Y-38.5469 F200.00
G01 X9.9275 Y-38.5322 F200.00
G01 X9.9180 Y-38.5289 F200.00
G01 X9.8675 Y-38.5073 F200.00
G01 X9.8255 Y-38.4840 F200.00
G01 X9.7799 Y-38.4520 F200.00
G01 X9.7381 Y-38.4147 F200.00
G01 X9.7008 Y-38.3728 F200.00
G01 X9.6687 Y-38.3273 F200.00
G01 X9.6454 Y-38.2853 F200.00
G01 X9.6239 Y-38.2347 F200.00
G01 X9.6205 Y-38.2252 F200.00
G01 X9.6059 Y-38.1723 F200.00
G01 X9.5975 Y-38.1211 F200.00
G01 X9.5946 Y-38.0682 F200.00
G01 X9.5975 Y-38.0153 F200.00
G01 X9.6059 Y-37.9641 F200.00
G01 X9.6081 Y-37.9543 F200.00
G01 X9.6235 Y-37.9026 F200.00
G01 X9.6454 Y-37.8511 F200.00
G01 X9.6687 Y-37.8091 F200.00
G01 X9.7008 Y-37.7635 F200.00
G01 X9.7225 Y-37.7389 F200.00
G01 X7.7504 Y-35.7667 F200.00
G01 X7.7379 Y-35.7778 F200.00
G01 X7.7216 Y-35.7872 F200.00
G01 X7.7037 Y-35.7930 F200.00
G01 X7.6850 Y-35.7950 F200.00
G01 X6.3850 Y-35.7950 F200.00
G01 X6.3663 Y-35.7930 F200.00
G01 X6.3484 Y-35.7872 F200.00
G01 X6.3400 Y-35.7830 F200.00
G01 X6.3248 Y-35.7719 F200.00
G01 X6.3122 Y-35.7579 F200.00
G01 X6.3028 Y-35.7416 F200.00
G01 X6.2970 Y-35.7237 F200.00
G01 X6.2950 Y-35.7050 F200.00
G01 X6.2955 Y-34.8956 F200.00
G01 X6.2994 Y-34.8772 F200.00
G01 X6.3070 Y-34.8600 F200.00
G01 X6.3181 Y-34.8448 F200.00
G01 X6.3248 Y-34.8381 F200.00
G01 X6.3400 Y-34.8270 F200.00
G01 X6.3484 Y-34.8228 F200.00
G01 X6.3663 Y-34.8170 F200.00
G01 X6.3850 Y-34.8150 F200.00
G01 X7.6850 Y-34.8150 F200.00
G00 Z2.5400
G00 X6.3070 Y-35.9350
G01 F100.00
G01 Z-0.1000
G01 F200.00
G01 X6.2863 Y-35.9429 F200.00
G01 X6.2636 Y-35.9545 F200.00
G01 X6.2422 Y-35.9684 F200.00
G01 X6.2224 Y-35.9844 F200.00
G01 X6.2044 Y-36.0024 F200.00
G01 X6.1884 Y-36.0222 F200.00
G01 X6.1745 Y-36.0436 F200.00
G01 X6.1629 Y-36.0663 F200.00
G01 X6.1539 Y-36.0900 F200.00
G01 X6.1473 Y-36.1146 F200.00
G01 X6.1461 Y-36.1219 F200.00
G01 X4.5286 Y-36.1219 F200.00
G01 X4.5829 Y-36.0729 F200.00
G01 X4.6557 Y-35.9919 F200.00
G01 X4.6664 Y-35.9792 F200.00
G01 X4.7279 Y-35.8928 F200.00
G01 X4.7381 Y-35.8772 F200.00
G01 X4.7826 Y-35.7971 F200.00
G01 X4.8573 Y-35.7971 F200.00
G01 X4.8654 Y-35.8315 F200.00
G01 X4.8774 Y-35.8665 F200.00
G01 X4.8887 Y-35.8921 F200.00
G01 X4.9033 Y-35.9194 F200.00
G01 X4.9280 Y-35.9558 F200.00
G01 X4.9442 Y-35.9751 F200.00
G01 X4.9635 Y-35.9954 F200.00
G01 X4.9743 Y-36.0054 F200.00
G01 X4.9958 Y-36.0234 F200.00
G01 X5.0076 Y-36.0321 F200.00
G01 X5.0311 Y-36.0474 F200.00
G01 X5.0640 Y-36.0650 F200.00
G01 X5.0825 Y-36.0729 F200.00
G01 X5.0950 Y-36.0779 F200.00
G01 X5.1282 Y-36.0881 F200.00
G01 X5.1502 Y-36.0931 F200.00
G01 X5.1846 Y-36.0982 F200.00
G01 X5.2212 Y-36.1001 F200.00
G01 X5.7425 Y-36.1001 F200.00
G01 X5.7700 Y-36.0989 F200.00
G01 X5.7966 Y-36.0960 F200.00
G01 X5.8343 Y-36.0884 F200.00
G01 X5.8501 Y-36.0839 F200.00
G01 X5.8755 Y-36.0752 F200.00
G01 X5.9055 Y-36.0622 F200.00
G01 X5.9251 Y-36.0518 F200.00
G01 X5.9440 Y-36.0404 F200.00
G01 X5.9699 Y-36.0220 F200.00
G01 X5.9806 Y-36.0132 F200.00
G01 X5.9913 Y-36.0038 F200.00
G01 X6.0103 Y-35.9852 F200.00
G01 X6.0326 Y-35.9598 F200.00
G01 X6.0451 Y-35.9428 F200.00
G01 X6.0597 Y-35.9204 F200.00
G01 X6.0734 Y-35.8958 F200.00
G01 X6.0873 Y-35.8645 F200.00
G01 X6.0979 Y-35.8328 F200.00
G01 X6.1030 Y-35.8123 F200.00
G01 X6.1263 Y-35.7939 F200.00
G01 X6.1516 Y-35.7714 F200.00
G01 X6.1539 Y-35.7800 F200.00
G01 X6.1629 Y-35.8037 F200.00
G01 X6.1745 Y-35.8264 F200.00
G01 X6.1884 Y-35.8478 F200.00
G01 X6.2044 Y-35.8676 F200.00
G01 X6.2224 Y-35.8856 F200.00
G01 X6.2422 Y-35.9016 F200.00
G01 X6.2636 Y-35.9155 F200.00
G01 X6.2863 Y-35.9271 F200.00
G01 X6.3070 Y-35.9350 F200.00
G01 X6.2863 Y-35.9429 F200.00
G00 Z2.5400
G00 X6.3244 Y-37.2000
G01 F100.00
G01 Z-0.1000
G01 F200.00
G01 X6.3100 Y-37.2039 F200.00
G01 X6.2863 Y-37.2129 F200.00
G01 X6.2636 Y-37.2245 F200.00
G01 X6.2422 Y-37.2384 F200.00
G01 X6.2224 Y-37.2544 F200.00
G01 X6.2044 Y-37.2724 F200.00
G01 X6.1884 Y-37.2922 F200.00
G01 X6.1745 Y-37.3136 F200.00
G01 X6.1629 Y-37.3363 F200.00
G01 X6.1539 Y-37.3600 F200.00
G01 X6.1473 Y-37.3846 F200.00
G01 X6.1461 Y-37.3919 F200.00
G01 X5.9850 Y-37.3919 F200.00
G01 X5.9406 Y-37.3942 F200.00
G01 X5.8998 Y-37.4004 F200.00
G01 X5.8765 Y-37.4055 F200.00
G01 X5.8516 Y-37.4126 F200.00
G01 X5.8287 Y-37.4205 F200.00
G01 X5.8052 Y-37.4302 F200.00
G01 X5.7806 Y-37.4420 F200.00
G01 X5.7535 Y-37.4572 F200.00
G01 X5.7196 Y-37.4804 F200.00
G01 X5.6983 Y-37.4974 F200.00
G01 X5.6717 Y-37.5217 F200.00
G01 X5.5031 Y-37.6903 F200.00
G01 X5.5031 Y-37.6735 F200.00
G01 X6.1502 Y-37.0264 F200.00
G01 X6.1539 Y-37.0400 F200.00
G01 X6.1629 Y-37.0637 F200.00
G01 X6.1745 Y-37.0864 F200.00
G01 X6.1884 Y-37.1078 F200.00
G01 X6.2044 Y-37.1276 F200.00
G01 X6.2224 Y-37.1456 F200.00
G01 X6.2422 Y-37.1616 F200.00
G01 X6.2636 Y-37.1755 F200.00
G01 X6.2863 Y-37.1871 F200.00
G01 X6.3100 Y-37.1961 F200.00
G01 X6.3244 Y-37.2000 F200.00
G01 X6.3100 Y-37.2039 F200.00
G00 Z2.5400
G00 X6.3850 Y-38.6250
G01 F100.00
G01 Z-0.1000
G01 F200.00
G01 X7.6944 Y-38.6255 F200.00
G01 X7.7128 Y-38.6294 F200.00
G01 X7.7216 Y-38.6328 F200.00
G01 X7.7379 Y-38.6422 F200.00
G01 X7.7519 Y-38.6548 F200.00
G01 X7.7578 Y-38.6621 F200.00
G01 X7.7672 Y-38.6784 F200.00
G01 X7.7730 Y-38.6963 F200.00
G01 X7.7745 Y-38.7056 F200.00
G01 X7.7750 Y-38.8249 F200.00
G01 X7.9648 Y-38.8249 F200.00
G01 X8.5442 Y-38.2455 F200.00
G01 X8.5442 Y-38.2017 F200.00
G01 X8.5250 Y-38.1873 F200.00
G01 X8.4878 Y-38.1539 F200.00
G01 X8.4506 Y-38.1121 F200.00
G01 X8.4185 Y-38.0666 F200.00
G01 X8.3908 Y-38.0155 F200.00
G01 X8.3732 Y-37.9730 F200.00
G01 X8.3575 Y-37.9201 F200.00
G01 X8.3472 Y-37.8604 F200.00
G01 X8.3443 Y-37.8075 F200.00
G01 X8.3472 Y-37.7545 F200.00
G01 X8.3575 Y-37.6948 F200.00
G01 X8.3732 Y-37.6419 F200.00
G01 X8.3908 Y-37.5995 F200.00
G01 X8.4185 Y-37.5483 F200.00
G01 X8.4506 Y-37.5028 F200.00
G01 X8.4878 Y-37.4610 F200.00
G01 X8.5250 Y-37.4276 F200.00
G01 X8.5329 Y-37.4213 F200.00
G01 X8.5752 Y-37.3916 F200.00
G01 X8.6172 Y-37.3683 F200.00
G01 X8.6688 Y-37.3463 F200.00
G01 X8.7216 Y-37.3307 F200.00
G01 X8.7814 Y-37.3203 F200.00
G01 X8.8343 Y-37.3175 F200.00
G01 X8.8873 Y-37.3203 F200.00
G01 X8.9384 Y-37.3288 F200.00
G01 X8.9483 Y-37.3310 F200.00
G01 X8.9999 Y-37.3463 F200.00
G01 X9.0514 Y-37.3683 F200.00
G01 X9.0992 Y-37.3954 F200.00
G01 X9.1390 Y-37.4237 F200.00
G01 X9.1771 Y-37.4575 F200.00
G01 X9.1843 Y-37.4646 F200.00
G01 X9.2181 Y-37.5028 F200.00
G01 X9.2502 Y-37.5483 F200.00
G01 X9.2779 Y-37.5995 F200.00
G01 X9.2984 Y-37.6504 F200.00
G01 X9.3130 Y-37.7034 F200.00
G01 X9.3214 Y-37.7545 F200.00
G01 X9.3242 Y-37.8024 F200.00
G01 X9.3214 Y-37.8604 F200.00
G01 X9.3111 Y-37.9201 F200.00
G01 X9.2954 Y-37.9730 F200.00
G01 X9.2779 Y-38.0155 F200.00
G01 X9.2518 Y-38.0638 F200.00
G01 X9.2464 Y-38.0724 F200.00
G01 X9.2181 Y-38.1121 F200.00
G01 X9.1843 Y-38.1503 F200.00
G01 X9.1437 Y-38.1873 F200.00
G01 X9.1244 Y-38.2017 F200.00
G01 X9.1243 Y-38.3707 F200.00
G01 X9.1228 Y-38.3962 F200.00
G01 X9.1181 Y-38.4253 F200.00
G01 X9.1097 Y-38.4567 F200.00
G01 X9.0978 Y-38.4869 F200.00
G01 X9.0809 Y-38.5184 F200.00
G01 X9.0618 Y-38.5457 F200.00
G01 X9.0395 Y-38.5708 F200.00
G01 X8.2901 Y-39.3201 F200.00
G01 X8.2650 Y-39.3425 F200.00
G01 X8.2350 Y-39.3632 F200.00
G01 X8.2154 Y-39.3741 F200.00
G01 X8.1855 Y-39.3870 F200.00
G01 X8.1532 Y-39.3969 F200.00
G01 X8.1156 Y-39.4035 F200.00
G01 X8.0850 Y-39.4051 F200.00
G01 X7.7750 Y-39.4051 F200.00
G01 X7.7750 Y-39.5150 F200.00
G01 X7.7730 Y-39.5337 F200.00
G01 X7.7706 Y-39.5428 F200.00
G01 X7.7630 Y-39.5600 F200.00
G01 X7.7578 Y-39.5679 F200.00
G01 X7.7452 Y-39.5819 F200.00
G01 X7.7300 Y-39.5930 F200.00
G01 X7.7128 Y-39.6006 F200.00
G01 X7.7037 Y-39.6030 F200.00
G01 X7.6850 Y-39.6050 F200.00
G01 X6.3850 Y-39.6050 F200.00
G01 X6.3663 Y-39.6030 F200.00
G01 X6.3572 Y-39.6006 F200.00
G01 X6.3400 Y-39.5930 F200.00
G01 X6.3321 Y-39.5878 F200.00
G01 X6.3181 Y-39.5752 F200.00
G01 X6.3070 Y-39.5600 F200.00
G01 X6.2994 Y-39.5428 F200.00
G01 X6.2970 Y-39.5337 F200.00
G01 X6.2950 Y-39.5150 F200.00
G01 X6.2955 Y-38.7056 F200.00
G01 X6.2994 Y-38.6872 F200.00
G01 X6.3070 Y-38.6700 F200.00
G01 X6.3122 Y-38.6621 F200.00
G01 X6.3248 Y-38.6481 F200.00
G01 X6.3400 Y-38.6370 F200.00
G01 X6.3484 Y-38.6328 F200.00
G01 X6.3663 Y-38.6270 F200.00
G01 X6.3850 Y-38.6250 F200.00
G01 X7.6944 Y-38.6255 F200.00
G00 Z2.5400
G00 X6.3244 Y-39.7500
G01 F100.00
G01 Z-0.1000
G01 F200.00
G01 X6.3100 Y-39.7539 F200.00
G01 X6.2863 Y-39.7629 F200.00
G01 X6.2636 Y-39.7745 F200.00
G01 X6.2422 Y-39.7884 F200.00
G01 X6.2224 Y-39.8044 F200.00
G01 X6.2044 Y-39.8224 F200.00
G01 X6.1884 Y-39.8422 F200.00
G01 X6.1745 Y-39.8636 F200.00
G01 X6.1629 Y-39.8863 F200.00
G01 X6.1539 Y-39.9100 F200.00
G01 X6.1473 Y-39.9346 F200.00
G01 X6.1433 Y-39.9596 F200.00
G01 X6.1420 Y-39.9850 F200.00
G01 X6.1420 Y-40.1414 F200.00
G01 X6.1031 Y-40.1802 F200.00
G01 X6.1031 Y-38.3435 F200.00
G01 X6.1502 Y-38.2964 F200.00
G01 X6.1539 Y-38.3100 F200.00
G01 X6.1629 Y-38.3337 F200.00
G01 X6.1745 Y-38.3564 F200.00
G01 X6.1884 Y-38.3778 F200.00
G01 X6.2044 Y-38.3976 F200.00
G01 X6.2224 Y-38.4156 F200.00
G01 X6.2422 Y-38.4316 F200.00
G01 X6.2636 Y-38.4455 F200.00
G01 X6.2863 Y-38.4571 F200.00
G01 X6.3100 Y-38.4661 F200.00
G01 X6.3346 Y-38.4727 F200.00
G01 X6.3491 Y-38.4750 F200.00
G01 X6.3346 Y-38.4773 F200.00
G01 X6.3100 Y-38.4839 F200.00
G01 X6.2863 Y-38.4929 F200.00
G01 X6.2636 Y-38.5045 F200.00
G01 X6.2422 Y-38.5184 F200.00
G01 X6.2224 Y-38.5344 F200.00
G01 X6.2044 Y-38.5524 F200.00
G01 X6.1884 Y-38.5722 F200.00
G01 X6.1745 Y-38.5936 F200.00
G01 X6.1629 Y-38.6163 F200.00
G01 X6.1539 Y-38.6400 F200.00
G01 X6.1473 Y-38.6646 F200.00
G01 X6.1433 Y-38.6896 F200.00
G01 X6.1420 Y-38.7150 F200.00
G01 X6.1420 Y-39.5150 F200.00
G01 X6.1433 Y-39.5404 F200.00
G01 X6.1473 Y-39.5654 F200.00
G01 X6.1539 Y-39.5900 F200.00
G01 X6.1629 Y-39.6137 F200.00
G01 X6.1745 Y-39.6364 F200.00
G01 X6.1884 Y-39.6578 F200.00
G01 X6.2044 Y-39.6776 F200.00
G01 X6.2224 Y-39.6956 F200.00
G01 X6.2422 Y-39.7116 F200.00
G01 X6.2636 Y-39.7255 F200.00
G01 X6.2863 Y-39.7371 F200.00
G01 X6.3100 Y-39.7461 F200.00
G01 X6.3244 Y-39.7500 F200.00
G01 X6.3100 Y-39.7539 F200.00
G00 Z2.5400
G00 X5.2169 Y-39.5997
G01 F100.00
G01 Z-0.1000
G01 F200.00
G01 X5.2169 Y-40.2179 F200.00
G01 X4.8892 Y-40.5457 F200.00
G01 X4.8967 Y-40.4972 F200.00
G01 X4.9030 Y-40.3800 F200.00
G01 X4.8967 Y-40.2628 F200.00
G01 X4.8942 Y-40.2441 F200.00
G01 X4.8783 Y-40.1502 F200.00
G01 X4.8731 Y-40.1269 F200.00
G01 X4.8458 Y-40.0320 F200.00
G01 X4.8379 Y-40.0090 F200.00
G01 X4.8291 Y-39.9876 F200.00
G01 X5.2169 Y-39.5997 F200.00
G01 X5.2169 Y-40.2179 F200.00
G00 Z2.5400
G00 X4.2171 Y-41.3930
G01 F100.00
G01 Z-0.1000
G01 F200.00
G01 X4.2169 Y-41.8865 F200.00
G01 X4.2024 Y-41.9009 F200.00
G01 X4.1810 Y-41.8921 F200.00
G01 X4.1580 Y-41.8842 F200.00
G01 X4.0631 Y-41.8569 F200.00
G01 X4.0398 Y-41.8517 F200.00
G01 X3.9459 Y-41.8358 F200.00
G01 X3.9188 Y-41.8327 F200.00
G01 X3.8100 Y-41.8270 F200.00
G01 X3.7012 Y-41.8327 F200.00
G01 X3.6741 Y-41.8358 F200.00
G01 X3.5802 Y-41.8517 F200.00
G01 X3.5569 Y-41.8569 F200.00
G01 X3.4620 Y-41.8842 F200.00
G01 X3.4390 Y-41.8921 F200.00
G01 X3.3482 Y-41.9297 F200.00
G01 X3.3237 Y-41.9415 F200.00
G01 X3.2328 Y-41.9919 F200.00
G01 X3.2172 Y-42.0021 F200.00
G01 X3.1394 Y-42.0573 F200.00
G01 X3.1181 Y-42.0743 F200.00
G01 X3.0371 Y-42.1471 F200.00
G01 X3.0031 Y-42.1846 F200.00
G01 X3.0031 Y-41.1154 F200.00
G01 X3.0371 Y-41.1529 F200.00
G01 X3.1181 Y-41.2257 F200.00
G01 X3.1394 Y-41.2427 F200.00
G01 X3.2172 Y-41.2979 F200.00
G01 X3.2328 Y-41.3081 F200.00
G01 X3.3237 Y-41.3585 F200.00
G01 X3.3482 Y-41.3703 F200.00
G01 X3.4390 Y-41.4079 F200.00
G01 X3.4620 Y-41.4158 F200.00
G01 X3.5569 Y-41.4431 F200.00
G01 X3.5802 Y-41.4483 F200.00
G01 X3.6741 Y-41.4642 F200.00
G01 X3.7012 Y-41.4673 F200.00
G01 X3.8100 Y-41.4730 F200.00
G01 X3.9272 Y-41.4667 F200.00
G01 X3.9459 Y-41.4642 F200.00
G01 X4.0398 Y-41.4483 F200.00
G01 X4.0631 Y-41.4431 F200.00
G01 X4.1580 Y-41.4158 F200.00
G01 X4.1810 Y-41.4079 F200.00
G01 X4.2171 Y-41.3930 F200.00
G01 X4.2169 Y-41.8865 F200.00
G00 Z2.5400
G00 X3.0031 Y-39.6446
G01 F100.00
G01 Z-0.1000
G01 F200.00
G01 X3.0031 Y-39.2735 F200.00
G01 X3.4176 Y-38.8591 F200.00
G01 X3.4390 Y-38.8679 F200.00
G01 X3.4620 Y-38.8758 F200.00
G01 X3.5569 Y-38.9031 F200.00
G01 X3.5802 Y-38.9083 F200.00
G01 X3.6741 Y-38.9242 F200.00
G01 X3.7012 Y-38.9273 F200.00
G01 X3.8100 Y-38.9330 F200.00
G01 X3.9188 Y-38.9273 F200.00
G01 X3.9459 Y-38.9242 F200.00
G01 X4.0398 Y-38.9083 F200.00
G01 X4.0631 Y-38.9031 F200.00
G01 X4.1580 Y-38.8758 F200.00
G01 X4.1810 Y-38.8679 F200.00
G01 X4.2718 Y-38.8303 F200.00
G01 X4.2963 Y-38.8185 F200.00
G01 X4.3873 Y-38.7681 F200.00
G01 X4.4028 Y-38.7579 F200.00
G01 X4.4806 Y-38.7027 F200.00
G01 X4.5019 Y-38.6857 F200.00
G01 X4.5829 Y-38.6129 F200.00
G01 X4.6169 Y-38.5754 F200.00
G01 X4.6169 Y-38.9465 F200.00
G01 X4.2024 Y-39.3609 F200.00
G01 X4.1810 Y-39.3521 F200.00
G01 X4.1580 Y-39.3442 F200.00
G01 X4.0631 Y-39.3169 F200.00
G01 X4.0398 Y-39.3117 F200.00
G01 X3.9459 Y-39.2958 F200.00
G01 X3.9188 Y-39.2927 F200.00
G01 X3.8100 Y-39.2870 F200.00
G01 X3.7012 Y-39.2927 F200.00
G01 X3.6741 Y-39.2958 F200.00
G01 X3.5802 Y-39.3117 F200.00
G01 X3.5569 Y-39.3169 F200.00
G01 X3.4620 Y-39.3442 F200.00
G01 X3.4390 Y-39.3521 F200.00
G01 X3.3482 Y-39.3897 F200.00
G01 X3.3237 Y-39.4015 F200.00
G01 X3.2328 Y-39.4519 F200.00
G01 X3.2172 Y-39.4621 F200.00
G01 X3.1394 Y-39.5173 F200.00
G01 X3.1181 Y-39.5343 F200.00
G01 X3.0371 Y-39.6071 F200.00
G01 X3.0031 Y-39.6446 F200.00
G01 X3.0031 Y-39.2735 F200.00
G00 Z2.5400
G00 X2.2700 Y-39.0850
G01 F100.00
G01 Z-0.1000
G01 F200.00
G01 X2.2715 Y-39.0594 F200.00
G01 X2.2762 Y-39.0304 F200.00
G01 X2.2784 Y-39.0206 F200.00
G01 X2.2876 Y-38.9905 F200.00
G01 X2.2966 Y-38.9687 F200.00
G01 X2.3118 Y-38.9400 F200.00
G01 X2.3302 Y-38.9132 F200.00
G01 X2.3364 Y-38.9053 F200.00
G01 X2.3549 Y-38.8849 F200.00
G01 X2.9732 Y-38.2665 F200.00
G01 X2.9610 Y-38.2432 F200.00
G01 X2.9246 Y-38.1552 F200.00
G01 X2.9212 Y-38.1457 F200.00
G01 X2.8945 Y-38.0528 F200.00
G01 X2.8757 Y-37.9433 F200.00
G01 X2.8701 Y-37.8450 F200.00
G01 X2.8701 Y-37.8350 F200.00
G01 X2.8757 Y-37.7367 F200.00
G01 X2.8926 Y-37.6358 F200.00
G01 X2.8948 Y-37.6259 F200.00
G01 X2.9212 Y-37.5343 F200.00
G01 X2.9246 Y-37.5248 F200.00
G01 X2.9610 Y-37.4368 F200.00
G01 X2.9654 Y-37.4277 F200.00
G01 X3.0131 Y-37.3415 F200.00
G01 X3.0720 Y-37.2580 F200.00
G01 X3.0783 Y-37.2501 F200.00
G01 X3.1453 Y-37.1753 F200.00
G01 X3.2248 Y-37.1044 F200.00
G01 X3.3115 Y-37.0431 F200.00
G01 X3.3977 Y-36.9954 F200.00
G01 X3.4068 Y-36.9910 F200.00
G01 X3.4948 Y-36.9546 F200.00
G01 X3.5043 Y-36.9512 F200.00
G01 X3.5972 Y-36.9245 F200.00
G01 X3.7067 Y-36.9057 F200.00
G01 X3.8100 Y-36.9000 F200.00
G01 X3.9133 Y-36.9057 F200.00
G01 X4.0228 Y-36.9245 F200.00
G01 X4.1157 Y-36.9512 F200.00
G01 X4.1252 Y-36.9546 F200.00
G01 X4.2132 Y-36.9910 F200.00
G01 X4.2223 Y-36.9954 F200.00
G01 X4.3085 Y-37.0431 F200.00
G01 X4.3952 Y-37.1044 F200.00
G01 X4.4747 Y-37.1753 F200.00
G01 X4.5456 Y-37.2548 F200.00
G01 X4.6031 Y-37.3357 F200.00
G01 X4.6085 Y-37.3442 F200.00
G01 X4.6546 Y-37.4277 F200.00
G01 X4.6590 Y-37.4368 F200.00
G01 X4.6959 Y-37.5258 F200.00
G01 X4.7252 Y-37.6259 F200.00
G01 X4.7274 Y-37.6358 F200.00
G01 X4.7443 Y-37.7367 F200.00
G01 X4.7500 Y-37.8400 F200.00
G01 X4.7443 Y-37.9433 F200.00
G01 X4.7274 Y-38.0442 F200.00
G01 X4.7252 Y-38.0541 F200.00
G01 X4.6959 Y-38.1542 F200.00
G01 X4.6590 Y-38.2432 F200.00
G01 X4.6546 Y-38.2523 F200.00
G01 X4.6085 Y-38.3358 F200.00
G01 X4.6031 Y-38.3443 F200.00
G01 X4.5480 Y-38.4220 F200.00
G01 X4.5417 Y-38.4299 F200.00
G01 X4.4747 Y-38.5047 F200.00
G01 X4.3999 Y-38.5717 F200.00
G01 X4.3920 Y-38.5780 F200.00
G01 X4.3085 Y-38.6369 F200.00
G01 X4.2223 Y-38.6846 F200.00
G01 X4.2132 Y-38.6890 F200.00
G01 X4.1252 Y-38.7254 F200.00
G01 X4.1157 Y-38.7288 F200.00
G01 X4.0241 Y-38.7552 F200.00
G01 X4.0142 Y-38.7574 F200.00
G01 X3.9133 Y-38.7743 F200.00
G01 X3.8150 Y-38.7799 F200.00
G01 X3.8050 Y-38.7799 F200.00
G01 X3.7067 Y-38.7743 F200.00
G01 X3.5972 Y-38.7555 F200.00
G01 X3.5043 Y-38.7288 F200.00
G01 X3.4948 Y-38.7254 F200.00
G01 X3.4068 Y-38.6890 F200.00
G01 X3.3835 Y-38.6768 F200.00
G01 X2.8501 Y-39.2102 F200.00
G01 X2.8501 Y-44.6388 F200.00
G01 X3.5462 Y-45.3349 F200.00
G01 X4.0738 Y-45.3349 F200.00
G01 X5.6949 Y-43.7138 F200.00
G01 X5.6949 Y-40.9250 F200.00
G01 X5.6974 Y-40.8875 F200.00
G01 X5.7031 Y-40.8568 F200.00
G01 X5.7096 Y-40.8340 F200.00
G01 X5.7216 Y-40.8037 F200.00
G01 X5.7384 Y-40.7722 F200.00
G01 X5.7614 Y-40.7403 F200.00
G01 X5.7799 Y-40.7199 F200.00
G01 X6.2950 Y-40.2047 F200.00
G01 X6.2955 Y-39.9756 F200.00
G01 X6.2994 Y-39.9572 F200.00
G01 X6.3028 Y-39.9484 F200.00
G01 X6.3122 Y-39.9321 F200.00
G01 X6.3248 Y-39.9181 F200.00
G01 X6.3400 Y-39.9070 F200.00
G01 X6.3572 Y-39.8994 F200.00
G01 X6.3663 Y-39.8970 F200.00
G01 X6.3850 Y-39.8950 F200.00
G01 X7.6850 Y-39.8950 F200.00
G01 X7.7037 Y-39.8970 F200.00
G01 X7.7128 Y-39.8994 F200.00
G01 X7.7300 Y-39.9070 F200.00
G01 X7.7379 Y-39.9122 F200.00
G01 X7.7452 Y-39.9181 F200.00
G01 X7.7578 Y-39.9321 F200.00
G01 X7.7630 Y-39.9400 F200.00
G01 X7.7706 Y-39.9572 F200.00
G01 X7.7730 Y-39.9663 F200.00
G01 X7.7750 Y-39.9850 F200.00
G01 X7.7750 Y-40.7850 F200.00
G01 X7.7730 Y-40.8037 F200.00
G01 X7.7706 Y-40.8128 F200.00
G01 X7.7630 Y-40.8300 F200.00
G01 X7.7519 Y-40.8452 F200.00
G01 X7.7379 Y-40.8578 F200.00
G01 X7.7300 Y-40.8630 F200.00
G01 X7.7128 Y-40.8706 F200.00
G01 X7.7037 Y-40.8730 F200.00
G01 X7.6850 Y-40.8750 F200.00
G01 X6.4453 Y-40.8750 F200.00
G01 X6.2751 Y-41.0452 F200.00
G01 X6.2751 Y-43.8340 F200.00
G01 X6.2735 Y-43.8646 F200.00
G01 X6.2688 Y-43.8936 F200.00
G01 X6.2604 Y-43.9250 F200.00
G01 X6.2570 Y-43.9345 F200.00
G01 X6.2441 Y-43.9644 F200.00
G01 X6.2316 Y-43.9868 F200.00
G01 X6.2125 Y-44.0140 F200.00
G01 X6.1901 Y-44.0391 F200.00
G01 X4.3991 Y-45.8301 F200.00
G01 X4.3740 Y-45.8525 F200.00
G01 X4.3468 Y-45.8716 F200.00
G01 X4.3153 Y-45.8884 F200.00
G01 X4.2850 Y-45.9004 F200.00
G01 X4.2622 Y-45.9069 F200.00
G01 X4.2315 Y-45.9126 F200.00
G01 X4.1940 Y-45.9151 F200.00
G01 X3.4260 Y-45.9151 F200.00
G01 X3.3954 Y-45.9135 F200.00
G01 X3.3578 Y-45.9069 F200.00
G01 X3.3265 Y-45.8974 F200.00
G01 X3.2956 Y-45.8841 F200.00
G01 X3.2732 Y-45.8716 F200.00
G01 X3.2492 Y-45.8548 F200.00
G01 X3.2209 Y-45.8301 F200.00
G01 X2.3549 Y-44.9641 F200.00
G01 X2.3325 Y-44.9390 F200.00
G01 X2.3134 Y-44.9118 F200.00
G01 X2.2966 Y-44.8803 F200.00
G01 X2.2846 Y-44.8500 F200.00
G01 X2.2781 Y-44.8272 F200.00
G01 X2.2724 Y-44.7965 F200.00
G01 X2.2699 Y-44.7590 F200.00
G01 X2.2700 Y-39.0850 F200.00
G01 X2.2715 Y-39.0594 F200.00
G00 Z2.5400
G00 X1.6700 Y-37.8350
G01 F100.00
G01 Z-0.1000
G01 F200.00
G01 X1.6715 Y-37.8095 F200.00
G01 X1.6781 Y-37.7718 F200.00
G01 X1.6876 Y-37.7405 F200.00
G01 X1.6966 Y-37.7187 F200.00
G01 X1.7118 Y-37.6900 F200.00
G01 X1.7172 Y-37.6815 F200.00
G01 X1.7325 Y-37.6600 F200.00
G01 X1.7549 Y-37.6349 F200.00
G01 X3.0299 Y-36.3599 F200.00
G01 X3.0550 Y-36.3375 F200.00
G01 X3.0850 Y-36.3168 F200.00
G01 X3.1046 Y-36.3059 F200.00
G01 X3.1345 Y-36.2930 F200.00
G01 X3.1668 Y-36.2831 F200.00
G01 X3.2044 Y-36.2765 F200.00
G01 X3.2350 Y-36.2749 F200.00
G01 X6.2950 Y-36.2749 F200.00
G01 X6.2955 Y-36.1556 F200.00
G01 X6.2994 Y-36.1372 F200.00
G01 X6.3028 Y-36.1284 F200.00
G01 X6.3070 Y-36.1200 F200.00
G01 X6.3181 Y-36.1048 F200.00
G01 X6.3321 Y-36.0922 F200.00
G01 X6.3400 Y-36.0870 F200.00
G01 X6.3572 Y-36.0794 F200.00
G01 X6.3756 Y-36.0755 F200.00
G01 X6.3850 Y-36.0750 F200.00
G01 X7.6850 Y-36.0750 F200.00
G01 X7.6944 Y-36.0755 F200.00
G01 X7.7128 Y-36.0794 F200.00
G01 X7.7300 Y-36.0870 F200.00
G01 X7.7379 Y-36.0922 F200.00
G01 X7.7452 Y-36.0981 F200.00
G01 X7.7578 Y-36.1121 F200.00
G01 X7.7630 Y-36.1200 F200.00
G01 X7.7706 Y-36.1372 F200.00
G01 X7.7730 Y-36.1463 F200.00
G01 X7.7750 Y-36.1650 F200.00
G01 X7.7750 Y-36.9650 F200.00
G01 X7.7745 Y-36.9744 F200.00
G01 X7.7706 Y-36.9928 F200.00
G01 X7.7630 Y-37.0100 F200.00
G01 X7.7519 Y-37.0252 F200.00
G01 X7.7379 Y-37.0378 F200.00
G01 X7.7300 Y-37.0430 F200.00
G01 X7.7128 Y-37.0506 F200.00
G01 X7.7037 Y-37.0530 F200.00
G01 X7.6850 Y-37.0550 F200.00
G01 X6.3756 Y-37.0545 F200.00
G01 X6.3572 Y-37.0506 F200.00
G01 X6.3484 Y-37.0472 F200.00
G01 X6.3321 Y-37.0378 F200.00
G01 X6.3181 Y-37.0252 F200.00
G01 X6.3122 Y-37.0179 F200.00
G01 X6.3028 Y-37.0016 F200.00
G01 X6.2970 Y-36.9837 F200.00
G01 X6.2955 Y-36.9744 F200.00
G01 X6.2950 Y-36.8551 F200.00
G01 X6.1052 Y-36.8551 F200.00
G01 X5.3501 Y-37.6102 F200.00
G01 X5.3501 Y-39.1300 F200.00
G01 X5.3476 Y-39.1675 F200.00
G01 X5.3419 Y-39.1982 F200.00
G01 X5.3354 Y-39.2210 F200.00
G01 X5.3234 Y-39.2513 F200.00
G01 X5.3066 Y-39.2828 F200.00
G01 X5.2875 Y-39.3100 F200.00
G01 X5.2686 Y-39.3315 F200.00
G01 X4.6468 Y-39.9535 F200.00
G01 X4.6590 Y-39.9768 F200.00
G01 X4.6959 Y-40.0658 F200.00
G01 X4.7255 Y-40.1672 F200.00
G01 X4.7443 Y-40.2767 F200.00
G01 X4.7499 Y-40.3750 F200.00
G01 X4.7499 Y-40.3850 F200.00
G01 X4.7443 Y-40.4833 F200.00
G01 X4.7274 Y-40.5842 F200.00
G01 X4.7252 Y-40.5941 F200.00
G01 X4.6988 Y-40.6857 F200.00
G01 X4.6954 Y-40.6952 F200.00
G01 X4.6590 Y-40.7832 F200.00
G01 X4.6546 Y-40.7923 F200.00
G01 X4.6069 Y-40.8785 F200.00
G01 X4.5480 Y-40.9620 F200.00
G01 X4.5417 Y-40.9699 F200.00
G01 X4.4747 Y-41.0447 F200.00
G01 X4.3952 Y-41.1156 F200.00
G01 X4.3085 Y-41.1769 F200.00
G01 X4.2223 Y-41.2246 F200.00
G01 X4.2132 Y-41.2290 F200.00
G01 X4.1252 Y-41.2654 F200.00
G01 X4.1157 Y-41.2688 F200.00
G01 X4.0241 Y-41.2952 F200.00
G01 X4.0142 Y-41.2974 F200.00
G01 X3.9133 Y-41.3143 F200.00
G01 X3.8150 Y-41.3199 F200.00
G01 X3.8050 Y-41.3199 F200.00
G01 X3.7067 Y-41.3143 F200.00
G01 X3.5972 Y-41.2955 F200.00
G01 X3.4958 Y-41.2659 F200.00
G01 X3.4068 Y-41.2290 F200.00
G01 X3.3977 Y-41.2246 F200.00
G01 X3.3115 Y-41.1769 F200.00
G01 X3.2280 Y-41.1180 F200.00
G01 X3.2201 Y-41.1117 F200.00
G01 X3.1490 Y-41.0481 F200.00
G01 X3.1419 Y-41.0410 F200.00
G01 X3.0744 Y-40.9652 F200.00
G01 X3.0131 Y-40.8785 F200.00
G01 X2.9654 Y-40.7923 F200.00
G01 X2.9610 Y-40.7832 F200.00
G01 X2.9246 Y-40.6952 F200.00
G01 X2.9212 Y-40.6857 F200.00
G01 X2.8948 Y-40.5941 F200.00
G01 X2.8926 Y-40.5842 F200.00
G01 X2.8757 Y-40.4833 F200.00
G01 X2.8701 Y-40.3850 F200.00
G01 X2.8701 Y-40.3750 F200.00
G01 X2.8757 Y-40.2767 F200.00
G01 X2.8945 Y-40.1672 F200.00
G01 X2.9241 Y-40.0658 F200.00
G01 X2.9610 Y-39.9768 F200.00
G01 X2.9654 Y-39.9677 F200.00
G01 X3.0131 Y-39.8815 F200.00
G01 X3.0720 Y-39.7980 F200.00
G01 X3.0783 Y-39.7901 F200.00
G01 X3.1419 Y-39.7190 F200.00
G01 X3.1490 Y-39.7119 F200.00
G01 X3.2248 Y-39.6444 F200.00
G01 X3.3115 Y-39.5831 F200.00
G01 X3.3977 Y-39.5354 F200.00
G01 X3.4068 Y-39.5310 F200.00
G01 X3.4948 Y-39.4946 F200.00
G01 X3.5043 Y-39.4912 F200.00
G01 X3.5959 Y-39.4648 F200.00
G01 X3.6058 Y-39.4626 F200.00
G01 X3.7067 Y-39.4457 F200.00
G01 X3.8050 Y-39.4401 F200.00
G01 X3.8150 Y-39.4401 F200.00
G01 X3.9133 Y-39.4457 F200.00
G01 X4.0228 Y-39.4645 F200.00
G01 X4.1242 Y-39.4941 F200.00
G01 X4.2132 Y-39.5310 F200.00
G01 X4.2365 Y-39.5432 F200.00
G01 X4.7699 Y-39.0098 F200.00
G01 X4.7699 Y-37.4900 F200.00
G01 X4.7715 Y-37.4594 F200.00
G01 X4.7781 Y-37.4218 F200.00
G01 X4.7876 Y-37.3905 F200.00
G01 X4.8009 Y-37.3596 F200.00
G01 X4.8134 Y-37.3372 F200.00
G01 X4.8302 Y-37.3132 F200.00
G01 X4.8514 Y-37.2885 F200.00
G01 X5.2846 Y-36.8551 F200.00
G01 X3.3552 Y-36.8551 F200.00
G01 X2.2501 Y-37.9602 F200.00
G01 X2.2501 Y-44.8874 F200.00
G01 X3.2976 Y-45.9349 F200.00
G01 X4.3224 Y-45.9349 F200.00
G01 X5.6924 Y-44.5649 F200.00
G01 X5.7207 Y-44.5402 F200.00
G01 X5.7448 Y-44.5234 F200.00
G01 X5.7672 Y-44.5110 F200.00
G01 X5.7980 Y-44.4976 F200.00
G01 X5.8281 Y-44.4884 F200.00
G01 X5.8379 Y-44.4862 F200.00
G01 X5.8670 Y-44.4815 F200.00
G01 X5.8975 Y-44.4799 F200.00
G01 X11.3750 Y-44.4799 F200.00
G01 X11.4056 Y-44.4815 F200.00
G01 X11.4432 Y-44.4881 F200.00
G01 X11.4745 Y-44.4976 F200.00
G01 X11.4963 Y-44.5066 F200.00
G01 X11.5250 Y-44.5218 F200.00
G01 X11.5336 Y-44.5272 F200.00
G01 X11.5550 Y-44.5425 F200.00
G01 X11.5801 Y-44.5649 F200.00
G01 X14.1302 Y-47.1149 F200.00
G01 X26.9968 Y-47.1149 F200.00
G01 X28.2849 Y-45.8268 F200.00
G01 X28.2849 Y-42.2850 F200.00
G01 X28.2865 Y-42.2544 F200.00
G01 X28.2931 Y-42.2168 F200.00
G01 X28.3030 Y-42.1845 F200.00
G01 X28.3116 Y-42.1637 F200.00
G01 X28.3268 Y-42.1350 F200.00
G01 X28.3475 Y-42.1050 F200.00
G01 X28.3699 Y-42.0799 F200.00
G01 X29.6432 Y-40.8065 F200.00
G01 X29.6310 Y-40.7832 F200.00
G01 X29.5941 Y-40.6942 F200.00
G01 X29.5645 Y-40.5928 F200.00
G01 X29.5457 Y-40.4833 F200.00
G01 X29.5401 Y-40.3850 F200.00
G01 X29.5401 Y-40.3750 F200.00
G01 X29.5457 Y-40.2767 F200.00
G01 X29.5626 Y-40.1758 F200.00
G01 X29.5648 Y-40.1659 F200.00
G01 X29.5912 Y-40.0743 F200.00
G01 X29.5946 Y-40.0648 F200.00
G01 X29.6310 Y-39.9768 F200.00
G01 X29.6354 Y-39.9677 F200.00
G01 X29.6815 Y-39.8842 F200.00
G01 X29.6869 Y-39.8757 F200.00
G01 X29.7444 Y-39.7948 F200.00
G01 X29.8119 Y-39.7190 F200.00
G01 X29.8190 Y-39.7119 F200.00
G01 X29.8948 Y-39.6444 F200.00
G01 X29.9757 Y-39.5869 F200.00
G01 X29.9842 Y-39.5815 F200.00
G01 X30.0677 Y-39.5354 F200.00
G01 X30.0768 Y-39.5310 F200.00
G01 X30.1658 Y-39.4941 F200.00
G01 X30.2659 Y-39.4648 F200.00
G01 X30.2758 Y-39.4626 F200.00
G01 X30.3767 Y-39.4457 F200.00
G01 X30.4800 Y-39.4400 F200.00
G01 X30.5833 Y-39.4457 F200.00
G01 X30.6842 Y-39.4626 F200.00
G01 X30.6941 Y-39.4648 F200.00
G01 X30.7942 Y-39.4941 F200.00
G01 X30.8832 Y-39.5310 F200.00
G01 X30.8923 Y-39.5354 F200.00
G01 X30.9758 Y-39.5815 F200.00
G01 X30.9843 Y-39.5869 F200.00
G01 X31.0652 Y-39.6444 F200.00
G01 X31.1447 Y-39.7153 F200.00
G01 X31.2117 Y-39.7901 F200.00
G01 X31.2180 Y-39.7980 F200.00
G01 X31.2769 Y-39.8815 F200.00
G01 X31.3246 Y-39.9677 F200.00
G01 X31.3290 Y-39.9768 F200.00
G01 X31.3659 Y-40.0658 F200.00
G01 X31.3955 Y-40.1672 F200.00
G01 X31.4134 Y-40.2698 F200.00
G01 X31.4145 Y-40.2798 F200.00
G01 X31.4200 Y-40.3800 F200.00
G01 X31.4143 Y-40.4833 F200.00
G01 X31.3955 Y-40.5928 F200.00
G01 X31.3688 Y-40.6857 F200.00
G01 X31.3654 Y-40.6952 F200.00
G01 X31.3290 Y-40.7832 F200.00
G01 X31.3246 Y-40.7923 F200.00
G01 X31.2769 Y-40.8785 F200.00
G01 X31.2156 Y-40.9652 F200.00
G01 X31.1447 Y-41.0447 F200.00
G01 X31.0652 Y-41.1156 F200.00
G01 X30.9843 Y-41.1731 F200.00
G01 X30.9758 Y-41.1785 F200.00
G01 X30.8923 Y-41.2246 F200.00
G01 X30.8832 Y-41.2290 F200.00
G01 X30.7952 Y-41.2654 F200.00
G01 X30.7857 Y-41.2688 F200.00
G01 X30.6928 Y-41.2955 F200.00
G01 X30.5833 Y-41.3143 F200.00
G01 X30.4850 Y-41.3199 F200.00
G01 X30.4750 Y-41.3199 F200.00
G01 X30.3767 Y-41.3143 F200.00
G01 X30.2758 Y-41.2974 F200.00
G01 X30.2659 Y-41.2952 F200.00
G01 X30.1658 Y-41.2659 F200.00
G01 X30.0768 Y-41.2290 F200.00
G01 X30.0535 Y-41.2168 F200.00
G01 X28.8651 Y-42.4052 F200.00
G01 X28.8651 Y-45.9470 F200.00
G01 X28.8626 Y-45.9845 F200.00
G01 X28.8569 Y-46.0152 F200.00
G01 X28.8504 Y-46.0380 F200.00
G01 X28.8384 Y-46.0683 F200.00
G01 X28.8216 Y-46.0998 F200.00
G01 X28.8025 Y-46.1270 F200.00
G01 X28.7801 Y-46.1521 F200.00
G01 X27.3221 Y-47.6101 F200.00
G01 X27.2970 Y-47.6325 F200.00
G01 X27.2698 Y-47.6516 F200.00
G01 X27.2474 Y-47.6641 F200.00
G01 X27.2175 Y-47.6770 F200.00
G01 X27.2080 Y-47.6804 F200.00
G01 X27.1766 Y-47.6888 F200.00
G01 X27.1476 Y-47.6935 F200.00
G01 X27.1170 Y-47.6951 F200.00
G01 X14.0100 Y-47.6951 F200.00
G01 X13.9794 Y-47.6935 F200.00
G01 X13.9418 Y-47.6869 F200.00
G01 X13.9105 Y-47.6774 F200.00
G01 X13.8887 Y-47.6684 F200.00
G01 X13.8600 Y-47.6532 F200.00
G01 X13.8515 Y-47.6478 F200.00
G01 X13.8300 Y-47.6325 F200.00
G01 X13.8049 Y-47.6101 F200.00
G01 X11.2548 Y-45.0601 F200.00
G01 X6.0177 Y-45.0601 F200.00
G01 X4.6477 Y-46.4301 F200.00
G01 X4.6225 Y-46.4525 F200.00
G01 X4.6011 Y-46.4678 F200.00
G01 X4.5729 Y-46.4841 F200.00
G01 X4.5638 Y-46.4884 F200.00
G01 X4.5335 Y-46.5004 F200.00
G01 X4.5021 Y-46.5088 F200.00
G01 X4.4731 Y-46.5135 F200.00
G01 X4.4425 Y-46.5151 F200.00
G01 X3.1775 Y-46.5151 F200.00
G01 X3.1469 Y-46.5135 F200.00
G01 X3.1179 Y-46.5088 F200.00
G01 X3.1080 Y-46.5066 F200.00
G01 X3.0780 Y-46.4974 F200.00
G01 X3.0562 Y-46.4884 F200.00
G01 X3.0275 Y-46.4732 F200.00
G01 X2.9975 Y-46.4525 F200.00
G01 X2.9723 Y-46.4301 F200.00
G01 X1.7514 Y-45.2090 F200.00
G01 X1.7301 Y-45.1844 F200.00
G01 X1.7134 Y-45.1603 F200.00
G01 X1.7009 Y-45.1379 F200.00
G01 X1.6880 Y-45.1081 F200.00
G01 X1.6846 Y-45.0985 F200.00
G01 X1.6781 Y-45.0757 F200.00
G01 X1.6724 Y-45.0450 F200.00
G01 X1.6699 Y-45.0075 F200.00
G01 X1.6700 Y-37.8350 F200.00
G01 X1.6715 Y-37.8095 F200.00
G00 Z2.5400
G00 X2.7264 Y-37.7002
G01 F100.00
G01 Z-0.1000
G01 F200.00
G01 X2.7227 Y-37.7312 F200.00
G01 X2.7170 Y-37.8400 F200.00
G01 X2.7233 Y-37.9572 F200.00
G01 X2.7258 Y-37.9759 F200.00
G01 X2.7417 Y-38.0698 F200.00
G01 X2.7469 Y-38.0931 F200.00
G01 X2.7742 Y-38.1880 F200.00
G01 X2.7821 Y-38.2110 F200.00
G01 X2.7909 Y-38.2324 F200.00
G01 X2.4031 Y-38.6203 F200.00
G01 X2.4031 Y-38.0235 F200.00
G01 X2.7264 Y-37.7002 F200.00
G01 X2.7227 Y-37.7312 F200.00
G00 Z2.5400
G00 X4.7087 Y-37.2201
G01 F100.00
G01 Z-0.1000
G01 F200.00
G01 X4.6664 Y-37.1608 F200.00
G01 X4.5922 Y-37.0770 F200.00
G01 X4.5730 Y-37.0578 F200.00
G01 X4.5174 Y-37.0081 F200.00
G01 X4.9153 Y-37.0081 F200.00
G01 X4.7467 Y-37.1767 F200.00
G01 X4.7224 Y-37.2033 F200.00
G01 X4.7087 Y-37.2201 F200.00
G01 X4.6664 Y-37.1608 F200.00
G00 Z2.5400
G00 X7.7209 Y-34.6650
G01 F100.00
G01 Z-0.1000
G01 F200.00
G01 X7.7354 Y-34.6627 F200.00
G01 X7.7600 Y-34.6561 F200.00
G01 X7.7837 Y-34.6471 F200.00
G01 X7.8064 Y-34.6355 F200.00
G01 X7.8278 Y-34.6216 F200.00
G01 X7.8476 Y-34.6056 F200.00
G01 X7.8656 Y-34.5876 F200.00
G01 X7.8816 Y-34.5678 F200.00
G01 X7.8955 Y-34.5464 F200.00
G01 X7.9071 Y-34.5237 F200.00
G01 X7.9161 Y-34.5000 F200.00
G01 X7.9227 Y-34.4754 F200.00
G01 X7.9267 Y-34.4504 F200.00
G01 X7.9280 Y-34.4250 F200.00
G01 X7.9280 Y-33.6250 F200.00
G01 X7.9267 Y-33.5996 F200.00
G01 X7.9227 Y-33.5746 F200.00
G01 X7.9161 Y-33.5500 F200.00
G01 X7.9071 Y-33.5263 F200.00
G01 X7.8955 Y-33.5036 F200.00
G01 X7.8816 Y-33.4822 F200.00
G01 X7.8656 Y-33.4624 F200.00
G01 X7.8476 Y-33.4444 F200.00
G01 X7.8278 Y-33.4284 F200.00
G01 X7.8064 Y-33.4145 F200.00
G01 X7.7837 Y-33.4029 F200.00
G01 X7.7600 Y-33.3939 F200.00
G01 X7.7354 Y-33.3873 F200.00
G01 X7.7104 Y-33.3833 F200.00
G01 X7.6850 Y-33.3820 F200.00
G01 X6.3850 Y-33.3820 F200.00
G01 X6.3596 Y-33.3833 F200.00
G01 X6.3346 Y-33.3873 F200.00
G01 X6.3100 Y-33.3939 F200.00
G01 X6.2863 Y-33.4029 F200.00
G01 X6.2636 Y-33.4145 F200.00
G01 X6.2422 Y-33.4284 F200.00
G01 X6.2224 Y-33.4444 F200.00
G01 X6.2044 Y-33.4624 F200.00
G01 X6.1884 Y-33.4822 F200.00
G01 X6.1745 Y-33.5036 F200.00
G01 X6.1629 Y-33.5263 F200.00
G01 X6.1539 Y-33.5500 F200.00
G01 X6.1473 Y-33.5746 F200.00
G01 X6.1461 Y-33.5819 F200.00
G01 X4.9030 Y-33.5819 F200.00
G01 X4.9030 Y-33.2031 F200.00
G01 X5.2495 Y-33.2031 F200.00
G01 X5.2702 Y-33.2240 F200.00
G01 X5.3164 Y-33.2645 F200.00
G01 X5.3616 Y-33.2969 F200.00
G01 X5.3772 Y-33.3071 F200.00
G01 X5.4239 Y-33.3331 F200.00
G01 X5.4485 Y-33.3449 F200.00
G01 X5.4926 Y-33.3632 F200.00
G01 X5.5156 Y-33.3711 F200.00
G01 X5.5621 Y-33.3844 F200.00
G01 X5.5853 Y-33.3895 F200.00
G01 X5.6295 Y-33.3971 F200.00
G01 X5.6566 Y-33.4001 F200.00
G01 X5.7150 Y-33.4030 F200.00
G01 X5.7818 Y-33.3995 F200.00
G01 X5.8005 Y-33.3971 F200.00
G01 X5.8447 Y-33.3895 F200.00
G01 X5.8679 Y-33.3844 F200.00
G01 X5.9144 Y-33.3711 F200.00
G01 X5.9374 Y-33.3632 F200.00
G01 X5.9815 Y-33.3449 F200.00
G01 X6.0061 Y-33.3331 F200.00
G01 X6.0528 Y-33.3071 F200.00
G01 X6.0684 Y-33.2969 F200.00
G01 X6.1136 Y-33.2645 F200.00
G01 X6.1598 Y-33.2240 F200.00
G01 X6.1790 Y-33.2048 F200.00
G01 X6.2089 Y-33.1713 F200.00
G01 X6.2259 Y-33.1500 F200.00
G01 X6.2519 Y-33.1134 F200.00
G01 X6.2621 Y-33.0978 F200.00
G01 X6.2881 Y-33.0511 F200.00
G01 X6.2999 Y-33.0265 F200.00
G01 X6.3182 Y-32.9824 F200.00
G01 X6.3261 Y-32.9594 F200.00
G01 X6.3394 Y-32.9129 F200.00
G01 X6.3445 Y-32.8897 F200.00
G01 X6.3521 Y-32.8455 F200.00
G01 X6.3551 Y-32.8184 F200.00
G01 X6.3580 Y-32.7600 F200.00
G01 X6.3551 Y-32.7016 F200.00
G01 X6.3521 Y-32.6745 F200.00
G01 X6.3445 Y-32.6303 F200.00
G01 X6.3394 Y-32.6071 F200.00
G01 X6.3261 Y-32.5606 F200.00
G01 X6.3182 Y-32.5376 F200.00
G01 X6.2999 Y-32.4935 F200.00
G01 X6.2881 Y-32.4689 F200.00
G01 X6.2621 Y-32.4222 F200.00
G01 X6.2519 Y-32.4066 F200.00
G01 X6.2259 Y-32.3700 F200.00
G01 X6.2089 Y-32.3487 F200.00
G01 X6.1790 Y-32.3152 F200.00
G01 X6.1598 Y-32.2960 F200.00
G01 X6.1136 Y-32.2555 F200.00
G01 X6.0684 Y-32.2231 F200.00
G01 X6.0528 Y-32.2129 F200.00
G01 X6.0061 Y-32.1869 F200.00
G01 X5.9815 Y-32.1751 F200.00
G01 X5.9374 Y-32.1568 F200.00
G01 X5.9144 Y-32.1489 F200.00
G01 X5.8679 Y-32.1356 F200.00
G01 X5.8447 Y-32.1305 F200.00
G01 X5.8005 Y-32.1229 F200.00
G01 X5.7818 Y-32.1205 F200.00
G01 X5.7150 Y-32.1170 F200.00
G01 X5.6566 Y-32.1199 F200.00
G01 X5.6295 Y-32.1229 F200.00
G01 X5.5853 Y-32.1305 F200.00
G01 X5.5621 Y-32.1356 F200.00
G01 X5.5156 Y-32.1489 F200.00
G01 X5.4926 Y-32.1568 F200.00
G01 X5.4485 Y-32.1751 F200.00
G01 X5.4239 Y-32.1869 F200.00
G01 X5.3772 Y-32.2129 F200.00
G01 X5.3616 Y-32.2231 F200.00
G01 X5.3164 Y-32.2555 F200.00
G01 X5.2702 Y-32.2960 F200.00
G01 X5.2495 Y-32.3169 F200.00
G01 X4.9030 Y-32.3169 F200.00
G01 X4.9030 Y-31.9331 F200.00
G01 X8.5791 Y-31.9331 F200.00
G01 X8.5910 Y-31.9580 F200.00
G01 X8.5999 Y-31.9743 F200.00
G01 X8.6172 Y-32.0026 F200.00
G01 X8.6370 Y-32.0298 F200.00
G01 X8.6477 Y-32.0432 F200.00
G01 X8.6665 Y-32.0641 F200.00
G01 X8.6834 Y-32.0810 F200.00
G01 X8.7043 Y-32.0998 F200.00
G01 X8.7177 Y-32.1105 F200.00
G01 X8.7449 Y-32.1303 F200.00
G01 X8.7769 Y-32.1496 F200.00
G01 X8.7769 Y-34.9090 F200.00
G01 X8.7792 Y-34.9534 F200.00
G01 X8.7854 Y-34.9942 F200.00
G01 X8.7914 Y-35.0208 F200.00
G01 X8.7976 Y-35.0424 F200.00
G01 X8.8055 Y-35.0653 F200.00
G01 X8.8152 Y-35.0888 F200.00
G01 X8.8270 Y-35.1134 F200.00
G01 X8.8422 Y-35.1405 F200.00
G01 X8.8524 Y-35.1561 F200.00
G01 X8.8717 Y-35.1829 F200.00
G01 X8.8824 Y-35.1957 F200.00
G01 X8.9067 Y-35.2223 F200.00
G01 X10.8415 Y-37.1571 F200.00
G01 X10.8415 Y-37.8686 F200.00
G01 X10.7223 Y-37.9878 F200.00
G01 X10.7141 Y-37.9385 F200.00
G01 X10.7090 Y-37.9152 F200.00
G01 X10.6956 Y-37.8688 F200.00
G01 X10.6877 Y-37.8458 F200.00
G01 X10.6695 Y-37.8016 F200.00
G01 X10.6576 Y-37.7771 F200.00
G01 X10.6316 Y-37.7303 F200.00
G01 X10.6214 Y-37.7148 F200.00
G01 X10.5891 Y-37.6696 F200.00
G01 X10.5785 Y-37.6569 F200.00
G01 X10.5392 Y-37.6135 F200.00
G01 X10.4946 Y-37.5732 F200.00
G01 X10.4888 Y-37.5488 F200.00
G01 X10.4766 Y-37.5118 F200.00
G01 X10.4659 Y-37.4862 F200.00
G01 X10.4546 Y-37.4627 F200.00
G01 X10.4399 Y-37.4367 F200.00
G01 X10.4171 Y-37.4032 F200.00
G01 X10.4013 Y-37.3833 F200.00
G01 X10.3848 Y-37.3648 F200.00
G01 X10.3754 Y-37.3549 F200.00
G01 X8.0122 Y-34.9917 F200.00
G01 X7.9856 Y-34.9674 F200.00
G01 X7.9729 Y-34.9567 F200.00
G01 X7.9460 Y-34.9374 F200.00
G01 X7.9280 Y-34.9258 F200.00
G01 X7.9280 Y-34.9050 F200.00
G01 X7.9267 Y-34.8796 F200.00
G01 X7.9227 Y-34.8546 F200.00
G01 X7.9161 Y-34.8300 F200.00
G01 X7.9071 Y-34.8063 F200.00
G01 X7.8955 Y-34.7836 F200.00
G01 X7.8816 Y-34.7622 F200.00
G01 X7.8656 Y-34.7424 F200.00
G01 X7.8476 Y-34.7244 F200.00
G01 X7.8278 Y-34.7084 F200.00
G01 X7.8064 Y-34.6945 F200.00
G01 X7.7837 Y-34.6829 F200.00
G01 X7.7600 Y-34.6739 F200.00
G01 X7.7354 Y-34.6673 F200.00
G01 X7.7209 Y-34.6650 F200.00
G01 X7.7354 Y-34.6627 F200.00
G00 Z2.5400
G00 X9.8379 Y-34.5631
G01 F100.00
G01 Z-0.1000
G01 F200.00
G01 X9.8379 Y-32.5270 F200.00
G01 X9.8391 Y-32.5050 F200.00
G01 X9.8443 Y-32.4753 F200.00
G01 X9.8485 Y-32.4603 F200.00
G01 X9.8563 Y-32.4398 F200.00
G01 X9.8677 Y-32.4174 F200.00
G01 X9.8832 Y-32.3944 F200.00
G01 X9.9017 Y-32.3735 F200.00
G01 X9.9141 Y-32.3620 F200.00
G01 X9.9304 Y-32.3494 F200.00
G01 X9.9561 Y-32.3338 F200.00
G01 X9.9809 Y-32.3231 F200.00
G01 X9.9963 Y-32.3181 F200.00
G01 X10.0172 Y-32.3134 F200.00
G01 X10.0406 Y-32.3105 F200.00
G01 X10.0715 Y-32.3106 F200.00
G01 X10.0932 Y-32.3133 F200.00
G01 X10.1164 Y-32.3188 F200.00
G01 X10.1371 Y-32.3261 F200.00
G01 X10.2744 Y-32.3829 F200.00
G01 X10.4193 Y-32.3829 F200.00
G01 X10.4509 Y-32.3513 F200.00
G01 X10.4509 Y-32.0282 F200.00
G01 X10.4329 Y-32.0197 F200.00
G01 X10.4085 Y-32.0053 F200.00
G01 X10.3789 Y-31.9837 F200.00
G01 X10.3549 Y-31.9614 F200.00
G01 X10.3388 Y-31.9436 F200.00
G01 X10.3221 Y-31.9214 F200.00
G01 X10.3028 Y-31.8896 F200.00
G01 X10.2894 Y-31.8603 F200.00
G01 X10.2796 Y-31.8316 F200.00
G01 X10.2738 Y-31.8084 F200.00
G01 X10.2695 Y-31.7809 F200.00
G01 X10.2675 Y-31.7463 F200.00
G01 X10.2675 Y-31.2337 F200.00
G01 X10.2690 Y-31.2034 F200.00
G01 X10.2727 Y-31.1779 F200.00
G01 X10.2822 Y-31.1399 F200.00
G01 X10.2928 Y-31.1116 F200.00
G01 X10.3028 Y-31.0904 F200.00
G01 X10.3172 Y-31.0660 F200.00
G01 X10.3388 Y-31.0364 F200.00
G01 X10.3579 Y-31.0154 F200.00
G01 X10.3839 Y-30.9924 F200.00
G01 X10.4048 Y-30.9770 F200.00
G01 X10.4269 Y-30.9636 F200.00
G01 X10.4560 Y-30.9494 F200.00
G01 X10.4909 Y-30.9371 F200.00
G01 X10.5140 Y-30.9313 F200.00
G01 X10.5416 Y-30.9270 F200.00
G01 X10.5762 Y-30.9250 F200.00
G01 X11.0138 Y-30.9250 F200.00
G01 X11.0441 Y-30.9265 F200.00
G01 X11.0760 Y-30.9313 F200.00
G01 X11.1031 Y-30.9382 F200.00
G01 X11.1340 Y-30.9494 F200.00
G01 X11.1571 Y-30.9603 F200.00
G01 X11.1815 Y-30.9747 F200.00
G01 X11.2130 Y-30.9980 F200.00
G01 X11.2321 Y-31.0154 F200.00
G01 X11.2512 Y-31.0364 F200.00
G01 X11.2705 Y-31.0623 F200.00
G01 X11.2839 Y-31.0844 F200.00
G01 X11.3006 Y-31.1197 F200.00
G01 X11.3093 Y-31.1444 F200.00
G01 X11.3162 Y-31.1716 F200.00
G01 X11.3210 Y-31.2034 F200.00
G01 X11.3225 Y-31.2329 F200.00
G01 X12.2052 Y-31.2331 F200.00
G01 X12.2294 Y-31.2350 F200.00
G01 X12.2533 Y-31.2396 F200.00
G01 X12.2755 Y-31.2465 F200.00
G01 X12.2897 Y-31.2524 F200.00
G01 X12.3113 Y-31.2636 F200.00
G01 X12.3346 Y-31.2796 F200.00
G01 X12.3536 Y-31.2965 F200.00
G01 X13.0909 Y-32.0338 F200.00
G01 X13.1079 Y-32.0531 F200.00
G01 X13.1179 Y-32.0667 F200.00
G01 X13.1405 Y-32.1005 F200.00
G01 X13.3449 Y-32.2371 F200.00
G01 X13.5860 Y-32.2850 F200.00
G01 X13.6259 Y-32.2771 F200.00
G01 X13.6426 Y-32.2745 F200.00
G01 X13.6682 Y-32.2729 F200.00
G01 X14.1916 Y-32.2729 F200.00
G01 X14.2139 Y-32.2741 F200.00
G01 X14.2435 Y-32.2793 F200.00
G01 X14.2670 Y-32.2865 F200.00
G01 X14.2811 Y-32.2924 F200.00
G01 X14.3027 Y-32.3036 F200.00
G01 X14.3261 Y-32.3196 F200.00
G01 X14.3451 Y-32.3365 F200.00
G01 X20.2273 Y-38.2188 F200.00
G01 X20.2444 Y-38.2381 F200.00
G01 X20.2543 Y-38.2517 F200.00
G01 X20.2769 Y-38.2855 F200.00
G01 X20.4814 Y-38.4221 F200.00
G01 X20.7224 Y-38.4700 F200.00
G01 X20.7623 Y-38.4621 F200.00
G01 X20.7790 Y-38.4595 F200.00
G01 X20.8047 Y-38.4579 F200.00
G01 X29.2519 Y-38.4579 F200.00
G01 X29.2739 Y-38.4591 F200.00
G01 X29.3031 Y-38.4641 F200.00
G01 X29.3186 Y-38.4685 F200.00
G01 X29.3392 Y-38.4763 F200.00
G01 X29.3616 Y-38.4877 F200.00
G01 X29.3879 Y-38.5059 F200.00
G01 X29.4034 Y-38.5196 F200.00
G01 X29.4150 Y-38.5318 F200.00
G01 X29.4296 Y-38.5504 F200.00
G01 X29.5659 Y-38.7541 F200.00
G01 X29.8284 Y-38.9295 F200.00
G01 X29.8487 Y-38.9449 F200.00
G01 X29.8679 Y-38.9635 F200.00
G01 X29.8796 Y-38.9774 F200.00
G01 X29.8907 Y-38.9933 F200.00
G01 X29.9023 Y-39.0139 F200.00
G01 X29.9116 Y-39.0356 F200.00
G01 X29.9186 Y-39.0588 F200.00
G01 X29.9237 Y-39.0880 F200.00
G01 X29.9248 Y-39.1100 F200.00
G01 X29.9237 Y-39.1320 F200.00
G01 X29.9186 Y-39.1612 F200.00
G01 X29.9143 Y-39.1767 F200.00
G01 X29.9064 Y-39.1972 F200.00
G01 X29.8951 Y-39.2196 F200.00
G01 X29.8769 Y-39.2460 F200.00
G01 X29.8632 Y-39.2615 F200.00
G01 X29.8487 Y-39.2751 F200.00
G01 X29.8284 Y-39.2905 F200.00
G01 X29.5659 Y-39.4659 F200.00
G01 X29.2856 Y-39.8853 F200.00
G01 X29.1872 Y-40.3800 F200.00
G01 X29.2341 Y-40.6156 F200.00
G01 X29.2377 Y-40.6439 F200.00
G01 X29.2382 Y-40.6607 F200.00
G01 X29.2369 Y-40.6814 F200.00
G01 X29.2356 Y-40.6911 F200.00
G01 X29.2307 Y-40.7143 F200.00
G01 X29.2242 Y-40.7348 F200.00
G01 X29.2179 Y-40.7495 F200.00
G01 X29.2032 Y-40.7761 F200.00
G01 X29.1913 Y-40.7927 F200.00
G01 X29.1747 Y-40.8114 F200.00
G01 X28.1962 Y-41.7899 F200.00
G01 X28.1769 Y-41.8069 F200.00
G01 X28.1633 Y-41.8169 F200.00
G01 X28.1295 Y-41.8395 F200.00
G01 X27.9729 Y-42.0738 F200.00
G01 X27.9616 Y-42.0892 F200.00
G01 X27.9551 Y-42.0968 F200.00
G01 X27.9392 Y-42.1131 F200.00
G01 X27.9245 Y-42.1255 F200.00
G01 X27.9038 Y-42.1395 F200.00
G01 X27.8868 Y-42.1486 F200.00
G01 X27.8646 Y-42.1579 F200.00
G01 X27.8415 Y-42.1646 F200.00
G01 X27.8317 Y-42.1666 F200.00
G01 X27.8125 Y-42.1694 F200.00
G01 X27.7903 Y-42.1703 F200.00
G01 X27.7697 Y-42.1690 F200.00
G01 X27.7459 Y-42.1652 F200.00
G01 X27.7154 Y-42.1561 F200.00
G01 X27.6957 Y-42.1475 F200.00
G01 X27.6774 Y-42.1372 F200.00
G01 X27.6517 Y-42.1183 F200.00
G01 X27.6382 Y-42.1059 F200.00
G01 X27.6215 Y-42.0870 F200.00
G01 X27.6096 Y-42.0701 F200.00
G01 X27.5972 Y-42.0480 F200.00
G01 X27.5891 Y-42.0288 F200.00
G01 X27.5819 Y-42.0058 F200.00
G01 X27.5765 Y-41.9754 F200.00
G01 X27.5755 Y-41.9582 F200.00
G01 X27.5754 Y-41.9351 F200.00
G01 X27.5220 Y-41.6670 F200.00
G01 X27.3822 Y-41.4578 F200.00
G01 X27.1730 Y-41.3180 F200.00
G01 X26.9049 Y-41.2646 F200.00
G01 X26.4351 Y-41.2646 F200.00
G01 X26.1670 Y-41.3180 F200.00
G01 X25.9578 Y-41.4578 F200.00
G01 X25.8180 Y-41.6670 F200.00
G01 X25.7662 Y-41.9274 F200.00
G01 X25.7588 Y-41.9546 F200.00
G01 X25.7487 Y-41.9792 F200.00
G01 X25.7394 Y-41.9966 F200.00
G01 X25.7285 Y-42.0130 F200.00
G01 X25.7119 Y-42.0332 F200.00
G01 X25.6891 Y-42.0543 F200.00
G01 X25.6665 Y-42.0701 F200.00
G01 X25.6497 Y-42.0795 F200.00
G01 X25.6312 Y-42.0875 F200.00
G01 X25.6058 Y-42.0956 F200.00
G01 X25.5759 Y-42.1009 F200.00
G01 X25.5533 Y-42.1021 F200.00
G01 X25.2524 Y-42.1021 F200.00
G01 X25.2301 Y-42.1009 F200.00
G01 X25.2005 Y-42.0957 F200.00
G01 X25.1770 Y-42.0885 F200.00
G01 X25.1538 Y-42.0783 F200.00
G01 X25.1328 Y-42.0660 F200.00
G01 X25.1132 Y-42.0515 F200.00
G01 X25.0955 Y-42.0348 F200.00
G01 X25.0821 Y-42.0195 F200.00
G01 X25.0715 Y-42.0047 F200.00
G01 X25.0592 Y-41.9837 F200.00
G01 X25.0489 Y-41.9604 F200.00
G01 X25.0417 Y-41.9370 F200.00
G01 X25.0365 Y-41.9074 F200.00
G01 X25.0354 Y-41.8850 F200.00
G01 X25.0354 Y-41.7826 F200.00
G01 X24.9820 Y-41.5145 F200.00
G01 X24.8422 Y-41.3053 F200.00
G01 X24.6330 Y-41.1655 F200.00
G01 X24.3649 Y-41.1121 F200.00
G01 X24.1731 Y-41.1121 F200.00
G01 X24.1424 Y-41.1098 F200.00
G01 X24.1173 Y-41.1047 F200.00
G01 X24.0931 Y-41.0967 F200.00
G01 X24.0723 Y-41.0873 F200.00
G01 X24.0562 Y-41.0779 F200.00
G01 X24.0411 Y-41.0679 F200.00
G01 X23.8000 Y-41.0200 F200.00
G01 X23.7601 Y-41.0279 F200.00
G01 X23.7434 Y-41.0305 F200.00
G01 X23.7178 Y-41.0321 F200.00
G01 X23.4887 Y-41.0321 F200.00
G01 X23.4663 Y-41.0309 F200.00
G01 X23.4454 Y-41.0276 F200.00
G01 X23.4355 Y-41.0254 F200.00
G01 X23.4133 Y-41.0185 F200.00
G01 X23.3900 Y-41.0083 F200.00
G01 X23.3748 Y-40.9998 F200.00
G01 X23.3495 Y-40.9815 F200.00
G01 X23.3233 Y-40.9566 F200.00
G01 X23.0227 Y-40.8321 F200.00
G01 X22.6973 Y-40.8321 F200.00
G01 X22.3967 Y-40.9566 F200.00
G01 X22.1584 Y-41.1948 F200.00
G01 X22.1426 Y-41.2157 F200.00
G01 X22.1253 Y-41.2335 F200.00
G01 X22.1061 Y-41.2493 F200.00
G01 X22.0852 Y-41.2627 F200.00
G01 X22.0629 Y-41.2737 F200.00
G01 X22.0533 Y-41.2775 F200.00
G01 X22.0349 Y-41.2834 F200.00
G01 X22.0131 Y-41.2881 F200.00
G01 X21.9906 Y-41.2905 F200.00
G01 X21.9658 Y-41.2905 F200.00
G01 X21.9360 Y-41.2867 F200.00
G01 X21.8249 Y-41.2646 F200.00
G01 X21.6859 Y-41.2646 F200.00
G01 X21.6636 Y-41.2635 F200.00
G01 X21.6340 Y-41.2583 F200.00
G01 X21.6105 Y-41.2511 F200.00
G01 X21.5873 Y-41.2408 F200.00
G01 X21.5720 Y-41.2323 F200.00
G01 X21.5546 Y-41.2203 F200.00
G01 X21.5324 Y-41.2010 F200.00
G01 X15.2576 Y-34.9262 F200.00
G01 X15.2406 Y-34.9069 F200.00
G01 X15.2306 Y-34.8933 F200.00
G01 X15.2080 Y-34.8595 F200.00
G01 X15.0036 Y-34.7229 F200.00
G01 X14.7625 Y-34.6750 F200.00
G01 X14.7226 Y-34.6829 F200.00
G01 X14.6971 Y-34.6863 F200.00
G01 X14.6803 Y-34.6871 F200.00
G01 X14.6200 Y-34.6871 F200.00
G01 X14.5907 Y-34.6850 F200.00
G01 X14.5680 Y-34.6807 F200.00
G01 X14.5446 Y-34.6735 F200.00
G01 X14.5213 Y-34.6633 F200.00
G01 X14.5061 Y-34.6548 F200.00
G01 X14.4808 Y-34.6365 F200.00
G01 X14.4665 Y-34.6235 F200.00
G01 X14.4535 Y-34.6092 F200.00
G01 X14.4352 Y-34.5839 F200.00
G01 X14.4224 Y-34.5596 F200.00
G01 X14.4165 Y-34.5454 F200.00
G01 X14.4093 Y-34.5220 F200.00
G01 X14.4041 Y-34.4924 F200.00
G01 X14.4029 Y-34.4700 F200.00
G01 X14.4029 Y-34.4007 F200.00
G01 X14.3713 Y-34.3691 F200.00
G01 X14.0750 Y-34.3691 F200.00
G01 X14.0745 Y-34.4344 F200.00
G01 X14.0706 Y-34.4528 F200.00
G01 X14.0630 Y-34.4700 F200.00
G01 X14.0519 Y-34.4852 F200.00
G01 X14.0452 Y-34.4919 F200.00
G01 X14.0300 Y-34.5030 F200.00
G01 X14.0128 Y-34.5106 F200.00
G01 X14.0037 Y-34.5130 F200.00
G01 X13.9850 Y-34.5150 F200.00
G01 X12.6756 Y-34.5145 F200.00
G01 X12.6572 Y-34.5106 F200.00
G01 X12.6484 Y-34.5072 F200.00
G01 X12.6321 Y-34.4978 F200.00
G01 X12.6181 Y-34.4852 F200.00
G01 X12.6070 Y-34.4700 F200.00
G01 X12.5994 Y-34.4528 F200.00
G01 X12.5955 Y-34.4344 F200.00
G01 X12.5950 Y-34.3691 F200.00
G01 X12.3551 Y-34.3691 F200.00
G01 X12.3551 Y-36.1758 F200.00
G01 X12.3744 Y-36.1902 F200.00
G01 X12.4115 Y-36.2235 F200.00
G01 X12.4488 Y-36.2653 F200.00
G01 X12.4809 Y-36.3109 F200.00
G01 X12.5085 Y-36.3620 F200.00
G01 X12.5261 Y-36.4045 F200.00
G01 X12.5415 Y-36.4561 F200.00
G01 X12.5512 Y-36.5101 F200.00
G01 X12.5550 Y-36.5700 F200.00
G01 X12.5521 Y-36.6229 F200.00
G01 X12.5418 Y-36.6827 F200.00
G01 X12.5290 Y-36.7270 F200.00
G01 X12.5085 Y-36.7780 F200.00
G01 X12.5042 Y-36.7871 F200.00
G01 X12.4809 Y-36.8291 F200.00
G01 X12.4511 Y-36.8715 F200.00
G01 X12.4150 Y-36.9128 F200.00
G01 X12.4078 Y-36.9200 F200.00
G01 X12.3697 Y-36.9538 F200.00
G01 X12.3299 Y-36.9821 F200.00
G01 X12.2821 Y-37.0092 F200.00
G01 X12.2730 Y-37.0135 F200.00
G01 X12.2305 Y-37.0311 F200.00
G01 X12.1777 Y-37.0468 F200.00
G01 X12.1179 Y-37.0571 F200.00
G01 X12.0700 Y-37.0599 F200.00
G01 X12.0121 Y-37.0571 F200.00
G01 X11.9609 Y-37.0487 F200.00
G01 X11.9080 Y-37.0340 F200.00
G01 X11.8570 Y-37.0135 F200.00
G01 X11.8059 Y-36.9859 F200.00
G01 X11.7635 Y-36.9561 F200.00
G01 X11.7222 Y-36.9200 F200.00
G01 X11.7150 Y-36.9128 F200.00
G01 X11.6812 Y-36.8747 F200.00
G01 X11.6529 Y-36.8349 F200.00
G01 X11.6258 Y-36.7871 F200.00
G01 X11.6039 Y-36.7355 F200.00
G01 X11.5882 Y-36.6827 F200.00
G01 X11.5779 Y-36.6229 F200.00
G01 X11.5751 Y-36.5650 F200.00
G01 X11.5788 Y-36.5101 F200.00
G01 X11.5882 Y-36.4573 F200.00
G01 X11.6003 Y-36.4154 F200.00
G01 X9.9015 Y-34.7166 F200.00
G01 X9.8846 Y-34.6976 F200.00
G01 X9.8702 Y-34.6770 F200.00
G01 X9.8617 Y-34.6618 F200.00
G01 X9.8519 Y-34.6395 F200.00
G01 X9.8486 Y-34.6300 F200.00
G01 X9.8424 Y-34.6065 F200.00
G01 X9.8391 Y-34.5855 F200.00
G01 X9.8379 Y-34.5631 F200.00
G01 X9.8379 Y-32.5270 F200.00
G00 Z2.5400
G00 X8.9413 Y-37.1741
G01 F100.00
G01 Z-0.1000
G01 F200.00
G01 X8.9011 Y-37.1680 F200.00
G01 X8.8480 Y-37.1648 F200.00
G01 X8.8207 Y-37.1648 F200.00
G01 X8.7675 Y-37.1680 F200.00
G01 X8.7488 Y-37.1704 F200.00
G01 X8.7046 Y-37.1779 F200.00
G01 X8.6814 Y-37.1830 F200.00
G01 X8.6349 Y-37.1964 F200.00
G01 X8.6120 Y-37.2043 F200.00
G01 X8.5678 Y-37.2226 F200.00
G01 X8.5432 Y-37.2344 F200.00
G01 X8.4965 Y-37.2604 F200.00
G01 X8.4809 Y-37.2706 F200.00
G01 X8.4443 Y-37.2965 F200.00
G01 X8.4230 Y-37.3135 F200.00
G01 X8.3896 Y-37.3434 F200.00
G01 X8.3703 Y-37.3627 F200.00
G01 X8.3298 Y-37.4089 F200.00
G01 X8.2975 Y-37.4540 F200.00
G01 X8.2830 Y-37.4771 F200.00
G01 X8.2613 Y-37.5164 F200.00
G01 X8.2494 Y-37.5409 F200.00
G01 X8.2312 Y-37.5851 F200.00
G01 X8.2233 Y-37.6081 F200.00
G01 X8.2099 Y-37.6545 F200.00
G01 X8.2048 Y-37.6777 F200.00
G01 X8.1973 Y-37.7220 F200.00
G01 X8.1948 Y-37.7407 F200.00
G01 X8.1913 Y-37.8075 F200.00
G01 X8.1942 Y-37.8659 F200.00
G01 X8.1973 Y-37.8929 F200.00
G01 X8.2048 Y-37.9372 F200.00
G01 X8.2099 Y-37.9604 F200.00
G01 X8.2233 Y-38.0068 F200.00
G01 X8.2312 Y-38.0298 F200.00
G01 X8.2494 Y-38.0740 F200.00
G01 X8.2613 Y-38.0986 F200.00
G01 X8.2873 Y-38.1453 F200.00
G01 X8.2975 Y-38.1609 F200.00
G01 X8.3234 Y-38.1975 F200.00
G01 X8.3298 Y-38.2060 F200.00
G01 X8.3471 Y-38.2263 F200.00
G01 X7.9198 Y-38.6536 F200.00
G01 X7.9161 Y-38.6400 F200.00
G01 X7.9071 Y-38.6163 F200.00
G01 X7.8955 Y-38.5936 F200.00
G01 X7.8816 Y-38.5722 F200.00
G01 X7.8656 Y-38.5524 F200.00
G01 X7.8476 Y-38.5344 F200.00
G01 X7.8278 Y-38.5184 F200.00
G01 X7.8064 Y-38.5045 F200.00
G01 X7.7837 Y-38.4929 F200.00
G01 X7.7600 Y-38.4839 F200.00
G01 X7.7354 Y-38.4773 F200.00
G01 X7.7209 Y-38.4750 F200.00
G01 X7.7354 Y-38.4727 F200.00
G01 X7.7600 Y-38.4661 F200.00
G01 X7.7837 Y-38.4571 F200.00
G01 X7.8064 Y-38.4455 F200.00
G01 X7.8278 Y-38.4316 F200.00
G01 X7.8476 Y-38.4156 F200.00
G01 X7.8656 Y-38.3976 F200.00
G01 X7.8816 Y-38.3778 F200.00
G01 X7.8955 Y-38.3564 F200.00
G01 X7.9071 Y-38.3337 F200.00
G01 X7.9161 Y-38.3100 F200.00
G01 X7.9227 Y-38.2854 F200.00
G01 X7.9267 Y-38.2604 F200.00
G01 X7.9280 Y-38.2350 F200.00
G01 X7.9280 Y-37.4350 F200.00
G01 X7.9267 Y-37.4096 F200.00
G01 X7.9227 Y-37.3846 F200.00
G01 X7.9161 Y-37.3600 F200.00
G01 X7.9071 Y-37.3363 F200.00
G01 X7.8955 Y-37.3136 F200.00
G01 X7.8816 Y-37.2922 F200.00
G01 X7.8656 Y-37.2724 F200.00
G01 X7.8476 Y-37.2544 F200.00
G01 X7.8278 Y-37.2384 F200.00
G01 X7.8064 Y-37.2245 F200.00
G01 X7.7837 Y-37.2129 F200.00
G01 X7.7600 Y-37.2039 F200.00
G01 X7.7456 Y-37.2000 F200.00
G01 X7.7600 Y-37.1961 F200.00
G01 X7.7837 Y-37.1871 F200.00
G01 X7.8064 Y-37.1755 F200.00
G01 X7.8278 Y-37.1616 F200.00
G01 X7.8476 Y-37.1456 F200.00
G01 X7.8656 Y-37.1276 F200.00
G01 X7.8816 Y-37.1078 F200.00
G01 X7.8955 Y-37.0864 F200.00
G01 X7.9071 Y-37.0637 F200.00
G01 X7.9161 Y-37.0400 F200.00
G01 X7.9227 Y-37.0154 F200.00
G01 X7.9267 Y-36.9904 F200.00
G01 X7.9280 Y-36.9650 F200.00
G01 X7.9278 Y-36.1605 F200.00
G01 X8.9413 Y-37.1741 F200.00
G01 X8.9011 Y-37.1680 F200.00
G00 Z2.5400
G00 X9.4744 Y-37.8662
G01 F100.00
G01 Z-0.1000
G01 F200.00
G01 X9.4769 Y-37.8211 F200.00
G01 X9.4769 Y-37.7938 F200.00
G01 X9.4738 Y-37.7407 F200.00
G01 X9.4677 Y-37.7005 F200.00
G01 X9.5232 Y-37.7559 F200.00
G01 X9.5115 Y-37.7771 F200.00
G01 X9.4997 Y-37.8016 F200.00
G01 X9.4814 Y-37.8458 F200.00
G01 X9.4744 Y-37.8662 F200.00
G01 X9.4769 Y-37.8211 F200.00
G00 Z2.5400
G00 X10.0093 Y-38.7066
G01 F100.00
G01 Z-0.1000
G01 F200.00
G01 X9.9936 Y-38.7285 F200.00
G01 X9.9791 Y-38.7515 F200.00
G01 X9.9682 Y-38.7712 F200.00
G01 X9.9564 Y-38.7957 F200.00
G01 X9.9467 Y-38.8192 F200.00
G01 X9.9388 Y-38.8422 F200.00
G01 X9.9326 Y-38.8638 F200.00
G01 X9.9266 Y-38.8903 F200.00
G01 X9.9204 Y-38.9311 F200.00
G01 X9.9185 Y-38.9619 F200.00
G01 X9.9181 Y-41.0195 F200.00
G01 X9.8972 Y-41.0402 F200.00
G01 X9.8673 Y-41.0737 F200.00
G01 X9.8503 Y-41.0950 F200.00
G01 X9.8243 Y-41.1316 F200.00
G01 X9.8141 Y-41.1472 F200.00
G01 X9.7881 Y-41.1939 F200.00
G01 X9.7763 Y-41.2184 F200.00
G01 X9.7580 Y-41.2626 F200.00
G01 X9.7502 Y-41.2856 F200.00
G01 X9.7368 Y-41.3320 F200.00
G01 X9.7317 Y-41.3553 F200.00
G01 X9.7242 Y-41.3995 F200.00
G01 X9.7217 Y-41.4182 F200.00
G01 X9.7186 Y-41.4714 F200.00
G01 X9.7187 Y-41.5008 F200.00
G01 X8.7377 Y-42.4819 F200.00
G01 X7.9239 Y-42.4819 F200.00
G01 X7.9227 Y-42.4746 F200.00
G01 X7.9161 Y-42.4500 F200.00
G01 X7.9071 Y-42.4263 F200.00
G01 X7.8955 Y-42.4036 F200.00
G01 X7.8816 Y-42.3822 F200.00
G01 X7.8656 Y-42.3624 F200.00
G01 X7.8476 Y-42.3444 F200.00
G01 X7.8278 Y-42.3284 F200.00
G01 X7.8064 Y-42.3145 F200.00
G01 X7.7837 Y-42.3029 F200.00
G01 X7.7600 Y-42.2939 F200.00
G01 X7.7354 Y-42.2873 F200.00
G01 X7.7209 Y-42.2850 F200.00
G01 X7.7354 Y-42.2827 F200.00
G01 X7.7600 Y-42.2761 F200.00
G01 X7.7837 Y-42.2671 F200.00
G01 X7.8064 Y-42.2555 F200.00
G01 X7.8278 Y-42.2416 F200.00
G01 X7.8476 Y-42.2256 F200.00
G01 X7.8656 Y-42.2076 F200.00
G01 X7.8816 Y-42.1878 F200.00
G01 X7.8883 Y-42.1775 F200.00
G01 X7.9172 Y-42.1971 F200.00
G01 X7.9639 Y-42.2231 F200.00
G01 X7.9885 Y-42.2349 F200.00
G01 X8.0326 Y-42.2532 F200.00
G01 X8.0556 Y-42.2611 F200.00
G01 X8.1021 Y-42.2744 F200.00
G01 X8.1253 Y-42.2795 F200.00
G01 X8.1695 Y-42.2871 F200.00
G01 X8.1966 Y-42.2901 F200.00
G01 X8.2550 Y-42.2930 F200.00
G01 X8.3218 Y-42.2895 F200.00
G01 X8.3405 Y-42.2871 F200.00
G01 X8.3847 Y-42.2795 F200.00
G01 X8.4113 Y-42.2735 F200.00
G01 X8.4544 Y-42.2611 F200.00
G01 X8.4774 Y-42.2532 F200.00
G01 X8.5215 Y-42.2349 F200.00
G01 X8.5461 Y-42.2231 F200.00
G01 X8.5928 Y-42.1971 F200.00
G01 X8.6084 Y-42.1869 F200.00
G01 X8.6536 Y-42.1545 F200.00
G01 X8.6998 Y-42.1140 F200.00
G01 X8.7190 Y-42.0948 F200.00
G01 X8.7595 Y-42.0486 F200.00
G01 X8.7919 Y-42.0034 F200.00
G01 X8.8021 Y-41.9878 F200.00
G01 X8.8281 Y-41.9411 F200.00
G01 X8.8399 Y-41.9165 F200.00
G01 X8.8582 Y-41.8724 F200.00
G01 X8.8661 Y-41.8494 F200.00
G01 X8.8785 Y-41.8063 F200.00
G01 X8.8845 Y-41.7797 F200.00
G01 X8.8921 Y-41.7355 F200.00
G01 X8.8951 Y-41.7084 F200.00
G01 X8.8980 Y-41.6500 F200.00
G01 X8.8951 Y-41.5916 F200.00
G01 X8.8921 Y-41.5645 F200.00
G01 X8.8845 Y-41.5203 F200.00
G01 X8.8794 Y-41.4971 F200.00
G01 X8.8661 Y-41.4506 F200.00
G01 X8.8582 Y-41.4276 F200.00
G01 X8.8399 Y-41.3835 F200.00
G01 X8.8281 Y-41.3589 F200.00
G01 X8.8021 Y-41.3122 F200.00
G01 X8.7919 Y-41.2966 F200.00
G01 X8.7595 Y-41.2514 F200.00
G01 X8.7190 Y-41.2052 F200.00
G01 X8.6998 Y-41.1860 F200.00
G01 X8.6536 Y-41.1455 F200.00
G01 X8.6084 Y-41.1131 F200.00
G01 X8.5928 Y-41.1029 F200.00
G01 X8.5461 Y-41.0769 F200.00
G01 X8.5215 Y-41.0651 F200.00
G01 X8.4774 Y-41.0468 F200.00
G01 X8.4544 Y-41.0389 F200.00
G01 X8.4113 Y-41.0265 F200.00
G01 X8.3847 Y-41.0205 F200.00
G01 X8.3405 Y-41.0129 F200.00
G01 X8.3134 Y-41.0099 F200.00
G01 X8.2550 Y-41.0070 F200.00
G01 X8.1966 Y-41.0099 F200.00
G01 X8.1695 Y-41.0129 F200.00
G01 X8.1253 Y-41.0205 F200.00
G01 X8.1021 Y-41.0256 F200.00
G01 X8.0556 Y-41.0389 F200.00
G01 X8.0326 Y-41.0468 F200.00
G01 X7.9885 Y-41.0651 F200.00
G01 X7.9639 Y-41.0769 F200.00
G01 X7.9172 Y-41.1029 F200.00
G01 X7.8928 Y-41.1194 F200.00
G01 X7.8816 Y-41.1022 F200.00
G01 X7.8656 Y-41.0824 F200.00
G01 X7.8476 Y-41.0644 F200.00
G01 X7.8278 Y-41.0484 F200.00
G01 X7.8064 Y-41.0345 F200.00
G01 X7.7837 Y-41.0229 F200.00
G01 X7.7630 Y-41.0150 F200.00
G01 X7.7837 Y-41.0071 F200.00
G01 X7.8064 Y-40.9955 F200.00
G01 X7.8278 Y-40.9816 F200.00
G01 X7.8476 Y-40.9656 F200.00
G01 X7.8656 Y-40.9476 F200.00
G01 X7.8816 Y-40.9278 F200.00
G01 X7.8955 Y-40.9064 F200.00
G01 X7.9071 Y-40.8837 F200.00
G01 X7.9161 Y-40.8600 F200.00
G01 X7.9227 Y-40.8354 F200.00
G01 X7.9267 Y-40.8104 F200.00
G01 X7.9280 Y-40.7850 F200.00
G01 X7.9280 Y-39.9850 F200.00
G01 X7.9267 Y-39.9596 F200.00
G01 X7.9227 Y-39.9346 F200.00
G01 X7.9161 Y-39.9100 F200.00
G01 X7.9071 Y-39.8863 F200.00
G01 X7.8955 Y-39.8636 F200.00
G01 X7.8816 Y-39.8422 F200.00
G01 X7.8656 Y-39.8224 F200.00
G01 X7.8476 Y-39.8044 F200.00
G01 X7.8278 Y-39.7884 F200.00
G01 X7.8064 Y-39.7745 F200.00
G01 X7.7837 Y-39.7629 F200.00
G01 X7.7600 Y-39.7539 F200.00
G01 X7.7456 Y-39.7500 F200.00
G01 X7.7600 Y-39.7461 F200.00
G01 X7.7837 Y-39.7371 F200.00
G01 X7.8064 Y-39.7255 F200.00
G01 X7.8278 Y-39.7116 F200.00
G01 X7.8476 Y-39.6956 F200.00
G01 X7.8656 Y-39.6776 F200.00
G01 X7.8816 Y-39.6578 F200.00
G01 X7.8955 Y-39.6364 F200.00
G01 X7.9071 Y-39.6137 F200.00
G01 X7.9161 Y-39.5900 F200.00
G01 X7.9227 Y-39.5654 F200.00
G01 X7.9239 Y-39.5581 F200.00
G01 X8.0986 Y-39.5577 F200.00
G01 X8.1294 Y-39.5558 F200.00
G01 X8.1702 Y-39.5496 F200.00
G01 X8.1935 Y-39.5445 F200.00
G01 X8.2184 Y-39.5374 F200.00
G01 X8.2413 Y-39.5295 F200.00
G01 X8.2648 Y-39.5198 F200.00
G01 X8.2894 Y-39.5080 F200.00
G01 X8.3165 Y-39.4928 F200.00
G01 X8.3321 Y-39.4826 F200.00
G01 X8.3589 Y-39.4633 F200.00
G01 X8.3717 Y-39.4526 F200.00
G01 X8.3983 Y-39.4283 F200.00
G01 X9.1476 Y-38.6790 F200.00
G01 X9.1720 Y-38.6524 F200.00
G01 X9.1826 Y-38.6396 F200.00
G01 X9.2019 Y-38.6127 F200.00
G01 X9.2121 Y-38.5972 F200.00
G01 X9.2273 Y-38.5700 F200.00
G01 X9.2391 Y-38.5455 F200.00
G01 X9.2488 Y-38.5220 F200.00
G01 X9.2567 Y-38.4990 F200.00
G01 X9.2638 Y-38.4741 F200.00
G01 X9.2690 Y-38.4509 F200.00
G01 X9.2752 Y-38.4101 F200.00
G01 X9.2774 Y-38.3657 F200.00
G01 X9.2774 Y-38.2730 F200.00
G01 X9.2984 Y-38.2522 F200.00
G01 X9.3389 Y-38.2060 F200.00
G01 X9.3712 Y-38.1609 F200.00
G01 X9.3814 Y-38.1453 F200.00
G01 X9.4074 Y-38.0986 F200.00
G01 X9.4192 Y-38.0740 F200.00
G01 X9.4375 Y-38.0298 F200.00
G01 X9.4445 Y-38.0094 F200.00
G01 X9.4416 Y-38.0682 F200.00
G01 X9.4451 Y-38.1350 F200.00
G01 X9.4475 Y-38.1537 F200.00
G01 X9.4550 Y-38.1979 F200.00
G01 X9.4602 Y-38.2211 F200.00
G01 X9.4735 Y-38.2676 F200.00
G01 X9.4814 Y-38.2905 F200.00
G01 X9.4997 Y-38.3347 F200.00
G01 X9.5115 Y-38.3593 F200.00
G01 X9.5375 Y-38.4060 F200.00
G01 X9.5477 Y-38.4216 F200.00
G01 X9.5800 Y-38.4668 F200.00
G01 X9.5906 Y-38.4795 F200.00
G01 X9.6299 Y-38.5229 F200.00
G01 X9.6733 Y-38.5621 F200.00
G01 X9.6946 Y-38.5791 F200.00
G01 X9.7311 Y-38.6051 F200.00
G01 X9.7542 Y-38.6196 F200.00
G01 X9.7935 Y-38.6413 F200.00
G01 X9.8180 Y-38.6531 F200.00
G01 X9.8622 Y-38.6714 F200.00
G01 X9.8852 Y-38.6792 F200.00
G01 X9.9316 Y-38.6926 F200.00
G01 X9.9549 Y-38.6977 F200.00
G01 X10.0093 Y-38.7066 F200.00
G01 X9.9936 Y-38.7285 F200.00
G00 Z2.5400
G00 X10.9619 Y-39.0015
G01 F100.00
G01 Z-0.1000
G01 F200.00
G01 X10.9555 Y-39.0432 F200.00
G01 X10.9520 Y-39.1100 F200.00
G01 X10.9555 Y-39.1768 F200.00
G01 X10.9580 Y-39.1955 F200.00
G01 X10.9655 Y-39.2397 F200.00
G01 X10.9706 Y-39.2629 F200.00
G01 X10.9840 Y-39.3094 F200.00
G01 X10.9918 Y-39.3324 F200.00
G01 X11.0101 Y-39.3765 F200.00
G01 X11.0219 Y-39.4011 F200.00
G01 X11.0479 Y-39.4478 F200.00
G01 X11.0581 Y-39.4634 F200.00
G01 X11.0905 Y-39.5086 F200.00
G01 X11.1011 Y-39.5213 F200.00
G01 X11.1403 Y-39.5647 F200.00
G01 X11.1837 Y-39.6039 F200.00
G01 X11.1964 Y-39.6145 F200.00
G01 X11.2416 Y-39.6469 F200.00
G01 X11.2647 Y-39.6614 F200.00
G01 X11.3039 Y-39.6831 F200.00
G01 X11.3285 Y-39.6949 F200.00
G01 X11.3727 Y-39.7132 F200.00
G01 X11.3956 Y-39.7211 F200.00
G01 X11.4421 Y-39.7344 F200.00
G01 X11.4596 Y-39.7383 F200.00
G01 X11.4300 Y-39.7370 F200.00
G01 X11.4164 Y-39.7374 F200.00
G01 X11.3632 Y-39.7405 F200.00
G01 X11.3445 Y-39.7429 F200.00
G01 X11.3003 Y-39.7505 F200.00
G01 X11.2771 Y-39.7556 F200.00
G01 X11.2306 Y-39.7689 F200.00
G01 X11.2076 Y-39.7768 F200.00
G01 X11.1635 Y-39.7951 F200.00
G01 X11.1389 Y-39.8069 F200.00
G01 X11.0922 Y-39.8329 F200.00
G01 X11.0766 Y-39.8431 F200.00
G01 X11.0314 Y-39.8755 F200.00
G01 X11.0187 Y-39.8861 F200.00
G01 X10.9753 Y-39.9253 F200.00
G01 X10.9361 Y-39.9687 F200.00
G01 X10.9191 Y-39.9900 F200.00
G01 X10.8931 Y-40.0266 F200.00
G01 X10.8829 Y-40.0422 F200.00
G01 X10.8569 Y-40.0889 F200.00
G01 X10.8451 Y-40.1135 F200.00
G01 X10.8279 Y-40.1549 F200.00
G01 X10.8189 Y-40.1806 F200.00
G01 X10.8043 Y-40.2329 F200.00
G01 X10.8043 Y-39.1591 F200.00
G01 X10.9619 Y-39.0015 F200.00
G01 X10.9555 Y-39.0432 F200.00
G00 Z2.5400
G00 X11.1515 Y-39.3180
G01 F100.00
G01 Z-0.1000
G01 F200.00
G01 X11.1339 Y-39.2755 F200.00
G01 X11.1182 Y-39.2227 F200.00
G01 X11.1079 Y-39.1629 F200.00
G01 X11.1050 Y-39.1100 F200.00
G01 X11.1079 Y-39.0571 F200.00
G01 X11.1182 Y-38.9973 F200.00
G01 X11.1339 Y-38.9445 F200.00
G01 X11.1559 Y-38.8929 F200.00
G01 X11.1791 Y-38.8509 F200.00
G01 X11.2112 Y-38.8053 F200.00
G01 X11.2485 Y-38.7635 F200.00
G01 X11.2904 Y-38.7262 F200.00
G01 X11.3359 Y-38.6941 F200.00
G01 X11.3870 Y-38.6665 F200.00
G01 X11.4380 Y-38.6460 F200.00
G01 X11.4909 Y-38.6313 F200.00
G01 X11.5452 Y-38.6227 F200.00
G01 X11.5950 Y-38.6200 F200.00
G01 X11.6448 Y-38.6227 F200.00
G01 X11.6549 Y-38.6238 F200.00
G01 X11.7077 Y-38.6332 F200.00
G01 X11.7605 Y-38.6489 F200.00
G01 X11.8030 Y-38.6665 F200.00
G01 X11.8514 Y-38.6925 F200.00
G01 X11.8997 Y-38.7262 F200.00
G01 X11.9378 Y-38.7600 F200.00
G01 X11.9450 Y-38.7672 F200.00
G01 X11.9788 Y-38.8053 F200.00
G01 X11.9928 Y-38.8249 F200.00
G01 X12.5950 Y-38.8249 F200.00
G01 X12.5955 Y-38.7056 F200.00
G01 X12.5994 Y-38.6872 F200.00
G01 X12.6028 Y-38.6784 F200.00
G01 X12.6070 Y-38.6700 F200.00
G01 X12.6181 Y-38.6548 F200.00
G01 X12.6321 Y-38.6422 F200.00
G01 X12.6484 Y-38.6328 F200.00
G01 X12.6663 Y-38.6270 F200.00
G01 X12.6756 Y-38.6255 F200.00
G01 X13.9850 Y-38.6250 F200.00
G01 X14.0037 Y-38.6270 F200.00
G01 X14.0216 Y-38.6328 F200.00
G01 X14.0379 Y-38.6422 F200.00
G01 X14.0452 Y-38.6481 F200.00
G01 X14.0578 Y-38.6621 F200.00
G01 X14.0630 Y-38.6700 F200.00
G01 X14.0672 Y-38.6784 F200.00
G01 X14.0730 Y-38.6963 F200.00
G01 X14.0750 Y-38.7150 F200.00
G01 X14.0745 Y-39.5244 F200.00
G01 X14.0706 Y-39.5428 F200.00
G01 X14.0672 Y-39.5516 F200.00
G01 X14.0578 Y-39.5679 F200.00
G01 X14.0519 Y-39.5752 F200.00
G01 X14.0379 Y-39.5878 F200.00
G01 X14.0300 Y-39.5930 F200.00
G01 X14.0216 Y-39.5972 F200.00
G01 X14.0037 Y-39.6030 F200.00
G01 X13.9850 Y-39.6050 F200.00
G01 X12.6756 Y-39.6045 F200.00
G01 X12.6572 Y-39.6006 F200.00
G01 X12.6484 Y-39.5972 F200.00
G01 X12.6321 Y-39.5878 F200.00
G01 X12.6181 Y-39.5752 F200.00
G01 X12.6122 Y-39.5679 F200.00
G01 X12.6028 Y-39.5516 F200.00
G01 X12.5970 Y-39.5337 F200.00
G01 X12.5955 Y-39.5244 F200.00
G01 X12.5950 Y-39.4051 F200.00
G01 X11.9857 Y-39.4051 F200.00
G01 X11.9749 Y-39.4194 F200.00
G01 X11.9415 Y-39.4565 F200.00
G01 X11.8997 Y-39.4938 F200.00
G01 X11.8541 Y-39.5259 F200.00
G01 X11.8030 Y-39.5535 F200.00
G01 X11.7605 Y-39.5711 F200.00
G01 X11.7089 Y-39.5865 F200.00
G01 X11.6549 Y-39.5962 F200.00
G01 X11.5950 Y-39.6000 F200.00
G01 X11.5421 Y-39.5971 F200.00
G01 X11.4823 Y-39.5868 F200.00
G01 X11.4295 Y-39.5711 F200.00
G01 X11.3779 Y-39.5492 F200.00
G01 X11.3359 Y-39.5259 F200.00
G01 X11.2935 Y-39.4961 F200.00
G01 X11.2485 Y-39.4565 F200.00
G01 X11.2112 Y-39.4147 F200.00
G01 X11.1791 Y-39.3691 F200.00
G01 X11.1559 Y-39.3271 F200.00
G01 X11.1515 Y-39.3180 F200.00
G01 X11.1339 Y-39.2755 F200.00
G00 Z2.5400
G00 X11.5654 Y-39.7517
G01 F100.00
G01 Z-0.1000
G01 F200.00
G01 X11.5950 Y-39.7530 F200.00
G01 X11.6086 Y-39.7526 F200.00
G01 X11.6618 Y-39.7495 F200.00
G01 X11.6805 Y-39.7471 F200.00
G01 X11.7247 Y-39.7395 F200.00
G01 X11.7480 Y-39.7344 F200.00
G01 X11.7944 Y-39.7211 F200.00
G01 X11.8174 Y-39.7132 F200.00
G01 X11.8616 Y-39.6949 F200.00
G01 X11.8861 Y-39.6831 F200.00
G01 X11.9328 Y-39.6571 F200.00
G01 X11.9484 Y-39.6469 F200.00
G01 X11.9936 Y-39.6145 F200.00
G01 X12.0398 Y-39.5740 F200.00
G01 X12.0559 Y-39.5581 F200.00
G01 X12.4461 Y-39.5581 F200.00
G01 X12.4473 Y-39.5654 F200.00
G01 X12.4539 Y-39.5900 F200.00
G01 X12.4629 Y-39.6137 F200.00
G01 X12.4745 Y-39.6364 F200.00
G01 X12.4884 Y-39.6578 F200.00
G01 X12.5044 Y-39.6776 F200.00
G01 X12.5224 Y-39.6956 F200.00
G01 X12.5422 Y-39.7116 F200.00
G01 X12.5636 Y-39.7255 F200.00
G01 X12.5863 Y-39.7371 F200.00
G01 X12.6100 Y-39.7461 F200.00
G01 X12.6244 Y-39.7500 F200.00
G01 X12.6100 Y-39.7539 F200.00
G01 X12.5863 Y-39.7629 F200.00
G01 X12.5636 Y-39.7745 F200.00
G01 X12.5422 Y-39.7884 F200.00
G01 X12.5224 Y-39.8044 F200.00
G01 X12.5044 Y-39.8224 F200.00
G01 X12.4884 Y-39.8422 F200.00
G01 X12.4745 Y-39.8636 F200.00
G01 X12.4629 Y-39.8863 F200.00
G01 X12.4539 Y-39.9100 F200.00
G01 X12.4473 Y-39.9346 F200.00
G01 X12.4461 Y-39.9419 F200.00
G01 X11.9000 Y-39.9419 F200.00
G01 X11.8847 Y-39.9253 F200.00
G01 X11.8748 Y-39.9160 F200.00
G01 X11.8286 Y-39.8755 F200.00
G01 X11.7834 Y-39.8431 F200.00
G01 X11.7604 Y-39.8286 F200.00
G01 X11.7211 Y-39.8069 F200.00
G01 X11.6965 Y-39.7951 F200.00
G01 X11.6524 Y-39.7768 F200.00
G01 X11.6294 Y-39.7689 F200.00
G01 X11.5829 Y-39.7556 F200.00
G01 X11.5654 Y-39.7517 F200.00
G01 X11.5950 Y-39.7530 F200.00
G00 Z2.5400
G00 X10.9865 Y-40.5880
G01 F100.00
G01 Z-0.1000
G01 F200.00
G01 X10.9689 Y-40.5455 F200.00
G01 X10.9532 Y-40.4927 F200.00
G01 X10.9429 Y-40.4329 F200.00
G01 X10.9400 Y-40.3800 F200.00
G01 X10.9429 Y-40.3271 F200.00
G01 X10.9532 Y-40.2673 F200.00
G01 X10.9689 Y-40.2145 F200.00
G01 X10.9908 Y-40.1629 F200.00
G01 X11.0141 Y-40.1209 F200.00
G01 X11.0462 Y-40.0753 F200.00
G01 X11.0835 Y-40.0335 F200.00
G01 X11.1253 Y-39.9962 F200.00
G01 X11.1709 Y-39.9641 F200.00
G01 X11.2220 Y-39.9365 F200.00
G01 X11.2730 Y-39.9160 F200.00
G01 X11.3259 Y-39.9013 F200.00
G01 X11.3802 Y-39.8927 F200.00
G01 X11.4300 Y-39.8900 F200.00
G01 X11.4798 Y-39.8927 F200.00
G01 X11.4899 Y-39.8938 F200.00
G01 X11.5427 Y-39.9032 F200.00
G01 X11.5955 Y-39.9189 F200.00
G01 X11.6380 Y-39.9365 F200.00
G01 X11.6863 Y-39.9625 F200.00
G01 X11.7347 Y-39.9962 F200.00
G01 X11.7728 Y-40.0300 F200.00
G01 X11.7800 Y-40.0372 F200.00
G01 X11.8138 Y-40.0753 F200.00
G01 X11.8278 Y-40.0949 F200.00
G01 X12.5950 Y-40.0949 F200.00
G01 X12.5955 Y-39.9756 F200.00
G01 X12.5994 Y-39.9572 F200.00
G01 X12.6028 Y-39.9484 F200.00
G01 X12.6122 Y-39.9321 F200.00
G01 X12.6181 Y-39.9248 F200.00
G01 X12.6321 Y-39.9122 F200.00
G01 X12.6484 Y-39.9028 F200.00
G01 X12.6572 Y-39.8994 F200.00
G01 X12.6756 Y-39.8955 F200.00
G01 X13.9850 Y-39.8950 F200.00
G01 X14.0037 Y-39.8970 F200.00
G01 X14.0216 Y-39.9028 F200.00
G01 X14.0300 Y-39.9070 F200.00
G01 X14.0452 Y-39.9181 F200.00
G01 X14.0519 Y-39.9248 F200.00
G01 X14.0630 Y-39.9400 F200.00
G01 X14.0672 Y-39.9484 F200.00
G01 X14.0730 Y-39.9663 F200.00
G01 X14.0750 Y-39.9850 F200.00
G01 X14.0745 Y-40.7944 F200.00
G01 X14.0706 Y-40.8128 F200.00
G01 X14.0672 Y-40.8216 F200.00
G01 X14.0578 Y-40.8379 F200.00
G01 X14.0519 Y-40.8452 F200.00
G01 X14.0379 Y-40.8578 F200.00
G01 X14.0300 Y-40.8630 F200.00
G01 X14.0216 Y-40.8672 F200.00
G01 X14.0037 Y-40.8730 F200.00
G01 X13.9850 Y-40.8750 F200.00
G01 X12.6756 Y-40.8745 F200.00
G01 X12.6572 Y-40.8706 F200.00
G01 X12.6484 Y-40.8672 F200.00
G01 X12.6321 Y-40.8578 F200.00
G01 X12.6181 Y-40.8452 F200.00
G01 X12.6122 Y-40.8379 F200.00
G01 X12.6028 Y-40.8216 F200.00
G01 X12.5970 Y-40.8037 F200.00
G01 X12.5955 Y-40.7944 F200.00
G01 X12.5950 Y-40.6751 F200.00
G01 X11.8207 Y-40.6751 F200.00
G01 X11.8098 Y-40.6894 F200.00
G01 X11.7765 Y-40.7265 F200.00
G01 X11.7347 Y-40.7638 F200.00
G01 X11.6891 Y-40.7959 F200.00
G01 X11.6380 Y-40.8235 F200.00
G01 X11.5955 Y-40.8411 F200.00
G01 X11.5439 Y-40.8565 F200.00
G01 X11.4899 Y-40.8662 F200.00
G01 X11.4300 Y-40.8700 F200.00
G01 X11.3771 Y-40.8671 F200.00
G01 X11.3173 Y-40.8568 F200.00
G01 X11.2645 Y-40.8411 F200.00
G01 X11.2129 Y-40.8192 F200.00
G01 X11.1709 Y-40.7959 F200.00
G01 X11.1285 Y-40.7661 F200.00
G01 X11.0835 Y-40.7265 F200.00
G01 X11.0462 Y-40.6847 F200.00
G01 X11.0141 Y-40.6391 F200.00
G01 X10.9908 Y-40.5971 F200.00
G01 X10.9865 Y-40.5880 F200.00
G01 X10.9689 Y-40.5455 F200.00
G00 Z2.5400
G00 X10.8956 Y-41.1281
G01 F100.00
G01 Z-0.1000
G01 F200.00
G01 X10.8658 Y-41.0864 F200.00
G01 X10.8551 Y-41.0737 F200.00
G01 X10.8252 Y-41.0402 F200.00
G01 X10.8043 Y-41.0195 F200.00
G01 X10.8043 Y-40.5271 F200.00
G01 X10.8189 Y-40.5794 F200.00
G01 X10.8268 Y-40.6024 F200.00
G01 X10.8451 Y-40.6465 F200.00
G01 X10.8569 Y-40.6711 F200.00
G01 X10.8829 Y-40.7178 F200.00
G01 X10.8931 Y-40.7334 F200.00
G01 X10.9191 Y-40.7700 F200.00
G01 X10.9361 Y-40.7913 F200.00
G01 X10.9753 Y-40.8347 F200.00
G01 X11.0187 Y-40.8739 F200.00
G01 X11.0400 Y-40.8909 F200.00
G01 X11.0766 Y-40.9169 F200.00
G01 X11.1017 Y-40.9325 F200.00
G01 X11.0766 Y-40.9481 F200.00
G01 X11.0314 Y-40.9804 F200.00
G01 X11.0187 Y-40.9911 F200.00
G01 X10.9753 Y-41.0303 F200.00
G01 X10.9361 Y-41.0737 F200.00
G01 X10.9255 Y-41.0864 F200.00
G01 X10.8956 Y-41.1281 F200.00
G01 X10.8658 Y-41.0864 F200.00
G00 Z2.5400
G00 X10.9865 Y-41.6930
G01 F100.00
G01 Z-0.1000
G01 F200.00
G01 X10.9689 Y-41.6505 F200.00
G01 X10.9532 Y-41.5977 F200.00
G01 X10.9429 Y-41.5379 F200.00
G01 X10.9400 Y-41.4850 F200.00
G01 X10.9429 Y-41.4321 F200.00
G01 X10.9532 Y-41.3723 F200.00
G01 X10.9689 Y-41.3195 F200.00
G01 X10.9908 Y-41.2679 F200.00
G01 X11.0179 Y-41.2201 F200.00
G01 X11.0462 Y-41.1803 F200.00
G01 X11.0800 Y-41.1422 F200.00
G01 X11.0872 Y-41.1350 F200.00
G01 X11.1253 Y-41.1012 F200.00
G01 X11.1651 Y-41.0729 F200.00
G01 X11.2129 Y-41.0458 F200.00
G01 X11.2645 Y-41.0239 F200.00
G01 X11.3173 Y-41.0082 F200.00
G01 X11.3701 Y-40.9988 F200.00
G01 X11.3802 Y-40.9976 F200.00
G01 X11.4350 Y-40.9951 F200.00
G01 X11.4829 Y-40.9979 F200.00
G01 X11.5427 Y-41.0082 F200.00
G01 X11.5955 Y-41.0239 F200.00
G01 X11.6380 Y-41.0415 F200.00
G01 X11.6863 Y-41.0675 F200.00
G01 X11.6949 Y-41.0729 F200.00
G01 X11.7347 Y-41.1012 F200.00
G01 X11.7728 Y-41.1350 F200.00
G01 X11.7800 Y-41.1422 F200.00
G01 X11.8161 Y-41.1835 F200.00
G01 X11.8459 Y-41.2259 F200.00
G01 X11.8692 Y-41.2679 F200.00
G01 X11.8911 Y-41.3195 F200.00
G01 X11.9018 Y-41.3549 F200.00
G01 X12.5950 Y-41.3549 F200.00
G01 X12.5955 Y-41.2356 F200.00
G01 X12.5994 Y-41.2172 F200.00
G01 X12.6028 Y-41.2084 F200.00
G01 X12.6070 Y-41.2000 F200.00
G01 X12.6181 Y-41.1848 F200.00
G01 X12.6321 Y-41.1722 F200.00
G01 X12.6484 Y-41.1628 F200.00
G01 X12.6572 Y-41.1594 F200.00
G01 X12.6756 Y-41.1555 F200.00
G01 X13.9944 Y-41.1555 F200.00
G01 X14.0128 Y-41.1594 F200.00
G01 X14.0216 Y-41.1628 F200.00
G01 X14.0300 Y-41.1670 F200.00
G01 X14.0452 Y-41.1781 F200.00
G01 X14.0519 Y-41.1848 F200.00
G01 X14.0630 Y-41.2000 F200.00
G01 X14.0706 Y-41.2172 F200.00
G01 X14.0745 Y-41.2356 F200.00
G01 X14.0745 Y-42.0544 F200.00
G01 X14.0706 Y-42.0728 F200.00
G01 X14.0630 Y-42.0900 F200.00
G01 X14.0578 Y-42.0979 F200.00
G01 X14.0452 Y-42.1119 F200.00
G01 X14.0300 Y-42.1230 F200.00
G01 X14.0216 Y-42.1272 F200.00
G01 X14.0037 Y-42.1330 F200.00
G01 X13.9944 Y-42.1345 F200.00
G01 X12.6756 Y-42.1345 F200.00
G01 X12.6572 Y-42.1306 F200.00
G01 X12.6484 Y-42.1272 F200.00
G01 X12.6321 Y-42.1178 F200.00
G01 X12.6248 Y-42.1119 F200.00
G01 X12.6122 Y-42.0979 F200.00
G01 X12.6028 Y-42.0816 F200.00
G01 X12.5970 Y-42.0637 F200.00
G01 X12.5955 Y-42.0544 F200.00
G01 X12.5950 Y-41.9351 F200.00
G01 X11.6215 Y-41.9354 F200.00
G01 X11.5870 Y-41.9490 F200.00
G01 X11.5427 Y-41.9618 F200.00
G01 X11.4899 Y-41.9712 F200.00
G01 X11.4300 Y-41.9750 F200.00
G01 X11.3701 Y-41.9712 F200.00
G01 X11.3173 Y-41.9618 F200.00
G01 X11.2730 Y-41.9490 F200.00
G01 X11.2220 Y-41.9285 F200.00
G01 X11.1709 Y-41.9009 F200.00
G01 X11.1285 Y-41.8711 F200.00
G01 X11.0835 Y-41.8315 F200.00
G01 X11.0462 Y-41.7896 F200.00
G01 X11.0141 Y-41.7441 F200.00
G01 X10.9908 Y-41.7021 F200.00
G01 X10.9865 Y-41.6930 F200.00
G01 X10.9689 Y-41.6505 F200.00
G00 Z2.5400
G00 X11.7583 Y-40.9325
G01 F100.00
G01 Z-0.1000
G01 F200.00
G01 X11.7834 Y-40.9169 F200.00
G01 X11.8286 Y-40.8845 F200.00
G01 X11.8748 Y-40.8440 F200.00
G01 X11.8909 Y-40.8281 F200.00
G01 X12.4461 Y-40.8281 F200.00
G01 X12.4473 Y-40.8354 F200.00
G01 X12.4539 Y-40.8600 F200.00
G01 X12.4629 Y-40.8837 F200.00
G01 X12.4745 Y-40.9064 F200.00
G01 X12.4884 Y-40.9278 F200.00
G01 X12.5044 Y-40.9476 F200.00
G01 X12.5224 Y-40.9656 F200.00
G01 X12.5422 Y-40.9816 F200.00
G01 X12.5636 Y-40.9955 F200.00
G01 X12.5863 Y-41.0071 F200.00
G01 X12.6070 Y-41.0150 F200.00
G01 X12.5863 Y-41.0229 F200.00
G01 X12.5636 Y-41.0345 F200.00
G01 X12.5422 Y-41.0484 F200.00
G01 X12.5224 Y-41.0644 F200.00
G01 X12.5044 Y-41.0824 F200.00
G01 X12.4884 Y-41.1022 F200.00
G01 X12.4745 Y-41.1236 F200.00
G01 X12.4629 Y-41.1463 F200.00
G01 X12.4539 Y-41.1700 F200.00
G01 X12.4473 Y-41.1946 F200.00
G01 X12.4461 Y-41.2019 F200.00
G01 X12.0069 Y-41.2019 F200.00
G01 X11.9814 Y-41.1546 F200.00
G01 X11.9669 Y-41.1316 F200.00
G01 X11.9345 Y-41.0864 F200.00
G01 X11.8940 Y-41.0402 F200.00
G01 X11.8748 Y-41.0210 F200.00
G01 X11.8286 Y-40.9804 F200.00
G01 X11.7834 Y-40.9481 F200.00
G01 X11.7583 Y-40.9325 F200.00
G01 X11.7834 Y-40.9169 F200.00
G00 Z2.5400
G00 X12.6850 Y-42.4350
G01 F100.00
G01 Z-0.1000
G01 F200.00
G01 X13.9944 Y-42.4355 F200.00
G01 X14.0128 Y-42.4394 F200.00
G01 X14.0216 Y-42.4428 F200.00
G01 X14.0379 Y-42.4522 F200.00
G01 X14.0519 Y-42.4648 F200.00
G01 X14.0578 Y-42.4721 F200.00
G01 X14.0672 Y-42.4884 F200.00
G01 X14.0706 Y-42.4972 F200.00
G01 X14.0745 Y-42.5156 F200.00
G01 X14.0750 Y-42.6348 F200.00
G01 X14.4135 Y-42.6346 F200.00
G01 X14.4480 Y-42.6210 F200.00
G01 X14.5009 Y-42.6063 F200.00
G01 X14.5521 Y-42.5979 F200.00
G01 X14.6050 Y-42.5950 F200.00
G01 X14.6649 Y-42.5988 F200.00
G01 X14.7177 Y-42.6082 F200.00
G01 X14.7620 Y-42.6210 F200.00
G01 X14.8130 Y-42.6415 F200.00
G01 X14.8221 Y-42.6459 F200.00
G01 X14.8641 Y-42.6691 F200.00
G01 X14.9065 Y-42.6989 F200.00
G01 X14.9144 Y-42.7052 F200.00
G01 X14.9515 Y-42.7385 F200.00
G01 X14.9888 Y-42.7804 F200.00
G01 X15.0209 Y-42.8259 F200.00
G01 X15.0442 Y-42.8679 F200.00
G01 X15.0661 Y-42.9195 F200.00
G01 X15.0815 Y-42.9711 F200.00
G01 X15.0837 Y-42.9809 F200.00
G01 X15.0923 Y-43.0352 F200.00
G01 X15.0950 Y-43.0850 F200.00
G01 X15.0921 Y-43.1379 F200.00
G01 X15.0818 Y-43.1977 F200.00
G01 X15.0690 Y-43.2420 F200.00
G01 X15.0485 Y-43.2930 F200.00
G01 X15.0225 Y-43.3414 F200.00
G01 X15.0171 Y-43.3499 F200.00
G01 X14.9888 Y-43.3897 F200.00
G01 X14.9550 Y-43.4278 F200.00
G01 X14.9478 Y-43.4350 F200.00
G01 X14.9097 Y-43.4688 F200.00
G01 X14.8613 Y-43.5025 F200.00
G01 X14.8130 Y-43.5285 F200.00
G01 X14.7705 Y-43.5461 F200.00
G01 X14.7177 Y-43.5618 F200.00
G01 X14.6649 Y-43.5712 F200.00
G01 X14.6548 Y-43.5724 F200.00
G01 X14.6050 Y-43.5750 F200.00
G01 X14.5552 Y-43.5724 F200.00
G01 X14.5451 Y-43.5712 F200.00
G01 X14.4923 Y-43.5618 F200.00
G01 X14.4395 Y-43.5461 F200.00
G01 X14.3970 Y-43.5285 F200.00
G01 X14.3487 Y-43.5025 F200.00
G01 X14.3401 Y-43.4971 F200.00
G01 X14.3003 Y-43.4688 F200.00
G01 X14.2622 Y-43.4350 F200.00
G01 X14.2550 Y-43.4278 F200.00
G01 X14.2189 Y-43.3865 F200.00
G01 X14.1891 Y-43.3441 F200.00
G01 X14.1658 Y-43.3021 F200.00
G01 X14.1439 Y-43.2505 F200.00
G01 X14.1332 Y-43.2151 F200.00
G01 X14.0750 Y-43.2151 F200.00
G01 X14.0745 Y-43.3344 F200.00
G01 X14.0706 Y-43.3528 F200.00
G01 X14.0672 Y-43.3616 F200.00
G01 X14.0578 Y-43.3779 F200.00
G01 X14.0452 Y-43.3919 F200.00
G01 X14.0379 Y-43.3978 F200.00
G01 X14.0216 Y-43.4072 F200.00
G01 X14.0037 Y-43.4130 F200.00
G01 X13.9944 Y-43.4145 F200.00
G01 X12.6850 Y-43.4150 F200.00
G01 X12.6756 Y-43.4145 F200.00
G01 X12.6572 Y-43.4106 F200.00
G01 X12.6400 Y-43.4030 F200.00
G01 X12.6321 Y-43.3978 F200.00
G01 X12.6181 Y-43.3852 F200.00
G01 X12.6070 Y-43.3700 F200.00
G01 X12.6028 Y-43.3616 F200.00
G01 X12.5994 Y-43.3528 F200.00
G01 X12.5955 Y-43.3344 F200.00
G01 X12.5950 Y-42.5250 F200.00
G01 X12.5970 Y-42.5063 F200.00
G01 X12.6028 Y-42.4884 F200.00
G01 X12.6122 Y-42.4721 F200.00
G01 X12.6248 Y-42.4581 F200.00
G01 X12.6400 Y-42.4470 F200.00
G01 X12.6484 Y-42.4428 F200.00
G01 X12.6663 Y-42.4370 F200.00
G01 X12.6850 Y-42.4350 F200.00
G01 X13.9944 Y-42.4355 F200.00
G00 Z2.5400
G00 X15.3009 Y-46.4733
G01 F100.00
G01 Z-0.1000
G01 F200.00
G01 X15.2576 Y-46.3687 F200.00
G01 X15.2236 Y-46.2524 F200.00
G01 X15.2213 Y-46.2426 F200.00
G01 X15.2017 Y-46.1251 F200.00
G01 X15.1951 Y-46.0100 F200.00
G01 X15.1951 Y-46.0000 F200.00
G01 X15.2014 Y-45.8880 F200.00
G01 X15.2026 Y-45.8780 F200.00
G01 X15.2232 Y-45.7588 F200.00
G01 X15.2576 Y-45.6413 F200.00
G01 X15.3009 Y-45.5367 F200.00
G01 X15.3053 Y-45.5276 F200.00
G01 X15.3611 Y-45.4267 F200.00
G01 X15.4321 Y-45.3263 F200.00
G01 X15.5143 Y-45.2343 F200.00
G01 X15.6063 Y-45.1521 F200.00
G01 X15.7067 Y-45.0811 F200.00
G01 X15.8076 Y-45.0253 F200.00
G01 X15.8167 Y-45.0209 F200.00
G01 X15.9203 Y-44.9780 F200.00
G01 X15.9298 Y-44.9746 F200.00
G01 X16.0376 Y-44.9436 F200.00
G01 X16.0474 Y-44.9413 F200.00
G01 X16.1580 Y-44.9226 F200.00
G01 X16.2199 Y-44.9185 F200.00
G01 X16.2199 Y-44.2331 F200.00
G01 X16.1916 Y-44.2287 F200.00
G01 X16.1684 Y-44.2229 F200.00
G01 X16.1316 Y-44.2097 F200.00
G01 X16.1104 Y-44.1997 F200.00
G01 X16.0823 Y-44.1830 F200.00
G01 X16.0564 Y-44.1637 F200.00
G01 X16.0386 Y-44.1476 F200.00
G01 X16.0124 Y-44.1186 F200.00
G01 X15.9970 Y-44.0977 F200.00
G01 X15.9803 Y-44.0696 F200.00
G01 X15.9694 Y-44.0465 F200.00
G01 X15.9597 Y-44.0201 F200.00
G01 X15.9502 Y-43.9821 F200.00
G01 X15.9465 Y-43.9566 F200.00
G01 X15.9450 Y-43.9263 F200.00
G01 X15.9451 Y-43.4843 F200.00
G01 X15.9470 Y-43.4541 F200.00
G01 X15.9513 Y-43.4265 F200.00
G01 X15.9571 Y-43.4034 F200.00
G01 X15.9669 Y-43.3747 F200.00
G01 X15.9803 Y-43.3454 F200.00
G01 X15.9970 Y-43.3173 F200.00
G01 X16.0180 Y-43.2895 F200.00
G01 X16.0354 Y-43.2704 F200.00
G01 X16.0545 Y-43.2530 F200.00
G01 X16.0823 Y-43.2320 F200.00
G01 X16.1104 Y-43.2153 F200.00
G01 X16.1397 Y-43.2019 F200.00
G01 X16.1684 Y-43.1921 F200.00
G01 X16.1916 Y-43.1863 F200.00
G01 X16.2191 Y-43.1820 F200.00
G01 X16.2537 Y-43.1800 F200.00
G01 X16.7707 Y-43.1801 F200.00
G01 X16.8009 Y-43.1820 F200.00
G01 X16.8284 Y-43.1863 F200.00
G01 X16.8516 Y-43.1921 F200.00
G01 X16.8803 Y-43.2019 F200.00
G01 X16.9096 Y-43.2153 F200.00
G01 X16.9377 Y-43.2320 F200.00
G01 X16.9636 Y-43.2513 F200.00
G01 X16.9846 Y-43.2704 F200.00
G01 X17.0076 Y-43.2964 F200.00
G01 X17.0253 Y-43.3210 F200.00
G01 X17.0397 Y-43.3454 F200.00
G01 X17.0497 Y-43.3666 F200.00
G01 X17.0618 Y-43.3994 F200.00
G01 X17.0687 Y-43.4265 F200.00
G01 X17.0735 Y-43.4584 F200.00
G01 X17.0750 Y-43.4887 F200.00
G01 X17.0750 Y-43.9263 F200.00
G01 X17.0738 Y-43.9521 F200.00
G01 X17.0698 Y-43.9821 F200.00
G01 X17.0629 Y-44.0116 F200.00
G01 X17.0497 Y-44.0484 F200.00
G01 X17.0397 Y-44.0696 F200.00
G01 X17.0230 Y-44.0977 F200.00
G01 X17.0037 Y-44.1236 F200.00
G01 X16.9846 Y-44.1446 F200.00
G01 X16.9636 Y-44.1637 F200.00
G01 X16.9414 Y-44.1804 F200.00
G01 X16.9079 Y-44.2005 F200.00
G01 X16.8865 Y-44.2106 F200.00
G01 X16.8556 Y-44.2218 F200.00
G01 X16.8284 Y-44.2287 F200.00
G01 X16.8001 Y-44.2331 F200.00
G01 X16.8001 Y-45.0461 F200.00
G01 X16.8633 Y-45.0811 F200.00
G01 X16.9637 Y-45.1521 F200.00
G01 X17.0557 Y-45.2343 F200.00
G01 X17.1339 Y-45.3215 F200.00
G01 X17.1402 Y-45.3294 F200.00
G01 X17.2089 Y-45.4267 F200.00
G01 X17.2647 Y-45.5276 F200.00
G01 X17.2691 Y-45.5367 F200.00
G01 X17.3120 Y-45.6403 F200.00
G01 X17.3154 Y-45.6498 F200.00
G01 X17.3468 Y-45.7588 F200.00
G01 X17.3683 Y-45.8849 F200.00
G01 X17.3750 Y-46.0050 F200.00
G01 X17.3686 Y-46.1220 F200.00
G01 X17.3674 Y-46.1320 F200.00
G01 X17.3468 Y-46.2512 F200.00
G01 X17.3154 Y-46.3602 F200.00
G01 X17.3120 Y-46.3697 F200.00
G01 X17.2691 Y-46.4733 F200.00
G01 X17.2647 Y-46.4824 F200.00
G01 X17.2089 Y-46.5833 F200.00
G01 X17.1402 Y-46.6806 F200.00
G01 X17.1339 Y-46.6885 F200.00
G01 X17.0592 Y-46.7721 F200.00
G01 X17.0521 Y-46.7792 F200.00
G01 X16.9637 Y-46.8579 F200.00
G01 X16.8633 Y-46.9289 F200.00
G01 X16.7624 Y-46.9847 F200.00
G01 X16.7533 Y-46.9891 F200.00
G01 X16.6487 Y-47.0324 F200.00
G01 X16.5324 Y-47.0664 F200.00
G01 X16.5226 Y-47.0687 F200.00
G01 X16.4051 Y-47.0883 F200.00
G01 X16.2850 Y-47.0950 F200.00
G01 X16.1649 Y-47.0883 F200.00
G01 X16.0474 Y-47.0687 F200.00
G01 X16.0376 Y-47.0664 F200.00
G01 X15.9213 Y-47.0324 F200.00
G01 X15.8167 Y-46.9891 F200.00
G01 X15.8076 Y-46.9847 F200.00
G01 X15.7067 Y-46.9289 F200.00
G01 X15.6094 Y-46.8602 F200.00
G01 X15.6015 Y-46.8539 F200.00
G01 X15.5143 Y-46.7757 F200.00
G01 X15.4361 Y-46.6885 F200.00
G01 X15.4298 Y-46.6806 F200.00
G01 X15.3611 Y-46.5833 F200.00
G01 X15.3053 Y-46.4824 F200.00
G01 X15.3009 Y-46.4733 F200.00
G01 X15.2576 Y-46.3687 F200.00
G00 Z2.5400
G00 X17.8409 Y-46.4733
G01 F100.00
G01 Z-0.1000
G01 F200.00
G01 X17.7976 Y-46.3687 F200.00
G01 X17.7636 Y-46.2524 F200.00
G01 X17.7613 Y-46.2426 F200.00
G01 X17.7417 Y-46.1251 F200.00
G01 X17.7351 Y-46.0100 F200.00
G01 X17.7351 Y-46.0000 F200.00
G01 X17.7414 Y-45.8880 F200.00
G01 X17.7426 Y-45.8780 F200.00
G01 X17.7632 Y-45.7588 F200.00
G01 X17.7976 Y-45.6413 F200.00
G01 X17.8409 Y-45.5367 F200.00
G01 X17.8453 Y-45.5276 F200.00
G01 X17.9011 Y-45.4267 F200.00
G01 X17.9721 Y-45.3263 F200.00
G01 X18.0543 Y-45.2343 F200.00
G01 X18.1463 Y-45.1521 F200.00
G01 X18.2467 Y-45.0811 F200.00
G01 X18.3476 Y-45.0253 F200.00
G01 X18.3567 Y-45.0209 F200.00
G01 X18.4603 Y-44.9780 F200.00
G01 X18.4698 Y-44.9746 F200.00
G01 X18.5776 Y-44.9436 F200.00
G01 X18.5874 Y-44.9413 F200.00
G01 X18.6980 Y-44.9226 F200.00
G01 X18.7599 Y-44.9185 F200.00
G01 X18.7599 Y-44.2331 F200.00
G01 X18.7316 Y-44.2287 F200.00
G01 X18.7084 Y-44.2229 F200.00
G01 X18.6716 Y-44.2097 F200.00
G01 X18.6504 Y-44.1997 F200.00
G01 X18.6223 Y-44.1830 F200.00
G01 X18.5964 Y-44.1637 F200.00
G01 X18.5786 Y-44.1476 F200.00
