(G-CODE GENERATED BY FLATCAM v8.913 - www.flatcam.org - Version Date: 2019/04/13)

(Name: 7_segment_display-Edge.Cuts.gbr_cutout_cnc)
(Type: G-code from Geometry)
(Units: MM)

(Created on Sunday, 12 May 2019 at 21:37)

(TOOL DIAMETER: 0.8 mm)

(Feedrate: 50.0 mm/min)
(Feedrate_Z: 50.0 mm/min)
(Feedrate rapids 76.2 mm/min)

(Z_Cut: -2.0 mm)
(Z_Move: 2.54 mm)
(Z Toolchange: 20.0 mm)
(X,Y Toolchange: 0.0000, 0.0000 mm)
(Z Start: None mm)
(Z End: 20.0 mm)
(Steps per circle: 64)
(Postprocessor Geometry: grbl_11)

(X range:   -0.4750 ...   33.4950  mm)
(Y range:  -20.7950 ...    0.4750  mm)

(Spindle Speed: 20000 RPM)


G21
G90
G94
G17

G01 F50.00
G00 Z2.5400

M03 S20000
G4 P1.0
G00 X-0.4750 Y-4.5425
G01 F50.00
G01 Z-2.0000
G01 F50.00
G01 X-0.4750 Y0.0750 F50.00
G01 X-0.4731 Y0.1142 F50.00
G01 X-0.4674 Y0.1531 F50.00
G01 X-0.4578 Y0.1912 F50.00
G01 X-0.4446 Y0.2281 F50.00
G01 X-0.4278 Y0.2636 F50.00
G01 X-0.4076 Y0.2973 F50.00
G01 X-0.3842 Y0.3288 F50.00
G01 X-0.3579 Y0.3579 F50.00
G01 X-0.3288 Y0.3842 F50.00
G01 X-0.2973 Y0.4076 F50.00
G01 X-0.2636 Y0.4278 F50.00
G01 X-0.2281 Y0.4446 F50.00
G01 X-0.1912 Y0.4578 F50.00
G01 X-0.1531 Y0.4674 F50.00
G01 X-0.1142 Y0.4731 F50.00
G01 X-0.0750 Y0.4750 F50.00
G01 X7.7175 Y0.4750 F50.00
G00 Z2.5400
G00 X8.7175 Y0.4750
G01 F50.00
G01 Z-2.0000
G01 F50.00
G01 X24.3025 Y0.4750 F50.00
G00 Z2.5400
G00 X25.3025 Y0.4750
G01 F50.00
G01 Z-2.0000
G01 F50.00
G01 X33.0950 Y0.4750 F50.00
G01 X33.1342 Y0.4731 F50.00
G01 X33.1731 Y0.4674 F50.00
G01 X33.2112 Y0.4578 F50.00
G01 X33.2481 Y0.4446 F50.00
G01 X33.2836 Y0.4278 F50.00
G01 X33.3173 Y0.4076 F50.00
G01 X33.3488 Y0.3842 F50.00
G01 X33.3779 Y0.3579 F50.00
G01 X33.4042 Y0.3288 F50.00
G01 X33.4276 Y0.2973 F50.00
G01 X33.4478 Y0.2636 F50.00
G01 X33.4646 Y0.2281 F50.00
G01 X33.4778 Y0.1912 F50.00
G01 X33.4874 Y0.1531 F50.00
G01 X33.4931 Y0.1142 F50.00
G01 X33.4950 Y0.0750 F50.00
G01 X33.4950 Y-4.5425 F50.00
G00 Z2.5400
G00 X33.4950 Y-5.5425
G01 F50.00
G01 Z-2.0000
G01 F50.00
G01 X33.4950 Y-14.7775 F50.00
G00 Z2.5400
G00 X33.4950 Y-15.7775
G01 F50.00
G01 Z-2.0000
G01 F50.00
G01 X33.4950 Y-20.3950 F50.00
G01 X33.4931 Y-20.4342 F50.00
G01 X33.4874 Y-20.4731 F50.00
G01 X33.4778 Y-20.5112 F50.00
G01 X33.4646 Y-20.5481 F50.00
G01 X33.4478 Y-20.5836 F50.00
G01 X33.4276 Y-20.6173 F50.00
G01 X33.4042 Y-20.6488 F50.00
G01 X33.3779 Y-20.6779 F50.00
G01 X33.3488 Y-20.7042 F50.00
G01 X33.3173 Y-20.7276 F50.00
G01 X33.2836 Y-20.7478 F50.00
G01 X33.2481 Y-20.7646 F50.00
G01 X33.2112 Y-20.7778 F50.00
G01 X33.1731 Y-20.7874 F50.00
G01 X33.1342 Y-20.7931 F50.00
G01 X33.0950 Y-20.7950 F50.00
G00 Z2.5400
G00 X33.0950 Y-20.7950
G01 F50.00
G01 Z-2.0000
G01 F50.00
G01 X25.3025 Y-20.7950 F50.00
G00 Z2.5400
G00 X24.3025 Y-20.7950
G01 F50.00
G01 Z-2.0000
G01 F50.00
G01 X8.7175 Y-20.7950 F50.00
G00 Z2.5400
G00 X7.7175 Y-20.7950
G01 F50.00
G01 Z-2.0000
G01 F50.00
G01 X-0.0750 Y-20.7950 F50.00
G01 X-0.1142 Y-20.7931 F50.00
G01 X-0.1531 Y-20.7874 F50.00
G01 X-0.1912 Y-20.7778 F50.00
G01 X-0.2281 Y-20.7646 F50.00
G01 X-0.2636 Y-20.7478 F50.00
G01 X-0.2973 Y-20.7276 F50.00
G01 X-0.3288 Y-20.7042 F50.00
G01 X-0.3579 Y-20.6779 F50.00
G01 X-0.3842 Y-20.6488 F50.00
G01 X-0.4076 Y-20.6173 F50.00
G01 X-0.4278 Y-20.5836 F50.00
G01 X-0.4446 Y-20.5481 F50.00
G01 X-0.4578 Y-20.5112 F50.00
G01 X-0.4674 Y-20.4731 F50.00
G01 X-0.4731 Y-20.4342 F50.00
G01 X-0.4750 Y-20.3950 F50.00
G01 X-0.4750 Y-15.7775 F50.00
G00 Z2.5400
G00 X-0.4750 Y-14.7775
G01 F50.00
G01 Z-2.0000
G01 F50.00
G01 X-0.4750 Y-5.5425 F50.00
G00 Z2.5400
M05
G00 Z2.5400
G00 Z20.00
G00 X0.0 Y0.0

M02