(G-CODE GENERATED BY FLATCAM v8.913 - www.flatcam.org - Version Date: 2019/04/13)

(Name: 7_segment_display-F.Cu.gbr_1_iso_cnc)
(Type: G-code from Geometry)
(Units: MM)

(Created on Sunday, 12 May 2019 at 21:10)

(TOOL DIAMETER: 0.18 mm)

(Feedrate: 200.0 mm/min)
(Feedrate_Z: 100.0 mm/min)
(Feedrate rapids 76.2 mm/min)

(Z_Cut: -0.1 mm)
(Z_Move: 2.54 mm)
(Z Toolchange: 20.0 mm)
(X,Y Toolchange: 0.0000, 0.0000 mm)
(Z Start: None mm)
(Z End: 20.0 mm)
(Steps per circle: 64)
(Postprocessor Geometry: grbl_11)

(X range:    2.7170 ...   31.5730  mm)
(Y range:  -18.4780 ...   -0.7520  mm)

(Spindle Speed: 20000 RPM)


G21
G90
G94
G17

G01 F200.00
G00 Z2.5400

M03 S20000
G4 P1.0
G00 X3.8836 Y-3.6589
G01 F100.00
G01 Z-0.1000
G01 F200.00
G01 X4.0067 Y-3.7819 F200.00
G01 X4.0291 Y-3.8018 F200.00
G01 X4.0557 Y-3.8206 F200.00
G01 X4.0841 Y-3.8364 F200.00
G01 X4.1190 Y-3.8504 F200.00
G01 X4.1454 Y-3.8578 F200.00
G01 X4.1725 Y-3.8626 F200.00
G01 X4.2100 Y-3.8651 F200.00
G01 X29.4475 Y-3.8651 F200.00
G01 X29.4825 Y-3.8626 F200.00
G01 X29.5096 Y-3.8578 F200.00
G01 X29.5360 Y-3.8504 F200.00
G01 X29.5709 Y-3.8364 F200.00
G01 X29.5993 Y-3.8206 F200.00
G01 X29.6259 Y-3.8018 F200.00
G01 X29.6483 Y-3.7819 F200.00
G01 X29.7714 Y-3.6589 F200.00
G01 X29.7952 Y-3.6623 F200.00
G01 X29.8500 Y-3.6649 F200.00
G01 X29.8999 Y-3.6619 F200.00
G01 X29.9589 Y-3.6515 F200.00
G01 X30.0068 Y-3.6375 F200.00
G01 X30.0576 Y-3.6165 F200.00
G01 X30.1057 Y-3.5899 F200.00
G01 X30.1505 Y-3.5581 F200.00
G01 X30.1915 Y-3.5215 F200.00
G01 X30.2281 Y-3.4805 F200.00
G01 X30.2599 Y-3.4357 F200.00
G01 X30.2865 Y-3.3876 F200.00
G01 X30.3075 Y-3.3368 F200.00
G01 X30.3227 Y-3.2840 F200.00
G01 X30.3319 Y-3.2299 F200.00
G01 X30.3350 Y-3.1750 F200.00
G01 X30.3319 Y-3.1201 F200.00
G01 X30.3237 Y-3.0709 F200.00
G01 X30.3215 Y-3.0611 F200.00
G01 X30.3057 Y-3.0084 F200.00
G01 X30.2865 Y-2.9624 F200.00
G01 X30.2599 Y-2.9143 F200.00
G01 X30.2281 Y-2.8695 F200.00
G01 X30.1915 Y-2.8285 F200.00
G01 X30.1505 Y-2.7919 F200.00
G01 X30.1099 Y-2.7629 F200.00
G01 X30.1013 Y-2.7575 F200.00
G01 X30.0530 Y-2.7315 F200.00
G01 X30.0068 Y-2.7125 F200.00
G01 X29.9540 Y-2.6973 F200.00
G01 X29.8999 Y-2.6881 F200.00
G01 X29.8450 Y-2.6850 F200.00
G01 X29.7901 Y-2.6881 F200.00
G01 X29.7360 Y-2.6973 F200.00
G01 X29.6832 Y-2.7125 F200.00
G01 X29.6324 Y-2.7335 F200.00
G01 X29.5843 Y-2.7601 F200.00
G01 X29.5395 Y-2.7919 F200.00
G01 X29.4985 Y-2.8285 F200.00
G01 X29.4652 Y-2.8656 F200.00
G01 X29.4589 Y-2.8735 F200.00
G01 X29.4275 Y-2.9187 F200.00
G01 X29.4035 Y-2.9624 F200.00
G01 X29.3825 Y-3.0132 F200.00
G01 X29.3673 Y-3.0660 F200.00
G01 X29.3581 Y-3.1201 F200.00
G01 X29.3550 Y-3.1750 F200.00
G01 X29.3577 Y-3.2248 F200.00
G01 X29.3611 Y-3.2486 F200.00
G01 X29.3248 Y-3.2849 F200.00
G01 X4.3302 Y-3.2849 F200.00
G01 X4.2939 Y-3.2486 F200.00
G01 X4.2973 Y-3.2248 F200.00
G01 X4.3000 Y-3.1750 F200.00
G01 X4.2969 Y-3.1201 F200.00
G01 X4.2877 Y-3.0660 F200.00
G01 X4.2725 Y-3.0132 F200.00
G01 X4.2515 Y-2.9624 F200.00
G01 X4.2249 Y-2.9143 F200.00
G01 X4.1931 Y-2.8695 F200.00
G01 X4.1565 Y-2.8285 F200.00
G01 X4.1155 Y-2.7919 F200.00
G01 X4.0707 Y-2.7601 F200.00
G01 X4.0226 Y-2.7335 F200.00
G01 X3.9718 Y-2.7125 F200.00
G01 X3.9190 Y-2.6973 F200.00
G01 X3.8649 Y-2.6881 F200.00
G01 X3.8100 Y-2.6850 F200.00
G01 X3.7551 Y-2.6881 F200.00
G01 X3.7010 Y-2.6973 F200.00
G01 X3.6482 Y-2.7125 F200.00
G01 X3.5974 Y-2.7335 F200.00
G01 X3.5537 Y-2.7575 F200.00
G01 X3.5085 Y-2.7889 F200.00
G01 X3.5006 Y-2.7952 F200.00
G01 X3.4635 Y-2.8285 F200.00
G01 X3.4269 Y-2.8695 F200.00
G01 X3.3951 Y-2.9143 F200.00
G01 X3.3685 Y-2.9624 F200.00
G01 X3.3475 Y-3.0132 F200.00
G01 X3.3335 Y-3.0611 F200.00
G01 X3.3313 Y-3.0709 F200.00
G01 X3.3227 Y-3.1252 F200.00
G01 X3.3200 Y-3.1750 F200.00
G01 X3.3231 Y-3.2299 F200.00
G01 X3.3323 Y-3.2840 F200.00
G01 X3.3475 Y-3.3368 F200.00
G01 X3.3685 Y-3.3876 F200.00
G01 X3.3925 Y-3.4313 F200.00
G01 X3.4239 Y-3.4765 F200.00
G01 X3.4302 Y-3.4844 F200.00
G01 X3.4635 Y-3.5215 F200.00
G01 X3.5045 Y-3.5581 F200.00
G01 X3.5493 Y-3.5899 F200.00
G01 X3.5974 Y-3.6165 F200.00
G01 X3.6482 Y-3.6375 F200.00
G01 X3.6961 Y-3.6515 F200.00
G01 X3.7551 Y-3.6619 F200.00
G01 X3.8050 Y-3.6649 F200.00
G01 X3.8598 Y-3.6623 F200.00
G01 X3.8836 Y-3.6589 F200.00
G01 X4.0067 Y-3.7819 F200.00
G00 Z2.5400
G00 X3.8259 Y-3.8175
G01 F100.00
G01 Z-0.1000
G01 F200.00
G01 X3.9016 Y-3.8931 F200.00
G01 X3.9337 Y-3.9214 F200.00
G01 X3.9743 Y-3.9502 F200.00
G01 X4.0056 Y-3.9680 F200.00
G01 X4.0302 Y-3.9798 F200.00
G01 X4.0637 Y-3.9932 F200.00
G01 X4.1114 Y-4.0070 F200.00
G01 X4.1604 Y-4.0153 F200.00
G01 X4.2100 Y-4.0181 F200.00
G01 X29.4518 Y-4.0180 F200.00
G01 X29.4946 Y-4.0153 F200.00
G01 X29.5436 Y-4.0070 F200.00
G01 X29.5913 Y-3.9932 F200.00
G01 X29.6248 Y-3.9798 F200.00
G01 X29.6494 Y-3.9680 F200.00
G01 X29.6807 Y-3.9502 F200.00
G01 X29.7213 Y-3.9214 F200.00
G01 X29.7534 Y-3.8931 F200.00
G01 X29.8291 Y-3.8175 F200.00
G01 X29.8586 Y-3.8176 F200.00
G01 X29.9034 Y-3.8151 F200.00
G01 X29.9305 Y-3.8121 F200.00
G01 X29.9881 Y-3.8019 F200.00
G01 X30.0574 Y-3.7819 F200.00
G01 X30.1240 Y-3.7543 F200.00
G01 X30.1754 Y-3.7264 F200.00
G01 X30.1984 Y-3.7119 F200.00
G01 X30.2459 Y-3.6777 F200.00
G01 X30.2997 Y-3.6297 F200.00
G01 X30.3477 Y-3.5759 F200.00
G01 X30.3894 Y-3.5171 F200.00
G01 X30.4243 Y-3.4540 F200.00
G01 X30.4519 Y-3.3874 F200.00
G01 X30.4719 Y-3.3181 F200.00
G01 X30.4840 Y-3.2470 F200.00
G01 X30.4880 Y-3.1750 F200.00
G01 X30.4840 Y-3.1030 F200.00
G01 X30.4745 Y-3.0453 F200.00
G01 X30.4685 Y-3.0187 F200.00
G01 X30.4561 Y-2.9756 F200.00
G01 X30.4471 Y-2.9499 F200.00
G01 X30.4243 Y-2.8960 F200.00
G01 X30.3894 Y-2.8329 F200.00
G01 X30.3477 Y-2.7741 F200.00
G01 X30.2997 Y-2.7203 F200.00
G01 X30.2459 Y-2.6723 F200.00
G01 X30.1984 Y-2.6381 F200.00
G01 X30.1754 Y-2.6236 F200.00
G01 X30.1361 Y-2.6019 F200.00
G01 X30.1115 Y-2.5901 F200.00
G01 X30.0574 Y-2.5681 F200.00
G01 X29.9881 Y-2.5481 F200.00
G01 X29.9170 Y-2.5360 F200.00
G01 X29.8450 Y-2.5320 F200.00
G01 X29.7730 Y-2.5360 F200.00
G01 X29.7153 Y-2.5455 F200.00
G01 X29.6887 Y-2.5515 F200.00
G01 X29.6456 Y-2.5639 F200.00
G01 X29.6199 Y-2.5729 F200.00
G01 X29.5660 Y-2.5957 F200.00
G01 X29.5029 Y-2.6306 F200.00
G01 X29.4441 Y-2.6723 F200.00
G01 X29.4002 Y-2.7110 F200.00
G01 X29.3810 Y-2.7302 F200.00
G01 X29.3511 Y-2.7637 F200.00
G01 X29.3341 Y-2.7850 F200.00
G01 X29.3006 Y-2.8329 F200.00
G01 X29.2657 Y-2.8960 F200.00
G01 X29.2381 Y-2.9626 F200.00
G01 X29.2215 Y-3.0187 F200.00
G01 X29.2155 Y-3.0453 F200.00
G01 X29.2079 Y-3.0895 F200.00
G01 X29.2060 Y-3.1030 F200.00
G01 X29.2040 Y-3.1319 F200.00
G01 X26.9443 Y-3.1319 F200.00
G01 X26.9719 Y-3.1205 F200.00
G01 X26.9964 Y-3.1086 F200.00
G01 X27.0946 Y-3.0544 F200.00
G01 X27.1177 Y-3.0399 F200.00
G01 X27.2200 Y-2.9668 F200.00
G01 X27.3239 Y-2.8739 F200.00
G01 X27.4080 Y-2.7804 F200.00
G01 X27.4250 Y-2.7591 F200.00
G01 X27.4975 Y-2.6563 F200.00
G01 X27.5649 Y-2.5343 F200.00
G01 X27.6134 Y-2.4183 F200.00
G01 X27.6224 Y-2.3926 F200.00
G01 X27.6568 Y-2.2716 F200.00
G01 X27.6802 Y-2.1342 F200.00
G01 X27.6876 Y-2.0086 F200.00
G01 X27.6876 Y-1.9814 F200.00
G01 X27.6802 Y-1.8558 F200.00
G01 X27.6568 Y-1.7184 F200.00
G01 X27.6224 Y-1.5975 F200.00
G01 X27.6134 Y-1.5717 F200.00
G01 X27.5649 Y-1.4557 F200.00
G01 X27.4975 Y-1.3337 F200.00
G01 X27.4250 Y-1.2309 F200.00
G01 X27.4080 Y-1.2096 F200.00
G01 X27.3239 Y-1.1161 F200.00
G01 X27.2200 Y-1.0232 F200.00
G01 X27.1177 Y-0.9501 F200.00
G01 X27.0946 Y-0.9356 F200.00
G01 X26.9843 Y-0.8751 F200.00
G01 X26.8555 Y-0.8218 F200.00
G01 X26.7348 Y-0.7866 F200.00
G01 X26.7082 Y-0.7805 F200.00
G01 X26.5842 Y-0.7598 F200.00
G01 X26.4450 Y-0.7520 F200.00
G01 X26.3058 Y-0.7598 F200.00
G01 X26.1818 Y-0.7805 F200.00
G01 X26.1552 Y-0.7866 F200.00
G01 X26.0345 Y-0.8218 F200.00
G01 X25.9057 Y-0.8751 F200.00
G01 X25.7954 Y-0.9356 F200.00
G01 X25.7724 Y-0.9501 F200.00
G01 X25.6700 Y-1.0232 F200.00
G01 X25.5661 Y-1.1161 F200.00
G01 X25.4820 Y-1.2096 F200.00
G01 X25.4650 Y-1.2309 F200.00
G01 X25.3925 Y-1.3337 F200.00
G01 X25.3251 Y-1.4557 F200.00
G01 X25.2766 Y-1.5717 F200.00
G01 X25.2676 Y-1.5975 F200.00
G01 X25.2332 Y-1.7184 F200.00
G01 X25.2098 Y-1.8558 F200.00
G01 X25.2024 Y-1.9814 F200.00
G01 X25.2024 Y-2.0086 F200.00
G01 X25.2098 Y-2.1342 F200.00
G01 X25.2332 Y-2.2716 F200.00
G01 X25.2676 Y-2.3926 F200.00
G01 X25.2766 Y-2.4183 F200.00
G01 X25.3251 Y-2.5343 F200.00
G01 X25.3925 Y-2.6563 F200.00
G01 X25.4650 Y-2.7591 F200.00
G01 X25.4820 Y-2.7804 F200.00
G01 X25.5661 Y-2.8739 F200.00
G01 X25.6700 Y-2.9668 F200.00
G01 X25.7724 Y-3.0399 F200.00
G01 X25.7954 Y-3.0544 F200.00
G01 X25.8936 Y-3.1086 F200.00
G01 X25.9181 Y-3.1205 F200.00
G01 X25.9457 Y-3.1319 F200.00
G01 X24.4043 Y-3.1319 F200.00
G01 X24.4319 Y-3.1205 F200.00
G01 X24.4564 Y-3.1086 F200.00
G01 X24.5546 Y-3.0544 F200.00
G01 X24.5777 Y-3.0399 F200.00
G01 X24.6800 Y-2.9668 F200.00
G01 X24.7839 Y-2.8739 F200.00
G01 X24.8680 Y-2.7804 F200.00
G01 X24.8850 Y-2.7591 F200.00
G01 X24.9575 Y-2.6563 F200.00
G01 X25.0249 Y-2.5343 F200.00
G01 X25.0734 Y-2.4183 F200.00
G01 X25.0824 Y-2.3926 F200.00
G01 X25.1168 Y-2.2716 F200.00
G01 X25.1402 Y-2.1342 F200.00
G01 X25.1476 Y-2.0086 F200.00
G01 X25.1476 Y-1.9814 F200.00
G01 X25.1402 Y-1.8558 F200.00
G01 X25.1168 Y-1.7184 F200.00
G01 X25.0824 Y-1.5975 F200.00
G01 X25.0734 Y-1.5717 F200.00
G01 X25.0249 Y-1.4557 F200.00
G01 X24.9575 Y-1.3337 F200.00
G01 X24.8850 Y-1.2309 F200.00
G01 X24.8680 Y-1.2096 F200.00
G01 X24.7839 Y-1.1161 F200.00
G01 X24.6800 Y-1.0232 F200.00
G01 X24.5777 Y-0.9501 F200.00
G01 X24.5546 Y-0.9356 F200.00
G01 X24.4443 Y-0.8751 F200.00
G01 X24.3155 Y-0.8218 F200.00
G01 X24.1948 Y-0.7866 F200.00
G01 X24.1682 Y-0.7805 F200.00
G01 X24.0442 Y-0.7598 F200.00
G01 X23.9050 Y-0.7520 F200.00
G01 X23.7658 Y-0.7598 F200.00
G01 X23.6418 Y-0.7805 F200.00
G01 X23.6152 Y-0.7866 F200.00
G01 X23.4945 Y-0.8218 F200.00
G01 X23.3657 Y-0.8751 F200.00
G01 X23.2554 Y-0.9356 F200.00
G01 X23.2324 Y-0.9501 F200.00
G01 X23.1300 Y-1.0232 F200.00
G01 X23.0261 Y-1.1161 F200.00
G01 X22.9420 Y-1.2096 F200.00
G01 X22.9250 Y-1.2309 F200.00
G01 X22.8525 Y-1.3337 F200.00
G01 X22.7851 Y-1.4557 F200.00
G01 X22.7366 Y-1.5717 F200.00
G01 X22.7276 Y-1.5975 F200.00
G01 X22.6932 Y-1.7184 F200.00
G01 X22.6698 Y-1.8558 F200.00
G01 X22.6624 Y-1.9814 F200.00
G01 X22.6624 Y-2.0086 F200.00
G01 X22.6698 Y-2.1342 F200.00
G01 X22.6932 Y-2.2716 F200.00
G01 X22.7276 Y-2.3926 F200.00
G01 X22.7366 Y-2.4183 F200.00
G01 X22.7851 Y-2.5343 F200.00
G01 X22.8525 Y-2.6563 F200.00
G01 X22.9250 Y-2.7591 F200.00
G01 X22.9420 Y-2.7804 F200.00
G01 X23.0261 Y-2.8739 F200.00
G01 X23.1300 Y-2.9668 F200.00
G01 X23.2324 Y-3.0399 F200.00
G01 X23.2554 Y-3.0544 F200.00
G01 X23.3536 Y-3.1086 F200.00
G01 X23.3781 Y-3.1205 F200.00
G01 X23.4057 Y-3.1319 F200.00
G01 X21.8643 Y-3.1319 F200.00
G01 X21.8919 Y-3.1205 F200.00
G01 X21.9164 Y-3.1086 F200.00
G01 X22.0146 Y-3.0544 F200.00
G01 X22.0377 Y-3.0399 F200.00
G01 X22.1400 Y-2.9668 F200.00
G01 X22.2439 Y-2.8739 F200.00
G01 X22.3280 Y-2.7804 F200.00
G01 X22.3450 Y-2.7591 F200.00
G01 X22.4175 Y-2.6563 F200.00
G01 X22.4849 Y-2.5343 F200.00
G01 X22.5334 Y-2.4183 F200.00
G01 X22.5424 Y-2.3926 F200.00
G01 X22.5768 Y-2.2716 F200.00
G01 X22.6002 Y-2.1342 F200.00
G01 X22.6076 Y-2.0086 F200.00
G01 X22.6076 Y-1.9814 F200.00
G01 X22.6002 Y-1.8558 F200.00
G01 X22.5768 Y-1.7184 F200.00
G01 X22.5424 Y-1.5975 F200.00
G01 X22.5334 Y-1.5717 F200.00
G01 X22.4849 Y-1.4557 F200.00
G01 X22.4175 Y-1.3337 F200.00
G01 X22.3450 Y-1.2309 F200.00
G01 X22.3280 Y-1.2096 F200.00
G01 X22.2439 Y-1.1161 F200.00
G01 X22.1400 Y-1.0232 F200.00
G01 X22.0377 Y-0.9501 F200.00
G01 X22.0146 Y-0.9356 F200.00
G01 X21.9043 Y-0.8751 F200.00
G01 X21.7755 Y-0.8218 F200.00
G01 X21.6548 Y-0.7866 F200.00
G01 X21.6282 Y-0.7805 F200.00
G01 X21.5042 Y-0.7598 F200.00
G01 X21.3650 Y-0.7520 F200.00
G01 X21.2258 Y-0.7598 F200.00
G01 X21.1018 Y-0.7805 F200.00
G01 X21.0752 Y-0.7866 F200.00
G01 X20.9545 Y-0.8218 F200.00
G01 X20.8257 Y-0.8751 F200.00
G01 X20.7154 Y-0.9356 F200.00
G01 X20.6924 Y-0.9501 F200.00
G01 X20.5900 Y-1.0232 F200.00
G01 X20.4861 Y-1.1161 F200.00
G01 X20.4020 Y-1.2096 F200.00
G01 X20.3850 Y-1.2309 F200.00
G01 X20.3125 Y-1.3337 F200.00
G01 X20.2451 Y-1.4557 F200.00
G01 X20.1966 Y-1.5717 F200.00
G01 X20.1876 Y-1.5975 F200.00
G01 X20.1532 Y-1.7184 F200.00
G01 X20.1298 Y-1.8558 F200.00
G01 X20.1224 Y-1.9814 F200.00
G01 X20.1224 Y-2.0086 F200.00
G01 X20.1298 Y-2.1342 F200.00
G01 X20.1532 Y-2.2716 F200.00
G01 X20.1876 Y-2.3926 F200.00
G01 X20.1966 Y-2.4183 F200.00
G01 X20.2451 Y-2.5343 F200.00
G01 X20.3125 Y-2.6563 F200.00
G01 X20.3850 Y-2.7591 F200.00
G01 X20.4020 Y-2.7804 F200.00
G01 X20.4861 Y-2.8739 F200.00
G01 X20.5900 Y-2.9668 F200.00
G01 X20.6924 Y-3.0399 F200.00
G01 X20.7154 Y-3.0544 F200.00
G01 X20.8136 Y-3.1086 F200.00
G01 X20.8381 Y-3.1205 F200.00
G01 X20.8657 Y-3.1319 F200.00
G01 X19.3243 Y-3.1319 F200.00
G01 X19.3519 Y-3.1205 F200.00
G01 X19.3764 Y-3.1086 F200.00
G01 X19.4746 Y-3.0544 F200.00
G01 X19.4977 Y-3.0399 F200.00
G01 X19.6000 Y-2.9668 F200.00
G01 X19.7039 Y-2.8739 F200.00
G01 X19.7880 Y-2.7804 F200.00
G01 X19.8050 Y-2.7591 F200.00
G01 X19.8775 Y-2.6563 F200.00
G01 X19.9449 Y-2.5343 F200.00
G01 X19.9934 Y-2.4183 F200.00
G01 X20.0024 Y-2.3926 F200.00
G01 X20.0368 Y-2.2716 F200.00
G01 X20.0602 Y-2.1342 F200.00
G01 X20.0676 Y-2.0086 F200.00
G01 X20.0676 Y-1.9814 F200.00
G01 X20.0602 Y-1.8558 F200.00
G01 X20.0368 Y-1.7184 F200.00
G01 X20.0024 Y-1.5975 F200.00
G01 X19.9934 Y-1.5717 F200.00
G01 X19.9449 Y-1.4557 F200.00
G01 X19.8775 Y-1.3337 F200.00
G01 X19.8050 Y-1.2309 F200.00
G01 X19.7880 Y-1.2096 F200.00
G01 X19.7039 Y-1.1161 F200.00
G01 X19.6000 Y-1.0232 F200.00
G01 X19.4977 Y-0.9501 F200.00
G01 X19.4746 Y-0.9356 F200.00
G01 X19.3643 Y-0.8751 F200.00
G01 X19.2355 Y-0.8218 F200.00
G01 X19.1148 Y-0.7866 F200.00
G01 X19.0882 Y-0.7805 F200.00
G01 X18.9642 Y-0.7598 F200.00
G01 X18.8250 Y-0.7520 F200.00
G01 X18.6858 Y-0.7598 F200.00
G01 X18.5618 Y-0.7805 F200.00
G01 X18.5352 Y-0.7866 F200.00
G01 X18.4145 Y-0.8218 F200.00
G01 X18.2857 Y-0.8751 F200.00
G01 X18.1754 Y-0.9356 F200.00
G01 X18.1524 Y-0.9501 F200.00
G01 X18.0500 Y-1.0232 F200.00
G01 X17.9461 Y-1.1161 F200.00
G01 X17.8620 Y-1.2096 F200.00
G01 X17.8450 Y-1.2309 F200.00
G01 X17.7725 Y-1.3337 F200.00
G01 X17.7051 Y-1.4557 F200.00
G01 X17.6566 Y-1.5717 F200.00
G01 X17.6476 Y-1.5975 F200.00
G01 X17.6132 Y-1.7184 F200.00
G01 X17.5898 Y-1.8558 F200.00
G01 X17.5824 Y-1.9814 F200.00
G01 X17.5824 Y-2.0086 F200.00
G01 X17.5898 Y-2.1342 F200.00
G01 X17.6132 Y-2.2716 F200.00
G01 X17.6476 Y-2.3926 F200.00
G01 X17.6566 Y-2.4183 F200.00
G01 X17.7051 Y-2.5343 F200.00
G01 X17.7725 Y-2.6563 F200.00
G01 X17.8450 Y-2.7591 F200.00
G01 X17.8620 Y-2.7804 F200.00
G01 X17.9461 Y-2.8739 F200.00
G01 X18.0500 Y-2.9668 F200.00
G01 X18.1524 Y-3.0399 F200.00
G01 X18.1754 Y-3.0544 F200.00
G01 X18.2736 Y-3.1086 F200.00
G01 X18.2981 Y-3.1205 F200.00
G01 X18.3257 Y-3.1319 F200.00
G01 X16.7843 Y-3.1319 F200.00
G01 X16.8119 Y-3.1205 F200.00
G01 X16.8364 Y-3.1086 F200.00
G01 X16.9346 Y-3.0544 F200.00
G01 X16.9577 Y-3.0399 F200.00
G01 X17.0600 Y-2.9668 F200.00
G01 X17.1639 Y-2.8739 F200.00
G01 X17.2480 Y-2.7804 F200.00
G01 X17.2650 Y-2.7591 F200.00
G01 X17.3375 Y-2.6563 F200.00
G01 X17.4049 Y-2.5343 F200.00
G01 X17.4534 Y-2.4183 F200.00
G01 X17.4624 Y-2.3926 F200.00
G01 X17.4968 Y-2.2716 F200.00
G01 X17.5202 Y-2.1342 F200.00
G01 X17.5276 Y-2.0086 F200.00
G01 X17.5276 Y-1.9814 F200.00
G01 X17.5202 Y-1.8558 F200.00
G01 X17.4968 Y-1.7184 F200.00
G01 X17.4624 Y-1.5975 F200.00
G01 X17.4534 Y-1.5717 F200.00
G01 X17.4049 Y-1.4557 F200.00
G01 X17.3375 Y-1.3337 F200.00
G01 X17.2650 Y-1.2309 F200.00
G01 X17.2480 Y-1.2096 F200.00
G01 X17.1639 Y-1.1161 F200.00
G01 X17.0600 Y-1.0232 F200.00
G01 X16.9577 Y-0.9501 F200.00
G01 X16.9346 Y-0.9356 F200.00
G01 X16.8243 Y-0.8751 F200.00
G01 X16.6955 Y-0.8218 F200.00
G01 X16.5748 Y-0.7866 F200.00
G01 X16.5482 Y-0.7805 F200.00
G01 X16.4242 Y-0.7598 F200.00
G01 X16.2850 Y-0.7520 F200.00
G01 X16.1594 Y-0.7587 F200.00
G01 X16.1323 Y-0.7617 F200.00
G01 X16.0084 Y-0.7832 F200.00
G01 X15.8745 Y-0.8218 F200.00
G01 X15.7581 Y-0.8695 F200.00
G01 X15.7336 Y-0.8814 F200.00
G01 X15.6237 Y-0.9425 F200.00
G01 X15.5100 Y-1.0232 F200.00
G01 X15.4160 Y-1.1067 F200.00
G01 X15.3967 Y-1.1260 F200.00
G01 X15.3132 Y-1.2200 F200.00
G01 X15.2325 Y-1.3337 F200.00
G01 X15.1651 Y-1.4557 F200.00
G01 X15.1166 Y-1.5717 F200.00
G01 X15.1076 Y-1.5975 F200.00
G01 X15.0732 Y-1.7184 F200.00
G01 X15.0517 Y-1.8423 F200.00
G01 X15.0487 Y-1.8694 F200.00
G01 X15.0420 Y-1.9950 F200.00
G01 X15.0498 Y-2.1342 F200.00
G01 X15.0705 Y-2.2582 F200.00
G01 X15.0766 Y-2.2848 F200.00
G01 X15.1118 Y-2.4055 F200.00
G01 X15.1651 Y-2.5343 F200.00
G01 X15.2256 Y-2.6446 F200.00
G01 X15.2401 Y-2.6677 F200.00
G01 X15.3132 Y-2.7700 F200.00
G01 X15.4061 Y-2.8739 F200.00
G01 X15.5100 Y-2.9668 F200.00
G01 X15.6124 Y-3.0399 F200.00
G01 X15.6354 Y-3.0544 F200.00
G01 X15.7336 Y-3.1086 F200.00
G01 X15.7581 Y-3.1205 F200.00
G01 X15.7857 Y-3.1319 F200.00
G01 X4.4510 Y-3.1319 F200.00
G01 X4.4490 Y-3.1030 F200.00
G01 X4.4471 Y-3.0895 F200.00
G01 X4.4395 Y-3.0453 F200.00
G01 X4.4335 Y-3.0187 F200.00
G01 X4.4169 Y-2.9626 F200.00
G01 X4.3893 Y-2.8960 F200.00
G01 X4.3544 Y-2.8329 F200.00
G01 X4.3127 Y-2.7741 F200.00
G01 X4.2647 Y-2.7203 F200.00
G01 X4.2213 Y-2.6811 F200.00
G01 X4.2000 Y-2.6641 F200.00
G01 X4.1521 Y-2.6306 F200.00
G01 X4.1011 Y-2.6019 F200.00
G01 X4.0765 Y-2.5901 F200.00
G01 X4.0351 Y-2.5729 F200.00
G01 X4.0094 Y-2.5639 F200.00
G01 X3.9531 Y-2.5481 F200.00
G01 X3.8820 Y-2.5360 F200.00
G01 X3.8100 Y-2.5320 F200.00
G01 X3.7516 Y-2.5349 F200.00
G01 X3.7245 Y-2.5379 F200.00
G01 X3.6803 Y-2.5455 F200.00
G01 X3.6537 Y-2.5515 F200.00
G01 X3.5976 Y-2.5681 F200.00
G01 X3.5435 Y-2.5901 F200.00
G01 X3.5189 Y-2.6019 F200.00
G01 X3.4679 Y-2.6306 F200.00
G01 X3.4091 Y-2.6723 F200.00
G01 X3.3553 Y-2.7203 F200.00
G01 X3.3073 Y-2.7741 F200.00
G01 X3.2656 Y-2.8329 F200.00
G01 X3.2369 Y-2.8839 F200.00
G01 X3.2251 Y-2.9085 F200.00
G01 X3.2079 Y-2.9499 F200.00
G01 X3.1989 Y-2.9756 F200.00
G01 X3.1831 Y-3.0319 F200.00
G01 X3.1710 Y-3.1030 F200.00
G01 X3.1670 Y-3.1750 F200.00
G01 X3.1699 Y-3.2334 F200.00
G01 X3.1729 Y-3.2605 F200.00
G01 X3.1805 Y-3.3047 F200.00
G01 X3.1865 Y-3.3313 F200.00
G01 X3.2031 Y-3.3874 F200.00
G01 X3.2251 Y-3.4415 F200.00
G01 X3.2369 Y-3.4661 F200.00
G01 X3.2656 Y-3.5171 F200.00
G01 X3.3073 Y-3.5759 F200.00
G01 X3.3553 Y-3.6297 F200.00
G01 X3.3987 Y-3.6689 F200.00
G01 X3.4200 Y-3.6859 F200.00
G01 X3.4566 Y-3.7119 F200.00
G01 X3.4796 Y-3.7264 F200.00
G01 X3.5310 Y-3.7543 F200.00
G01 X3.5976 Y-3.7819 F200.00
G01 X3.6669 Y-3.8019 F200.00
G01 X3.7245 Y-3.8121 F200.00
G01 X3.7516 Y-3.8151 F200.00
G01 X3.7964 Y-3.8176 F200.00
G01 X3.8259 Y-3.8175 F200.00
G01 X3.9016 Y-3.8931 F200.00
G00 Z2.5400
G00 X3.8150 Y-6.0199
G01 F100.00
G01 Z-0.1000
G01 F200.00
G01 X3.9152 Y-6.0141 F200.00
G01 X4.0192 Y-5.9964 F200.00
G01 X4.1205 Y-5.9673 F200.00
G01 X4.2132 Y-5.9290 F200.00
G01 X4.2223 Y-5.9246 F200.00
G01 X4.3058 Y-5.8785 F200.00
G01 X4.3143 Y-5.8731 F200.00
G01 X4.3961 Y-5.8149 F200.00
G01 X4.4747 Y-5.7447 F200.00
G01 X4.5449 Y-5.6661 F200.00
G01 X4.6059 Y-5.5801 F200.00
G01 X4.6569 Y-5.4879 F200.00
G01 X4.6954 Y-5.3952 F200.00
G01 X4.6988 Y-5.3857 F200.00
G01 X4.7252 Y-5.2941 F200.00
G01 X4.7274 Y-5.2842 F200.00
G01 X4.7441 Y-5.1852 F200.00
G01 X4.7500 Y-5.0800 F200.00
G01 X4.7441 Y-4.9748 F200.00
G01 X4.7264 Y-4.8708 F200.00
G01 X4.6973 Y-4.7695 F200.00
G01 X4.6590 Y-4.6768 F200.00
G01 X4.6546 Y-4.6677 F200.00
G01 X4.6085 Y-4.5842 F200.00
G01 X4.6031 Y-4.5757 F200.00
G01 X4.5449 Y-4.4939 F200.00
G01 X4.4747 Y-4.4153 F200.00
G01 X4.3961 Y-4.3451 F200.00
G01 X4.3101 Y-4.2841 F200.00
G01 X4.2179 Y-4.2331 F200.00
G01 X4.1252 Y-4.1946 F200.00
G01 X4.1157 Y-4.1912 F200.00
G01 X4.0241 Y-4.1648 F200.00
G01 X4.0142 Y-4.1626 F200.00
G01 X3.9152 Y-4.1459 F200.00
G01 X3.8100 Y-4.1400 F200.00
G01 X3.7048 Y-4.1459 F200.00
G01 X3.6008 Y-4.1636 F200.00
G01 X3.4995 Y-4.1927 F200.00
G01 X3.4068 Y-4.2310 F200.00
G01 X3.3977 Y-4.2354 F200.00
G01 X3.3142 Y-4.2815 F200.00
G01 X3.3057 Y-4.2869 F200.00
G01 X3.2239 Y-4.3451 F200.00
G01 X3.1453 Y-4.4153 F200.00
G01 X3.0751 Y-4.4939 F200.00
G01 X3.0141 Y-4.5799 F200.00
G01 X2.9631 Y-4.6721 F200.00
G01 X2.9246 Y-4.7648 F200.00
G01 X2.9212 Y-4.7743 F200.00
G01 X2.8948 Y-4.8659 F200.00
G01 X2.8926 Y-4.8758 F200.00
G01 X2.8759 Y-4.9748 F200.00
G01 X2.8700 Y-5.0800 F200.00
G01 X2.8759 Y-5.1852 F200.00
G01 X2.8936 Y-5.2892 F200.00
G01 X2.9227 Y-5.3905 F200.00
G01 X2.9610 Y-5.4832 F200.00
G01 X2.9654 Y-5.4923 F200.00
G01 X3.0115 Y-5.5758 F200.00
G01 X3.0169 Y-5.5843 F200.00
G01 X3.0751 Y-5.6661 F200.00
G01 X3.1453 Y-5.7447 F200.00
G01 X3.2239 Y-5.8149 F200.00
G01 X3.3099 Y-5.8759 F200.00
G01 X3.4021 Y-5.9269 F200.00
G01 X3.4948 Y-5.9654 F200.00
G01 X3.5043 Y-5.9688 F200.00
G01 X3.5959 Y-5.9952 F200.00
G01 X3.6058 Y-5.9974 F200.00
G01 X3.7048 Y-6.0141 F200.00
G01 X3.8050 Y-6.0199 F200.00
G01 X3.8150 Y-6.0199 F200.00
G01 X3.9152 Y-6.0141 F200.00
G00 Z2.5400
G00 X3.8236 Y-6.1726
G01 F100.00
G01 Z-0.1000
G01 F200.00
G01 X3.9324 Y-6.1661 F200.00
G01 X4.0532 Y-6.1456 F200.00
G01 X4.1710 Y-6.1117 F200.00
G01 X4.2718 Y-6.0703 F200.00
G01 X4.2963 Y-6.0585 F200.00
G01 X4.3798 Y-6.0124 F200.00
G01 X4.4028 Y-5.9979 F200.00
G01 X4.4915 Y-5.9345 F200.00
G01 X4.5829 Y-5.8529 F200.00
G01 X4.6645 Y-5.7615 F200.00
G01 X4.7355 Y-5.6615 F200.00
G01 X4.7948 Y-5.5542 F200.00
G01 X4.8368 Y-5.4537 F200.00
G01 X4.8458 Y-5.4280 F200.00
G01 X4.8722 Y-5.3364 F200.00
G01 X4.8783 Y-5.3098 F200.00
G01 X4.8961 Y-5.2024 F200.00
G01 X4.9030 Y-5.0800 F200.00
G01 X4.8961 Y-4.9576 F200.00
G01 X4.8756 Y-4.8368 F200.00
G01 X4.8417 Y-4.7190 F200.00
G01 X4.8003 Y-4.6182 F200.00
G01 X4.7885 Y-4.5937 F200.00
G01 X4.7424 Y-4.5102 F200.00
G01 X4.7279 Y-4.4872 F200.00
G01 X4.6645 Y-4.3985 F200.00
G01 X4.5829 Y-4.3071 F200.00
G01 X4.4915 Y-4.2255 F200.00
G01 X4.3915 Y-4.1545 F200.00
G01 X4.2842 Y-4.0952 F200.00
G01 X4.1837 Y-4.0532 F200.00
G01 X4.1580 Y-4.0442 F200.00
G01 X4.0664 Y-4.0178 F200.00
G01 X4.0398 Y-4.0117 F200.00
G01 X3.9324 Y-3.9939 F200.00
G01 X3.8100 Y-3.9870 F200.00
G01 X3.6876 Y-3.9939 F200.00
G01 X3.5668 Y-4.0144 F200.00
G01 X3.4490 Y-4.0483 F200.00
G01 X3.3482 Y-4.0897 F200.00
G01 X3.3237 Y-4.1015 F200.00
G01 X3.2402 Y-4.1476 F200.00
G01 X3.2172 Y-4.1621 F200.00
G01 X3.1285 Y-4.2255 F200.00
G01 X3.0371 Y-4.3071 F200.00
G01 X2.9555 Y-4.3985 F200.00
G01 X2.8845 Y-4.4985 F200.00
G01 X2.8252 Y-4.6058 F200.00
G01 X2.7832 Y-4.7063 F200.00
G01 X2.7742 Y-4.7320 F200.00
G01 X2.7478 Y-4.8236 F200.00
G01 X2.7417 Y-4.8502 F200.00
G01 X2.7239 Y-4.9576 F200.00
G01 X2.7170 Y-5.0800 F200.00
G01 X2.7239 Y-5.2024 F200.00
G01 X2.7444 Y-5.3232 F200.00
G01 X2.7783 Y-5.4410 F200.00
G01 X2.8197 Y-5.5418 F200.00
G01 X2.8315 Y-5.5663 F200.00
G01 X2.8776 Y-5.6498 F200.00
G01 X2.8921 Y-5.6728 F200.00
G01 X2.9555 Y-5.7615 F200.00
G01 X3.0371 Y-5.8529 F200.00
G01 X3.1285 Y-5.9345 F200.00
G01 X3.2285 Y-6.0055 F200.00
G01 X3.3358 Y-6.0648 F200.00
G01 X3.4363 Y-6.1068 F200.00
G01 X3.4620 Y-6.1158 F200.00
G01 X3.5536 Y-6.1422 F200.00
G01 X3.5802 Y-6.1483 F200.00
G01 X3.6876 Y-6.1661 F200.00
G01 X3.7964 Y-6.1726 F200.00
G01 X3.8236 Y-6.1726 F200.00
G01 X3.9324 Y-6.1661 F200.00
G00 Z2.5400
G00 X3.8150 Y-8.5599
G01 F100.00
G01 Z-0.1000
G01 F200.00
G01 X3.9152 Y-8.5541 F200.00
G01 X4.0192 Y-8.5364 F200.00
G01 X4.1205 Y-8.5073 F200.00
G01 X4.2132 Y-8.4690 F200.00
G01 X4.2223 Y-8.4646 F200.00
G01 X4.3058 Y-8.4185 F200.00
G01 X4.3143 Y-8.4131 F200.00
G01 X4.3961 Y-8.3549 F200.00
G01 X4.4747 Y-8.2847 F200.00
G01 X4.5449 Y-8.2061 F200.00
G01 X4.6031 Y-8.1243 F200.00
G01 X4.6085 Y-8.1158 F200.00
G01 X4.6546 Y-8.0323 F200.00
G01 X4.6590 Y-8.0232 F200.00
G01 X4.6973 Y-7.9305 F200.00
G01 X4.7264 Y-7.8292 F200.00
G01 X4.7441 Y-7.7252 F200.00
G01 X4.7500 Y-7.6200 F200.00
G01 X4.7441 Y-7.5148 F200.00
G01 X4.7264 Y-7.4108 F200.00
G01 X4.6973 Y-7.3095 F200.00
G01 X4.6590 Y-7.2168 F200.00
G01 X4.6546 Y-7.2077 F200.00
G01 X4.6085 Y-7.1242 F200.00
G01 X4.6031 Y-7.1157 F200.00
G01 X4.5449 Y-7.0339 F200.00
G01 X4.4747 Y-6.9553 F200.00
G01 X4.3961 Y-6.8851 F200.00
G01 X4.3101 Y-6.8241 F200.00
G01 X4.2179 Y-6.7731 F200.00
G01 X4.1252 Y-6.7346 F200.00
G01 X4.1157 Y-6.7312 F200.00
G01 X4.0241 Y-6.7048 F200.00
G01 X4.0142 Y-6.7026 F200.00
G01 X3.9152 Y-6.6859 F200.00
G01 X3.8100 Y-6.6800 F200.00
G01 X3.7048 Y-6.6859 F200.00
G01 X3.6008 Y-6.7036 F200.00
G01 X3.4995 Y-6.7327 F200.00
G01 X3.4068 Y-6.7710 F200.00
G01 X3.3977 Y-6.7754 F200.00
G01 X3.3142 Y-6.8215 F200.00
G01 X3.3057 Y-6.8269 F200.00
G01 X3.2239 Y-6.8851 F200.00
G01 X3.1453 Y-6.9553 F200.00
G01 X3.0751 Y-7.0339 F200.00
G01 X3.0141 Y-7.1199 F200.00
G01 X2.9631 Y-7.2121 F200.00
G01 X2.9246 Y-7.3048 F200.00
G01 X2.9212 Y-7.3143 F200.00
G01 X2.8948 Y-7.4059 F200.00
G01 X2.8926 Y-7.4158 F200.00
G01 X2.8759 Y-7.5148 F200.00
G01 X2.8700 Y-7.6200 F200.00
G01 X2.8759 Y-7.7252 F200.00
G01 X2.8936 Y-7.8292 F200.00
G01 X2.9227 Y-7.9305 F200.00
G01 X2.9610 Y-8.0232 F200.00
G01 X2.9654 Y-8.0323 F200.00
G01 X3.0115 Y-8.1158 F200.00
G01 X3.0169 Y-8.1243 F200.00
G01 X3.0751 Y-8.2061 F200.00
G01 X3.1453 Y-8.2847 F200.00
G01 X3.2239 Y-8.3549 F200.00
G01 X3.3099 Y-8.4159 F200.00
G01 X3.4021 Y-8.4669 F200.00
G01 X3.4948 Y-8.5054 F200.00
G01 X3.5043 Y-8.5088 F200.00
G01 X3.5959 Y-8.5352 F200.00
G01 X3.6058 Y-8.5374 F200.00
G01 X3.7048 Y-8.5541 F200.00
G01 X3.8050 Y-8.5599 F200.00
G01 X3.8150 Y-8.5599 F200.00
G01 X3.9152 Y-8.5541 F200.00
G00 Z2.5400
G00 X3.8236 Y-8.7126
G01 F100.00
G01 Z-0.1000
G01 F200.00
G01 X3.9324 Y-8.7061 F200.00
G01 X4.0532 Y-8.6856 F200.00
G01 X4.1710 Y-8.6517 F200.00
G01 X4.2718 Y-8.6103 F200.00
G01 X4.2963 Y-8.5985 F200.00
G01 X4.3798 Y-8.5524 F200.00
G01 X4.4028 Y-8.5379 F200.00
G01 X4.4915 Y-8.4745 F200.00
G01 X4.5829 Y-8.3929 F200.00
G01 X4.6645 Y-8.3015 F200.00
G01 X4.7279 Y-8.2128 F200.00
G01 X4.7424 Y-8.1898 F200.00
G01 X4.7885 Y-8.1063 F200.00
G01 X4.8003 Y-8.0818 F200.00
G01 X4.8417 Y-7.9810 F200.00
G01 X4.8756 Y-7.8632 F200.00
G01 X4.8961 Y-7.7424 F200.00
G01 X4.9030 Y-7.6200 F200.00
G01 X4.8961 Y-7.4976 F200.00
G01 X4.8756 Y-7.3768 F200.00
G01 X4.8417 Y-7.2590 F200.00
G01 X4.8003 Y-7.1582 F200.00
G01 X4.7885 Y-7.1337 F200.00
G01 X4.7424 Y-7.0502 F200.00
G01 X4.7279 Y-7.0272 F200.00
G01 X4.6645 Y-6.9385 F200.00
G01 X4.5829 Y-6.8471 F200.00
G01 X4.4915 Y-6.7655 F200.00
G01 X4.3915 Y-6.6945 F200.00
G01 X4.2842 Y-6.6352 F200.00
G01 X4.1837 Y-6.5932 F200.00
G01 X4.1580 Y-6.5842 F200.00
G01 X4.0664 Y-6.5578 F200.00
G01 X4.0398 Y-6.5517 F200.00
G01 X3.9324 Y-6.5339 F200.00
G01 X3.8100 Y-6.5270 F200.00
G01 X3.6876 Y-6.5339 F200.00
G01 X3.5668 Y-6.5544 F200.00
G01 X3.4490 Y-6.5883 F200.00
G01 X3.3482 Y-6.6297 F200.00
G01 X3.3237 Y-6.6415 F200.00
G01 X3.2402 Y-6.6876 F200.00
G01 X3.2172 Y-6.7021 F200.00
G01 X3.1285 Y-6.7655 F200.00
G01 X3.0371 Y-6.8471 F200.00
G01 X2.9555 Y-6.9385 F200.00
G01 X2.8845 Y-7.0385 F200.00
G01 X2.8252 Y-7.1458 F200.00
G01 X2.7832 Y-7.2463 F200.00
G01 X2.7742 Y-7.2720 F200.00
G01 X2.7478 Y-7.3636 F200.00
G01 X2.7417 Y-7.3902 F200.00
G01 X2.7239 Y-7.4976 F200.00
G01 X2.7170 Y-7.6200 F200.00
G01 X2.7239 Y-7.7424 F200.00
G01 X2.7444 Y-7.8632 F200.00
G01 X2.7783 Y-7.9810 F200.00
G01 X2.8197 Y-8.0818 F200.00
G01 X2.8315 Y-8.1063 F200.00
G01 X2.8776 Y-8.1898 F200.00
G01 X2.8921 Y-8.2128 F200.00
G01 X2.9555 Y-8.3015 F200.00
G01 X3.0371 Y-8.3929 F200.00
G01 X3.1285 Y-8.4745 F200.00
G01 X3.2285 Y-8.5455 F200.00
G01 X3.3358 Y-8.6048 F200.00
G01 X3.4363 Y-8.6468 F200.00
G01 X3.4620 Y-8.6558 F200.00
G01 X3.5536 Y-8.6822 F200.00
G01 X3.5802 Y-8.6883 F200.00
G01 X3.6876 Y-8.7061 F200.00
G01 X3.7964 Y-8.7126 F200.00
G01 X3.8236 Y-8.7126 F200.00
G01 X3.9324 Y-8.7061 F200.00
G00 Z2.5400
G00 X3.8150 Y-11.0999
G01 F100.00
G01 Z-0.1000
G01 F200.00
G01 X3.9152 Y-11.0941 F200.00
G01 X4.0192 Y-11.0764 F200.00
G01 X4.1205 Y-11.0473 F200.00
G01 X4.2132 Y-11.0090 F200.00
G01 X4.2223 Y-11.0046 F200.00
G01 X4.3058 Y-10.9585 F200.00
G01 X4.3143 Y-10.9531 F200.00
G01 X4.3961 Y-10.8949 F200.00
G01 X4.4747 Y-10.8247 F200.00
G01 X4.5449 Y-10.7461 F200.00
G01 X4.6031 Y-10.6643 F200.00
G01 X4.6085 Y-10.6558 F200.00
G01 X4.6546 Y-10.5723 F200.00
G01 X4.6590 Y-10.5632 F200.00
G01 X4.6973 Y-10.4705 F200.00
G01 X4.7264 Y-10.3692 F200.00
G01 X4.7441 Y-10.2652 F200.00
G01 X4.7500 Y-10.1600 F200.00
G01 X4.7441 Y-10.0548 F200.00
G01 X4.7264 Y-9.9508 F200.00
G01 X4.6973 Y-9.8495 F200.00
G01 X4.6590 Y-9.7568 F200.00
G01 X4.6546 Y-9.7477 F200.00
G01 X4.6085 Y-9.6642 F200.00
G01 X4.6031 Y-9.6557 F200.00
G01 X4.5449 Y-9.5739 F200.00
G01 X4.4747 Y-9.4953 F200.00
G01 X4.3961 Y-9.4251 F200.00
G01 X4.3101 Y-9.3641 F200.00
G01 X4.2179 Y-9.3131 F200.00
G01 X4.1252 Y-9.2746 F200.00
G01 X4.1157 Y-9.2712 F200.00
G01 X4.0241 Y-9.2448 F200.00
G01 X4.0142 Y-9.2426 F200.00
G01 X3.9152 Y-9.2259 F200.00
G01 X3.8100 Y-9.2200 F200.00
G01 X3.7048 Y-9.2259 F200.00
G01 X3.6058 Y-9.2426 F200.00
G01 X3.5959 Y-9.2448 F200.00
G01 X3.5043 Y-9.2712 F200.00
G01 X3.4948 Y-9.2746 F200.00
G01 X3.4021 Y-9.3131 F200.00
G01 X3.3099 Y-9.3641 F200.00
G01 X3.2239 Y-9.4251 F200.00
G01 X3.1453 Y-9.4953 F200.00
G01 X3.0751 Y-9.5739 F200.00
G01 X3.0169 Y-9.6557 F200.00
G01 X3.0115 Y-9.6642 F200.00
G01 X2.9654 Y-9.7477 F200.00
G01 X2.9610 Y-9.7568 F200.00
G01 X2.9227 Y-9.8495 F200.00
G01 X2.8936 Y-9.9508 F200.00
G01 X2.8759 Y-10.0548 F200.00
G01 X2.8700 Y-10.1600 F200.00
G01 X2.8759 Y-10.2652 F200.00
G01 X2.8936 Y-10.3692 F200.00
G01 X2.9227 Y-10.4705 F200.00
G01 X2.9610 Y-10.5632 F200.00
G01 X2.9654 Y-10.5723 F200.00
G01 X3.0115 Y-10.6558 F200.00
G01 X3.0169 Y-10.6643 F200.00
G01 X3.0751 Y-10.7461 F200.00
G01 X3.1453 Y-10.8247 F200.00
G01 X3.2239 Y-10.8949 F200.00
G01 X3.3099 Y-10.9559 F200.00
G01 X3.4021 Y-11.0069 F200.00
G01 X3.4948 Y-11.0454 F200.00
G01 X3.5043 Y-11.0488 F200.00
G01 X3.6008 Y-11.0764 F200.00
G01 X3.6998 Y-11.0934 F200.00
G01 X3.7098 Y-11.0945 F200.00
G01 X3.8050 Y-11.0999 F200.00
G01 X3.8150 Y-11.0999 F200.00
G01 X3.9152 Y-11.0941 F200.00
G00 Z2.5400
G00 X3.8236 Y-11.2526
G01 F100.00
G01 Z-0.1000
G01 F200.00
G01 X3.9324 Y-11.2461 F200.00
G01 X4.0532 Y-11.2256 F200.00
G01 X4.1710 Y-11.1917 F200.00
G01 X4.2718 Y-11.1503 F200.00
G01 X4.2963 Y-11.1385 F200.00
G01 X4.3798 Y-11.0924 F200.00
G01 X4.4028 Y-11.0779 F200.00
G01 X4.4915 Y-11.0145 F200.00
G01 X4.5829 Y-10.9329 F200.00
G01 X4.6645 Y-10.8415 F200.00
G01 X4.7279 Y-10.7528 F200.00
G01 X4.7424 Y-10.7298 F200.00
G01 X4.7885 Y-10.6463 F200.00
G01 X4.8003 Y-10.6218 F200.00
G01 X4.8417 Y-10.5210 F200.00
G01 X4.8756 Y-10.4032 F200.00
G01 X4.8961 Y-10.2824 F200.00
G01 X4.9030 Y-10.1600 F200.00
G01 X4.8961 Y-10.0376 F200.00
G01 X4.8756 Y-9.9168 F200.00
G01 X4.8417 Y-9.7990 F200.00
G01 X4.8003 Y-9.6982 F200.00
G01 X4.7885 Y-9.6737 F200.00
G01 X4.7424 Y-9.5902 F200.00
G01 X4.7279 Y-9.5672 F200.00
G01 X4.6645 Y-9.4785 F200.00
G01 X4.5829 Y-9.3871 F200.00
G01 X4.4915 Y-9.3055 F200.00
G01 X4.3915 Y-9.2345 F200.00
G01 X4.2842 Y-9.1752 F200.00
G01 X4.1837 Y-9.1332 F200.00
G01 X4.1580 Y-9.1242 F200.00
G01 X4.0664 Y-9.0978 F200.00
G01 X4.0398 Y-9.0917 F200.00
G01 X3.9324 Y-9.0739 F200.00
G01 X3.8100 Y-9.0670 F200.00
G01 X3.6876 Y-9.0739 F200.00
G01 X3.5802 Y-9.0917 F200.00
G01 X3.5536 Y-9.0978 F200.00
G01 X3.4620 Y-9.1242 F200.00
G01 X3.4363 Y-9.1332 F200.00
G01 X3.3358 Y-9.1752 F200.00
G01 X3.2285 Y-9.2345 F200.00
G01 X3.1285 Y-9.3055 F200.00
G01 X3.0371 Y-9.3871 F200.00
G01 X2.9555 Y-9.4785 F200.00
G01 X2.8921 Y-9.5672 F200.00
G01 X2.8776 Y-9.5902 F200.00
G01 X2.8315 Y-9.6737 F200.00
G01 X2.8197 Y-9.6982 F200.00
G01 X2.7783 Y-9.7990 F200.00
G01 X2.7444 Y-9.9168 F200.00
G01 X2.7239 Y-10.0376 F200.00
G01 X2.7170 Y-10.1600 F200.00
G01 X2.7239 Y-10.2824 F200.00
G01 X2.7444 Y-10.4032 F200.00
G01 X2.7783 Y-10.5210 F200.00
G01 X2.8197 Y-10.6218 F200.00
G01 X2.8315 Y-10.6463 F200.00
G01 X2.8776 Y-10.7298 F200.00
G01 X2.8921 Y-10.7528 F200.00
G01 X2.9555 Y-10.8415 F200.00
G01 X3.0371 Y-10.9329 F200.00
G01 X3.1285 Y-11.0145 F200.00
G01 X3.2285 Y-11.0855 F200.00
G01 X3.3358 Y-11.1448 F200.00
G01 X3.4363 Y-11.1868 F200.00
G01 X3.4620 Y-11.1958 F200.00
G01 X3.5668 Y-11.2256 F200.00
G01 X3.6741 Y-11.2442 F200.00
G01 X3.7012 Y-11.2473 F200.00
G01 X3.7964 Y-11.2526 F200.00
G01 X3.8236 Y-11.2526 F200.00
G01 X3.9324 Y-11.2461 F200.00
G00 Z2.5400
G00 X3.8150 Y-13.6399
G01 F100.00
G01 Z-0.1000
G01 F200.00
G01 X3.9152 Y-13.6341 F200.00
G01 X4.0192 Y-13.6164 F200.00
G01 X4.1205 Y-13.5873 F200.00
G01 X4.2132 Y-13.5490 F200.00
G01 X4.2223 Y-13.5446 F200.00
G01 X4.3058 Y-13.4985 F200.00
G01 X4.3143 Y-13.4931 F200.00
G01 X4.3961 Y-13.4349 F200.00
G01 X4.4747 Y-13.3647 F200.00
G01 X4.5449 Y-13.2861 F200.00
G01 X4.6031 Y-13.2043 F200.00
G01 X4.6085 Y-13.1958 F200.00
G01 X4.6546 Y-13.1123 F200.00
G01 X4.6590 Y-13.1032 F200.00
G01 X4.6973 Y-13.0105 F200.00
G01 X4.7264 Y-12.9092 F200.00
G01 X4.7441 Y-12.8052 F200.00
G01 X4.7500 Y-12.7000 F200.00
G01 X4.7441 Y-12.5948 F200.00
G01 X4.7264 Y-12.4908 F200.00
G01 X4.6973 Y-12.3895 F200.00
G01 X4.6590 Y-12.2968 F200.00
G01 X4.6546 Y-12.2877 F200.00
G01 X4.6085 Y-12.2042 F200.00
G01 X4.6031 Y-12.1957 F200.00
G01 X4.5449 Y-12.1139 F200.00
G01 X4.4747 Y-12.0353 F200.00
G01 X4.3961 Y-11.9651 F200.00
G01 X4.3101 Y-11.9041 F200.00
G01 X4.2179 Y-11.8531 F200.00
G01 X4.1252 Y-11.8146 F200.00
G01 X4.1157 Y-11.8112 F200.00
G01 X4.0241 Y-11.7848 F200.00
G01 X4.0142 Y-11.7826 F200.00
G01 X3.9152 Y-11.7659 F200.00
G01 X3.8100 Y-11.7600 F200.00
G01 X3.7048 Y-11.7659 F200.00
G01 X3.6058 Y-11.7826 F200.00
G01 X3.5959 Y-11.7848 F200.00
G01 X3.5043 Y-11.8112 F200.00
G01 X3.4948 Y-11.8146 F200.00
G01 X3.4021 Y-11.8531 F200.00
G01 X3.3099 Y-11.9041 F200.00
G01 X3.2239 Y-11.9651 F200.00
G01 X3.1453 Y-12.0353 F200.00
G01 X3.0751 Y-12.1139 F200.00
G01 X3.0169 Y-12.1957 F200.00
G01 X3.0115 Y-12.2042 F200.00
G01 X2.9654 Y-12.2877 F200.00
G01 X2.9610 Y-12.2968 F200.00
G01 X2.9227 Y-12.3895 F200.00
G01 X2.8936 Y-12.4908 F200.00
G01 X2.8759 Y-12.5948 F200.00
G01 X2.8700 Y-12.7000 F200.00
G01 X2.8759 Y-12.8052 F200.00
G01 X2.8936 Y-12.9092 F200.00
G01 X2.9227 Y-13.0105 F200.00
G01 X2.9610 Y-13.1032 F200.00
G01 X2.9654 Y-13.1123 F200.00
G01 X3.0115 Y-13.1958 F200.00
G01 X3.0169 Y-13.2043 F200.00
G01 X3.0751 Y-13.2861 F200.00
G01 X3.1453 Y-13.3647 F200.00
G01 X3.2239 Y-13.4349 F200.00
G01 X3.3099 Y-13.4959 F200.00
G01 X3.4021 Y-13.5469 F200.00
G01 X3.4948 Y-13.5854 F200.00
G01 X3.5043 Y-13.5888 F200.00
G01 X3.6008 Y-13.6164 F200.00
G01 X3.6998 Y-13.6334 F200.00
G01 X3.7098 Y-13.6345 F200.00
G01 X3.8050 Y-13.6399 F200.00
G01 X3.8150 Y-13.6399 F200.00
G01 X3.9152 Y-13.6341 F200.00
G00 Z2.5400
G00 X3.8236 Y-13.7926
G01 F100.00
G01 Z-0.1000
G01 F200.00
G01 X3.9324 Y-13.7861 F200.00
G01 X4.0532 Y-13.7656 F200.00
G01 X4.1710 Y-13.7317 F200.00
G01 X4.2718 Y-13.6903 F200.00
G01 X4.2963 Y-13.6785 F200.00
G01 X4.3798 Y-13.6324 F200.00
G01 X4.4028 Y-13.6179 F200.00
G01 X4.4915 Y-13.5545 F200.00
G01 X4.5829 Y-13.4729 F200.00
G01 X4.6645 Y-13.3815 F200.00
G01 X4.7279 Y-13.2928 F200.00
G01 X4.7424 Y-13.2698 F200.00
G01 X4.7885 Y-13.1863 F200.00
G01 X4.8003 Y-13.1618 F200.00
G01 X4.8417 Y-13.0610 F200.00
G01 X4.8756 Y-12.9432 F200.00
G01 X4.8961 Y-12.8224 F200.00
G01 X4.9030 Y-12.7000 F200.00
G01 X4.8961 Y-12.5776 F200.00
G01 X4.8756 Y-12.4568 F200.00
G01 X4.8417 Y-12.3390 F200.00
G01 X4.8003 Y-12.2382 F200.00
G01 X4.7885 Y-12.2137 F200.00
G01 X4.7424 Y-12.1302 F200.00
G01 X4.7279 Y-12.1072 F200.00
G01 X4.6645 Y-12.0185 F200.00
G01 X4.5829 Y-11.9271 F200.00
G01 X4.4915 Y-11.8455 F200.00
G01 X4.3915 Y-11.7745 F200.00
G01 X4.2842 Y-11.7152 F200.00
G01 X4.1837 Y-11.6732 F200.00
G01 X4.1580 Y-11.6642 F200.00
G01 X4.0664 Y-11.6378 F200.00
G01 X4.0398 Y-11.6317 F200.00
G01 X3.9324 Y-11.6139 F200.00
G01 X3.8100 Y-11.6070 F200.00
G01 X3.6876 Y-11.6139 F200.00
G01 X3.5802 Y-11.6317 F200.00
G01 X3.5536 Y-11.6378 F200.00
G01 X3.4620 Y-11.6642 F200.00
G01 X3.4363 Y-11.6732 F200.00
G01 X3.3358 Y-11.7152 F200.00
G01 X3.2285 Y-11.7745 F200.00
G01 X3.1285 Y-11.8455 F200.00
G01 X3.0371 Y-11.9271 F200.00
G01 X2.9555 Y-12.0185 F200.00
G01 X2.8921 Y-12.1072 F200.00
G01 X2.8776 Y-12.1302 F200.00
G01 X2.8315 Y-12.2137 F200.00
G01 X2.8197 Y-12.2382 F200.00
G01 X2.7783 Y-12.3390 F200.00
G01 X2.7444 Y-12.4568 F200.00
G01 X2.7239 Y-12.5776 F200.00
G01 X2.7170 Y-12.7000 F200.00
G01 X2.7239 Y-12.8224 F200.00
G01 X2.7444 Y-12.9432 F200.00
G01 X2.7783 Y-13.0610 F200.00
G01 X2.8197 Y-13.1618 F200.00
G01 X2.8315 Y-13.1863 F200.00
G01 X2.8776 Y-13.2698 F200.00
G01 X2.8921 Y-13.2928 F200.00
G01 X2.9555 Y-13.3815 F200.00
G01 X3.0371 Y-13.4729 F200.00
G01 X3.1285 Y-13.5545 F200.00
G01 X3.2285 Y-13.6255 F200.00
G01 X3.3358 Y-13.6848 F200.00
G01 X3.4363 Y-13.7268 F200.00
G01 X3.4620 Y-13.7358 F200.00
G01 X3.5668 Y-13.7656 F200.00
G01 X3.6741 Y-13.7842 F200.00
G01 X3.7012 Y-13.7873 F200.00
G01 X3.7964 Y-13.7926 F200.00
G01 X3.8236 Y-13.7926 F200.00
G01 X3.9324 Y-13.7861 F200.00
G00 Z2.5400
G00 X2.9556 Y-16.1799
G01 F100.00
G01 Z-0.1000
G01 F200.00
G01 X4.6600 Y-16.1800 F200.00
G01 X4.6745 Y-16.1788 F200.00
G01 X4.6845 Y-16.1766 F200.00
G01 X4.6941 Y-16.1733 F200.00
G01 X4.7033 Y-16.1689 F200.00
G01 X4.7120 Y-16.1635 F200.00
G01 X4.7199 Y-16.1571 F200.00
G01 X4.7271 Y-16.1499 F200.00
G01 X4.7335 Y-16.1420 F200.00
G01 X4.7389 Y-16.1333 F200.00
G01 X4.7433 Y-16.1241 F200.00
G01 X4.7466 Y-16.1145 F200.00
G01 X4.7488 Y-16.1045 F200.00
G01 X4.7500 Y-16.0900 F200.00
G01 X4.7500 Y-14.3900 F200.00
G01 X4.7488 Y-14.3755 F200.00
G01 X4.7466 Y-14.3655 F200.00
G01 X4.7433 Y-14.3559 F200.00
G01 X4.7389 Y-14.3467 F200.00
G01 X4.7335 Y-14.3380 F200.00
G01 X4.7271 Y-14.3301 F200.00
G01 X4.7199 Y-14.3229 F200.00
G01 X4.7120 Y-14.3165 F200.00
G01 X4.7033 Y-14.3111 F200.00
G01 X4.6941 Y-14.3067 F200.00
G01 X4.6845 Y-14.3034 F200.00
G01 X4.6745 Y-14.3012 F200.00
G01 X4.6600 Y-14.3000 F200.00
G01 X2.9600 Y-14.3000 F200.00
G01 X2.9455 Y-14.3012 F200.00
G01 X2.9355 Y-14.3034 F200.00
G01 X2.9259 Y-14.3067 F200.00
G01 X2.9167 Y-14.3111 F200.00
G01 X2.9080 Y-14.3165 F200.00
G01 X2.9001 Y-14.3229 F200.00
G01 X2.8929 Y-14.3301 F200.00
G01 X2.8865 Y-14.3380 F200.00
G01 X2.8811 Y-14.3467 F200.00
G01 X2.8767 Y-14.3559 F200.00
G01 X2.8734 Y-14.3655 F200.00
G01 X2.8712 Y-14.3755 F200.00
G01 X2.8700 Y-14.3900 F200.00
G01 X2.8701 Y-16.0944 F200.00
G01 X2.8712 Y-16.1045 F200.00
G01 X2.8734 Y-16.1145 F200.00
G01 X2.8767 Y-16.1241 F200.00
G01 X2.8811 Y-16.1333 F200.00
G01 X2.8865 Y-16.1420 F200.00
G01 X2.8929 Y-16.1499 F200.00
G01 X2.9001 Y-16.1571 F200.00
G01 X2.9080 Y-16.1635 F200.00
G01 X2.9167 Y-16.1689 F200.00
G01 X2.9259 Y-16.1733 F200.00
G01 X2.9355 Y-16.1766 F200.00
G01 X2.9455 Y-16.1788 F200.00
G01 X2.9556 Y-16.1799 F200.00
G01 X4.6600 Y-16.1800 F200.00
G00 Z2.5400
G00 X2.9481 Y-16.3327
G01 F100.00
G01 Z-0.1000
G01 F200.00
G01 X4.6719 Y-16.3327 F200.00
G01 X4.6993 Y-16.3298 F200.00
G01 X4.7261 Y-16.3238 F200.00
G01 X4.7521 Y-16.3149 F200.00
G01 X4.7770 Y-16.3030 F200.00
G01 X4.8003 Y-16.2884 F200.00
G01 X4.8218 Y-16.2713 F200.00
G01 X4.8413 Y-16.2518 F200.00
G01 X4.8584 Y-16.2303 F200.00
G01 X4.8730 Y-16.2070 F200.00
G01 X4.8849 Y-16.1821 F200.00
G01 X4.8938 Y-16.1561 F200.00
G01 X4.8998 Y-16.1293 F200.00
G01 X4.9027 Y-16.1019 F200.00
G01 X4.9030 Y-14.3900 F200.00
G01 X4.9027 Y-14.3781 F200.00
G01 X4.8998 Y-14.3507 F200.00
G01 X4.8938 Y-14.3239 F200.00
G01 X4.8849 Y-14.2979 F200.00
G01 X4.8730 Y-14.2730 F200.00
G01 X4.8584 Y-14.2497 F200.00
G01 X4.8413 Y-14.2282 F200.00
G01 X4.8218 Y-14.2087 F200.00
G01 X4.8003 Y-14.1916 F200.00
G01 X4.7770 Y-14.1770 F200.00
G01 X4.7521 Y-14.1651 F200.00
G01 X4.7261 Y-14.1562 F200.00
G01 X4.6993 Y-14.1502 F200.00
G01 X4.6719 Y-14.1473 F200.00
G01 X2.9600 Y-14.1470 F200.00
G01 X2.9481 Y-14.1473 F200.00
G01 X2.9207 Y-14.1502 F200.00
G01 X2.8939 Y-14.1562 F200.00
G01 X2.8679 Y-14.1651 F200.00
G01 X2.8430 Y-14.1770 F200.00
G01 X2.8197 Y-14.1916 F200.00
G01 X2.7982 Y-14.2087 F200.00
G01 X2.7787 Y-14.2282 F200.00
G01 X2.7616 Y-14.2497 F200.00
G01 X2.7470 Y-14.2730 F200.00
G01 X2.7351 Y-14.2979 F200.00
G01 X2.7262 Y-14.3239 F200.00
G01 X2.7202 Y-14.3507 F200.00
G01 X2.7173 Y-14.3781 F200.00
G01 X2.7173 Y-16.1019 F200.00
G01 X2.7202 Y-16.1293 F200.00
G01 X2.7262 Y-16.1561 F200.00
G01 X2.7351 Y-16.1821 F200.00
G01 X2.7470 Y-16.2070 F200.00
G01 X2.7616 Y-16.2303 F200.00
G01 X2.7787 Y-16.2518 F200.00
G01 X2.7982 Y-16.2713 F200.00
G01 X2.8197 Y-16.2884 F200.00
G01 X2.8430 Y-16.3030 F200.00
G01 X2.8679 Y-16.3149 F200.00
G01 X2.8939 Y-16.3238 F200.00
G01 X2.9207 Y-16.3298 F200.00
G01 X2.9481 Y-16.3327 F200.00
G01 X4.6719 Y-16.3327 F200.00
G00 Z2.5400
G00 X6.1092 Y-15.5301
G01 F100.00
G01 Z-0.1000
G01 F200.00
G01 X11.9448 Y-15.5301 F200.00
G01 X13.4861 Y-17.0714 F200.00
G01 X13.4827 Y-17.0952 F200.00
G01 X13.4800 Y-17.1450 F200.00
G01 X13.4838 Y-17.2049 F200.00
G01 X13.4923 Y-17.2540 F200.00
G01 X13.5060 Y-17.3020 F200.00
G01 X13.5285 Y-17.3576 F200.00
G01 X13.5551 Y-17.4057 F200.00
G01 X13.5902 Y-17.4544 F200.00
G01 X13.6235 Y-17.4915 F200.00
G01 X13.6606 Y-17.5248 F200.00
G01 X13.7051 Y-17.5571 F200.00
G01 X13.7574 Y-17.5865 F200.00
G01 X13.8082 Y-17.6075 F200.00
G01 X13.8610 Y-17.6227 F200.00
G01 X13.9151 Y-17.6319 F200.00
G01 X13.9700 Y-17.6350 F200.00
G01 X14.0249 Y-17.6319 F200.00
G01 X14.0790 Y-17.6227 F200.00
G01 X14.1366 Y-17.6057 F200.00
G01 X14.1826 Y-17.5865 F200.00
G01 X14.2349 Y-17.5571 F200.00
G01 X14.2755 Y-17.5281 F200.00
G01 X14.3128 Y-17.4950 F200.00
G01 X14.3498 Y-17.4544 F200.00
G01 X14.3849 Y-17.4057 F200.00
G01 X14.4115 Y-17.3576 F200.00
G01 X14.4325 Y-17.3068 F200.00
G01 X14.4477 Y-17.2540 F200.00
G01 X14.4569 Y-17.1999 F200.00
G01 X14.4599 Y-17.1400 F200.00
G01 X14.4569 Y-17.0901 F200.00
G01 X14.4487 Y-17.0409 F200.00
G01 X14.4340 Y-16.9880 F200.00
G01 X14.4115 Y-16.9324 F200.00
G01 X14.3849 Y-16.8843 F200.00
G01 X14.3531 Y-16.8395 F200.00
G01 X14.3165 Y-16.7985 F200.00
G01 X14.2755 Y-16.7619 F200.00
G01 X14.2307 Y-16.7301 F200.00
G01 X14.1826 Y-16.7035 F200.00
G01 X14.1318 Y-16.6825 F200.00
G01 X14.0790 Y-16.6673 F200.00
G01 X14.0249 Y-16.6581 F200.00
G01 X13.9700 Y-16.6550 F200.00
G01 X13.9202 Y-16.6577 F200.00
G01 X13.8964 Y-16.6611 F200.00
G01 X12.2683 Y-15.0331 F200.00
G01 X12.2418 Y-15.0102 F200.00
G01 X12.2193 Y-14.9944 F200.00
G01 X12.1954 Y-14.9809 F200.00
G01 X12.1608 Y-14.9662 F200.00
G01 X12.1296 Y-14.9572 F200.00
G01 X12.0975 Y-14.9517 F200.00
G01 X12.0650 Y-14.9499 F200.00
G01 X6.1092 Y-14.9499 F200.00
G01 X6.0948 Y-14.9306 F200.00
G01 X6.0615 Y-14.8935 F200.00
G01 X6.0205 Y-14.8569 F200.00
G01 X5.9757 Y-14.8251 F200.00
G01 X5.9276 Y-14.7985 F200.00
G01 X5.8768 Y-14.7775 F200.00
G01 X5.8240 Y-14.7623 F200.00
G01 X5.7699 Y-14.7531 F200.00
G01 X5.7150 Y-14.7500 F200.00
G01 X5.6601 Y-14.7531 F200.00
G01 X5.6060 Y-14.7623 F200.00
G01 X5.5532 Y-14.7775 F200.00
G01 X5.5024 Y-14.7985 F200.00
G01 X5.4543 Y-14.8251 F200.00
G01 X5.4095 Y-14.8569 F200.00
G01 X5.3685 Y-14.8935 F200.00
G01 X5.3319 Y-14.9345 F200.00
G01 X5.3001 Y-14.9793 F200.00
G01 X5.2735 Y-15.0274 F200.00
G01 X5.2525 Y-15.0782 F200.00
G01 X5.2385 Y-15.1261 F200.00
G01 X5.2363 Y-15.1359 F200.00
G01 X5.2277 Y-15.1902 F200.00
G01 X5.2250 Y-15.2400 F200.00
G01 X5.2281 Y-15.2949 F200.00
G01 X5.2373 Y-15.3490 F200.00
G01 X5.2525 Y-15.4018 F200.00
G01 X5.2735 Y-15.4526 F200.00
G01 X5.2975 Y-15.4963 F200.00
G01 X5.3029 Y-15.5049 F200.00
G01 X5.3352 Y-15.5494 F200.00
G01 X5.3685 Y-15.5865 F200.00
G01 X5.4095 Y-15.6231 F200.00
G01 X5.4543 Y-15.6549 F200.00
G01 X5.4979 Y-15.6792 F200.00
G01 X5.5070 Y-15.6835 F200.00
G01 X5.5580 Y-15.7040 F200.00
G01 X5.6060 Y-15.7177 F200.00
G01 X5.6601 Y-15.7269 F200.00
G01 X5.7150 Y-15.7300 F200.00
G01 X5.7699 Y-15.7269 F200.00
G01 X5.8240 Y-15.7177 F200.00
G01 X5.8768 Y-15.7025 F200.00
G01 X5.9276 Y-15.6815 F200.00
G01 X5.9713 Y-15.6575 F200.00
G01 X6.0205 Y-15.6231 F200.00
G01 X6.0578 Y-15.5900 F200.00
G01 X6.0948 Y-15.5494 F200.00
G01 X6.1092 Y-15.5301 F200.00
G01 X11.9448 Y-15.5301 F200.00
G00 Z2.5400
G00 X6.1805 Y-15.6831
G01 F100.00
G01 Z-0.1000
G01 F200.00
G01 X11.8815 Y-15.6831 F200.00
G01 X13.3275 Y-17.1291 F200.00
G01 X13.3274 Y-17.1586 F200.00
G01 X13.3310 Y-17.2170 F200.00
G01 X13.3431 Y-17.2881 F200.00
G01 X13.3631 Y-17.3574 F200.00
G01 X13.3851 Y-17.4115 F200.00
G01 X13.3969 Y-17.4361 F200.00
G01 X13.4186 Y-17.4754 F200.00
G01 X13.4331 Y-17.4984 F200.00
G01 X13.4673 Y-17.5459 F200.00
G01 X13.5060 Y-17.5898 F200.00
G01 X13.5252 Y-17.6090 F200.00
G01 X13.5691 Y-17.6477 F200.00
G01 X13.6166 Y-17.6819 F200.00
G01 X13.6396 Y-17.6964 F200.00
G01 X13.6910 Y-17.7243 F200.00
G01 X13.7576 Y-17.7519 F200.00
G01 X13.8269 Y-17.7719 F200.00
G01 X13.8845 Y-17.7821 F200.00
G01 X13.9116 Y-17.7851 F200.00
G01 X13.9564 Y-17.7876 F200.00
G01 X13.9836 Y-17.7876 F200.00
G01 X14.0420 Y-17.7840 F200.00
G01 X14.0997 Y-17.7745 F200.00
G01 X14.1263 Y-17.7685 F200.00
G01 X14.1824 Y-17.7519 F200.00
G01 X14.2365 Y-17.7299 F200.00
G01 X14.2611 Y-17.7181 F200.00
G01 X14.3121 Y-17.6894 F200.00
G01 X14.3709 Y-17.6477 F200.00
G01 X14.4247 Y-17.5997 F200.00
G01 X14.4727 Y-17.5459 F200.00
G01 X14.5144 Y-17.4871 F200.00
G01 X14.5493 Y-17.4240 F200.00
G01 X14.5769 Y-17.3574 F200.00
G01 X14.5935 Y-17.3013 F200.00
G01 X14.5995 Y-17.2747 F200.00
G01 X14.6090 Y-17.2170 F200.00
G01 X14.6126 Y-17.1586 F200.00
G01 X14.6126 Y-17.1314 F200.00
G01 X14.6090 Y-17.0730 F200.00
G01 X14.5995 Y-17.0153 F200.00
G01 X14.5935 Y-16.9887 F200.00
G01 X14.5811 Y-16.9456 F200.00
G01 X14.5721 Y-16.9199 F200.00
G01 X14.5493 Y-16.8660 F200.00
G01 X14.5144 Y-16.8029 F200.00
G01 X14.4727 Y-16.7441 F200.00
G01 X14.4247 Y-16.6903 F200.00
G01 X14.3709 Y-16.6423 F200.00
G01 X14.3121 Y-16.6006 F200.00
G01 X14.2490 Y-16.5657 F200.00
G01 X14.1951 Y-16.5429 F200.00
G01 X14.1694 Y-16.5339 F200.00
G01 X14.1131 Y-16.5181 F200.00
G01 X14.0555 Y-16.5079 F200.00
G01 X14.0284 Y-16.5049 F200.00
G01 X13.9836 Y-16.5024 F200.00
G01 X13.9541 Y-16.5025 F200.00
G01 X12.3734 Y-14.9219 F200.00
G01 X12.3517 Y-14.9024 F200.00
G01 X12.3304 Y-14.8854 F200.00
G01 X12.3007 Y-14.8648 F200.00
G01 X12.2694 Y-14.8470 F200.00
G01 X12.2448 Y-14.8352 F200.00
G01 X12.2113 Y-14.8218 F200.00
G01 X12.1768 Y-14.8114 F200.00
G01 X12.1502 Y-14.8054 F200.00
G01 X12.1146 Y-14.7997 F200.00
G01 X12.0650 Y-14.7969 F200.00
G01 X6.1805 Y-14.7969 F200.00
G01 X6.1598 Y-14.7760 F200.00
G01 X6.1263 Y-14.7461 F200.00
G01 X6.1050 Y-14.7291 F200.00
G01 X6.0571 Y-14.6956 F200.00
G01 X6.0061 Y-14.6669 F200.00
G01 X5.9815 Y-14.6551 F200.00
G01 X5.9274 Y-14.6331 F200.00
G01 X5.8581 Y-14.6131 F200.00
G01 X5.7870 Y-14.6010 F200.00
G01 X5.7150 Y-14.5970 F200.00
G01 X5.6430 Y-14.6010 F200.00
G01 X5.5853 Y-14.6105 F200.00
G01 X5.5587 Y-14.6165 F200.00
G01 X5.5156 Y-14.6289 F200.00
G01 X5.4899 Y-14.6379 F200.00
G01 X5.4360 Y-14.6607 F200.00
G01 X5.3729 Y-14.6956 F200.00
G01 X5.3141 Y-14.7373 F200.00
G01 X5.2603 Y-14.7853 F200.00
G01 X5.2123 Y-14.8391 F200.00
G01 X5.1781 Y-14.8866 F200.00
G01 X5.1636 Y-14.9096 F200.00
G01 X5.1419 Y-14.9489 F200.00
G01 X5.1301 Y-14.9735 F200.00
G01 X5.1081 Y-15.0276 F200.00
G01 X5.0881 Y-15.0969 F200.00
G01 X5.0760 Y-15.1680 F200.00
G01 X5.0720 Y-15.2400 F200.00
G01 X5.0760 Y-15.3120 F200.00
G01 X5.0881 Y-15.3831 F200.00
G01 X5.1081 Y-15.4524 F200.00
G01 X5.1301 Y-15.5065 F200.00
G01 X5.1419 Y-15.5311 F200.00
G01 X5.1636 Y-15.5704 F200.00
G01 X5.1781 Y-15.5934 F200.00
G01 X5.2123 Y-15.6409 F200.00
G01 X5.2603 Y-15.6947 F200.00
G01 X5.3141 Y-15.7427 F200.00
G01 X5.3729 Y-15.7844 F200.00
G01 X5.4360 Y-15.8193 F200.00
G01 X5.4899 Y-15.8421 F200.00
G01 X5.5156 Y-15.8511 F200.00
G01 X5.5587 Y-15.8635 F200.00
G01 X5.5853 Y-15.8695 F200.00
G01 X5.6430 Y-15.8790 F200.00
G01 X5.7150 Y-15.8830 F200.00
G01 X5.7870 Y-15.8790 F200.00
G01 X5.8581 Y-15.8669 F200.00
G01 X5.9274 Y-15.8469 F200.00
G01 X5.9815 Y-15.8249 F200.00
G01 X6.0061 Y-15.8131 F200.00
G01 X6.0571 Y-15.7844 F200.00
G01 X6.1050 Y-15.7509 F200.00
G01 X6.1263 Y-15.7339 F200.00
G01 X6.1598 Y-15.7040 F200.00
G01 X6.1805 Y-15.6831 F200.00
G01 X11.8815 Y-15.6831 F200.00
G00 Z2.5400
G00 X6.1092 Y-12.4099
G01 F100.00
G01 Z-0.1000
G01 F200.00
G01 X6.0948 Y-12.3906 F200.00
G01 X6.0578 Y-12.3500 F200.00
G01 X6.0205 Y-12.3169 F200.00
G01 X5.9713 Y-12.2825 F200.00
G01 X5.9276 Y-12.2585 F200.00
G01 X5.8768 Y-12.2375 F200.00
G01 X5.8240 Y-12.2223 F200.00
G01 X5.7699 Y-12.2131 F200.00
G01 X5.7150 Y-12.2100 F200.00
G01 X5.6601 Y-12.2131 F200.00
G01 X5.6060 Y-12.2223 F200.00
G01 X5.5580 Y-12.2360 F200.00
G01 X5.5070 Y-12.2565 F200.00
G01 X5.4979 Y-12.2608 F200.00
G01 X5.4543 Y-12.2851 F200.00
G01 X5.4095 Y-12.3169 F200.00
G01 X5.3685 Y-12.3535 F200.00
G01 X5.3352 Y-12.3906 F200.00
G01 X5.3029 Y-12.4351 F200.00
G01 X5.2975 Y-12.4437 F200.00
G01 X5.2735 Y-12.4874 F200.00
G01 X5.2525 Y-12.5382 F200.00
G01 X5.2373 Y-12.5910 F200.00
G01 X5.2281 Y-12.6451 F200.00
G01 X5.2250 Y-12.7000 F200.00
G01 X5.2277 Y-12.7498 F200.00
G01 X5.2363 Y-12.8041 F200.00
G01 X5.2385 Y-12.8139 F200.00
G01 X5.2525 Y-12.8618 F200.00
G01 X5.2735 Y-12.9126 F200.00
G01 X5.3001 Y-12.9607 F200.00
G01 X5.3319 Y-13.0055 F200.00
G01 X5.3685 Y-13.0465 F200.00
G01 X5.4095 Y-13.0831 F200.00
G01 X5.4543 Y-13.1149 F200.00
G01 X5.5024 Y-13.1415 F200.00
G01 X5.5532 Y-13.1625 F200.00
G01 X5.6060 Y-13.1777 F200.00
G01 X5.6601 Y-13.1869 F200.00
G01 X5.7150 Y-13.1900 F200.00
G01 X5.7699 Y-13.1869 F200.00
G01 X5.8240 Y-13.1777 F200.00
G01 X5.8768 Y-13.1625 F200.00
G01 X5.9276 Y-13.1415 F200.00
G01 X5.9757 Y-13.1149 F200.00
G01 X6.0205 Y-13.0831 F200.00
G01 X6.0615 Y-13.0465 F200.00
G01 X6.0948 Y-13.0094 F200.00
G01 X6.1092 Y-12.9901 F200.00
G01 X9.6775 Y-12.9901 F200.00
G01 X9.7150 Y-12.9876 F200.00
G01 X9.7421 Y-12.9828 F200.00
G01 X9.7685 Y-12.9754 F200.00
G01 X9.8034 Y-12.9614 F200.00
G01 X9.8360 Y-12.9428 F200.00
G01 X9.8584 Y-12.9268 F200.00
G01 X9.8808 Y-12.9069 F200.00
G01 X10.7928 Y-11.9950 F200.00
G01 X11.1707 Y-11.9949 F200.00
G01 X11.1965 Y-11.9935 F200.00
G01 X11.2265 Y-11.9891 F200.00
G01 X11.2559 Y-11.9817 F200.00
G01 X11.2844 Y-11.9715 F200.00
G01 X11.3156 Y-11.9564 F200.00
G01 X11.3378 Y-11.9430 F200.00
G01 X11.3586 Y-11.9276 F200.00
G01 X11.3846 Y-11.9046 F200.00
G01 X11.4076 Y-11.8786 F200.00
G01 X11.4230 Y-11.8578 F200.00
G01 X11.4364 Y-11.8356 F200.00
G01 X11.4515 Y-11.8044 F200.00
G01 X11.4629 Y-11.7716 F200.00
G01 X11.4691 Y-11.7465 F200.00
G01 X11.4731 Y-11.7201 F200.00
G01 X11.6708 Y-11.7201 F200.00
G01 X11.6852 Y-11.7394 F200.00
G01 X11.7222 Y-11.7800 F200.00
G01 X11.7595 Y-11.8131 F200.00
G01 X11.8043 Y-11.8449 F200.00
G01 X11.8524 Y-11.8715 F200.00
G01 X11.8984 Y-11.8907 F200.00
G01 X11.9560 Y-11.9077 F200.00
G01 X12.0152 Y-11.9173 F200.00
G01 X12.0650 Y-11.9200 F200.00
G01 X12.1148 Y-11.9173 F200.00
G01 X12.1740 Y-11.9077 F200.00
G01 X12.2268 Y-11.8925 F200.00
G01 X12.2776 Y-11.8715 F200.00
G01 X12.3213 Y-11.8475 F200.00
G01 X12.3705 Y-11.8131 F200.00
G01 X12.4115 Y-11.7765 F200.00
G01 X12.4448 Y-11.7394 F200.00
G01 X12.4799 Y-11.6907 F200.00
G01 X12.5065 Y-11.6426 F200.00
G01 X12.5257 Y-11.5966 F200.00
G01 X12.5427 Y-11.5390 F200.00
G01 X12.5519 Y-11.4849 F200.00
G01 X12.5549 Y-11.4350 F200.00
G01 X12.5549 Y-11.4250 F200.00
G01 X12.5512 Y-11.3701 F200.00
G01 X12.5415 Y-11.3161 F200.00
G01 X12.5275 Y-11.2682 F200.00
G01 X12.5085 Y-11.2220 F200.00
G01 X12.4799 Y-11.1693 F200.00
G01 X12.4448 Y-11.1206 F200.00
G01 X12.4115 Y-11.0835 F200.00
G01 X12.3744 Y-11.0502 F200.00
G01 X12.3257 Y-11.0151 F200.00
G01 X12.2730 Y-10.9865 F200.00
G01 X12.2268 Y-10.9675 F200.00
G01 X12.1789 Y-10.9535 F200.00
G01 X12.1199 Y-10.9431 F200.00
G01 X12.0650 Y-10.9400 F200.00
G01 X12.0101 Y-10.9431 F200.00
G01 X11.9511 Y-10.9535 F200.00
G01 X11.9032 Y-10.9675 F200.00
G01 X11.8570 Y-10.9865 F200.00
G01 X11.8043 Y-11.0151 F200.00
G01 X11.7595 Y-11.0469 F200.00
G01 X11.7222 Y-11.0800 F200.00
G01 X11.6852 Y-11.1206 F200.00
G01 X11.6708 Y-11.1399 F200.00
G01 X11.4731 Y-11.1399 F200.00
G01 X11.4691 Y-11.1135 F200.00
G01 X11.4629 Y-11.0884 F200.00
G01 X11.4515 Y-11.0556 F200.00
G01 X11.4385 Y-11.0282 F200.00
G01 X11.4253 Y-11.0060 F200.00
G01 X11.4049 Y-10.9779 F200.00
G01 X11.3814 Y-10.9524 F200.00
G01 X11.3621 Y-10.9351 F200.00
G01 X11.3378 Y-10.9170 F200.00
G01 X11.3079 Y-10.8995 F200.00
G01 X11.2844 Y-10.8885 F200.00
G01 X11.2601 Y-10.8797 F200.00
G01 X11.2221 Y-10.8702 F200.00
G01 X11.1965 Y-10.8665 F200.00
G01 X11.1685 Y-10.8650 F200.00
G01 X10.7288 Y-10.8650 F200.00
G01 X10.6985 Y-10.8665 F200.00
G01 X10.6729 Y-10.8702 F200.00
G01 X10.6391 Y-10.8783 F200.00
G01 X10.6066 Y-10.8903 F200.00
G01 X10.5832 Y-10.9015 F200.00
G01 X10.5610 Y-10.9147 F200.00
G01 X10.5329 Y-10.9351 F200.00
G01 X10.5074 Y-10.9586 F200.00
G01 X10.4901 Y-10.9779 F200.00
G01 X10.4746 Y-10.9986 F200.00
G01 X10.4565 Y-11.0282 F200.00
G01 X10.4419 Y-11.0597 F200.00
G01 X10.4333 Y-11.0841 F200.00
G01 X10.4259 Y-11.1135 F200.00
G01 X10.4215 Y-11.1435 F200.00
G01 X10.4201 Y-11.1693 F200.00
G01 X10.4200 Y-11.5472 F200.00
G01 X9.5573 Y-12.4099 F200.00
G01 X6.1092 Y-12.4099 F200.00
G01 X6.0948 Y-12.3906 F200.00
G00 Z2.5400
G00 X6.1805 Y-12.2569
G01 F100.00
G01 Z-0.1000
G01 F200.00
G01 X6.1598 Y-12.2360 F200.00
G01 X6.1263 Y-12.2061 F200.00
G01 X6.1050 Y-12.1891 F200.00
G01 X6.0571 Y-12.1556 F200.00
G01 X6.0061 Y-12.1269 F200.00
G01 X5.9815 Y-12.1151 F200.00
G01 X5.9274 Y-12.0931 F200.00
G01 X5.8581 Y-12.0731 F200.00
G01 X5.7870 Y-12.0610 F200.00
G01 X5.7150 Y-12.0570 F200.00
G01 X5.6430 Y-12.0610 F200.00
G01 X5.5853 Y-12.0705 F200.00
G01 X5.5587 Y-12.0765 F200.00
G01 X5.5156 Y-12.0889 F200.00
G01 X5.4899 Y-12.0979 F200.00
G01 X5.4360 Y-12.1207 F200.00
G01 X5.3729 Y-12.1556 F200.00
G01 X5.3141 Y-12.1973 F200.00
G01 X5.2603 Y-12.2453 F200.00
G01 X5.2123 Y-12.2991 F200.00
G01 X5.1781 Y-12.3466 F200.00
G01 X5.1636 Y-12.3696 F200.00
G01 X5.1419 Y-12.4089 F200.00
G01 X5.1301 Y-12.4335 F200.00
G01 X5.1081 Y-12.4876 F200.00
G01 X5.0881 Y-12.5569 F200.00
G01 X5.0760 Y-12.6280 F200.00
G01 X5.0720 Y-12.7000 F200.00
G01 X5.0760 Y-12.7720 F200.00
G01 X5.0881 Y-12.8431 F200.00
G01 X5.1081 Y-12.9124 F200.00
G01 X5.1301 Y-12.9665 F200.00
G01 X5.1419 Y-12.9911 F200.00
G01 X5.1636 Y-13.0304 F200.00
G01 X5.1781 Y-13.0534 F200.00
G01 X5.2123 Y-13.1009 F200.00
G01 X5.2603 Y-13.1547 F200.00
G01 X5.3141 Y-13.2027 F200.00
G01 X5.3729 Y-13.2444 F200.00
G01 X5.4360 Y-13.2793 F200.00
G01 X5.4899 Y-13.3021 F200.00
G01 X5.5156 Y-13.3111 F200.00
G01 X5.5587 Y-13.3235 F200.00
G01 X5.5853 Y-13.3295 F200.00
G01 X5.6430 Y-13.3390 F200.00
G01 X5.7150 Y-13.3430 F200.00
G01 X5.7870 Y-13.3390 F200.00
G01 X5.8581 Y-13.3269 F200.00
G01 X5.9274 Y-13.3069 F200.00
G01 X5.9815 Y-13.2849 F200.00
G01 X6.0061 Y-13.2731 F200.00
G01 X6.0571 Y-13.2444 F200.00
G01 X6.1050 Y-13.2109 F200.00
G01 X6.1263 Y-13.1939 F200.00
G01 X6.1598 Y-13.1640 F200.00
G01 X6.1805 Y-13.1431 F200.00
G01 X9.6775 Y-13.1431 F200.00
G01 X9.7271 Y-13.1403 F200.00
G01 X9.7627 Y-13.1346 F200.00
G01 X9.7893 Y-13.1286 F200.00
G01 X9.8238 Y-13.1182 F200.00
G01 X9.8573 Y-13.1048 F200.00
G01 X9.8819 Y-13.0930 F200.00
G01 X9.9132 Y-13.0752 F200.00
G01 X9.9429 Y-13.0546 F200.00
G01 X9.9642 Y-13.0376 F200.00
G01 X9.9908 Y-13.0133 F200.00
G01 X10.8561 Y-12.1480 F200.00
G01 X11.1662 Y-12.1480 F200.00
G01 X11.1996 Y-12.1467 F200.00
G01 X11.2233 Y-12.1443 F200.00
G01 X11.2563 Y-12.1391 F200.00
G01 X11.3003 Y-12.1281 F200.00
G01 X11.3318 Y-12.1171 F200.00
G01 X11.3430 Y-12.1129 F200.00
G01 X11.3733 Y-12.0988 F200.00
G01 X11.3839 Y-12.0935 F200.00
G01 X11.4127 Y-12.0766 F200.00
G01 X11.4228 Y-12.0702 F200.00
G01 X11.4498 Y-12.0505 F200.00
G01 X11.4592 Y-12.0432 F200.00
G01 X11.4841 Y-12.0210 F200.00
G01 X11.4928 Y-12.0128 F200.00
G01 X11.5154 Y-11.9882 F200.00
G01 X11.5232 Y-11.9792 F200.00
G01 X11.5433 Y-11.9525 F200.00
G01 X11.5502 Y-11.9428 F200.00
G01 X11.5676 Y-11.9143 F200.00
G01 X11.5735 Y-11.9039 F200.00
G01 X11.5884 Y-11.8731 F200.00
G01 X11.5995 Y-11.8731 F200.00
G01 X11.6202 Y-11.8940 F200.00
G01 X11.6641 Y-11.9327 F200.00
G01 X11.7116 Y-11.9669 F200.00
G01 X11.7346 Y-11.9814 F200.00
G01 X11.7860 Y-12.0093 F200.00
G01 X11.8526 Y-12.0369 F200.00
G01 X11.9087 Y-12.0535 F200.00
G01 X11.9353 Y-12.0595 F200.00
G01 X11.9930 Y-12.0690 F200.00
G01 X12.0650 Y-12.0730 F200.00
G01 X12.1234 Y-12.0701 F200.00
G01 X12.1505 Y-12.0671 F200.00
G01 X12.2081 Y-12.0569 F200.00
G01 X12.2644 Y-12.0411 F200.00
G01 X12.2901 Y-12.0321 F200.00
G01 X12.3440 Y-12.0093 F200.00
G01 X12.4071 Y-11.9744 F200.00
G01 X12.4550 Y-11.9409 F200.00
G01 X12.4763 Y-11.9239 F200.00
G01 X12.5197 Y-11.8847 F200.00
G01 X12.5589 Y-11.8413 F200.00
G01 X12.5759 Y-11.8200 F200.00
G01 X12.6094 Y-11.7721 F200.00
G01 X12.6443 Y-11.7090 F200.00
G01 X12.6671 Y-11.6551 F200.00
G01 X12.6761 Y-11.6294 F200.00
G01 X12.6919 Y-11.5731 F200.00
G01 X12.7021 Y-11.5155 F200.00
G01 X12.7051 Y-11.4884 F200.00
G01 X12.7080 Y-11.4300 F200.00
G01 X12.7040 Y-11.3580 F200.00
G01 X12.6945 Y-11.3003 F200.00
G01 X12.6885 Y-11.2737 F200.00
G01 X12.6719 Y-11.2176 F200.00
G01 X12.6499 Y-11.1635 F200.00
G01 X12.6381 Y-11.1389 F200.00
G01 X12.6094 Y-11.0879 F200.00
G01 X12.5677 Y-11.0291 F200.00
G01 X12.5290 Y-10.9852 F200.00
G01 X12.5098 Y-10.9660 F200.00
G01 X12.4659 Y-10.9273 F200.00
G01 X12.4184 Y-10.8931 F200.00
G01 X12.3954 Y-10.8786 F200.00
G01 X12.3440 Y-10.8507 F200.00
G01 X12.2901 Y-10.8279 F200.00
G01 X12.2644 Y-10.8189 F200.00
G01 X12.2213 Y-10.8065 F200.00
G01 X12.1947 Y-10.8005 F200.00
G01 X12.1370 Y-10.7910 F200.00
G01 X12.0786 Y-10.7874 F200.00
G01 X12.0514 Y-10.7874 F200.00
G01 X11.9930 Y-10.7910 F200.00
G01 X11.9219 Y-10.8031 F200.00
G01 X11.8526 Y-10.8231 F200.00
G01 X11.7985 Y-10.8451 F200.00
G01 X11.7739 Y-10.8569 F200.00
G01 X11.7229 Y-10.8856 F200.00
G01 X11.6750 Y-10.9191 F200.00
G01 X11.6537 Y-10.9361 F200.00
G01 X11.6202 Y-10.9660 F200.00
G01 X11.5995 Y-10.9869 F200.00
G01 X11.5884 Y-10.9869 F200.00
G01 X11.5735 Y-10.9561 F200.00
G01 X11.5676 Y-10.9457 F200.00
G01 X11.5502 Y-10.9172 F200.00
G01 X11.5433 Y-10.9075 F200.00
G01 X11.5232 Y-10.8808 F200.00
G01 X11.5010 Y-10.8559 F200.00
G01 X11.4928 Y-10.8472 F200.00
G01 X11.4682 Y-10.8246 F200.00
G01 X11.4498 Y-10.8095 F200.00
G01 X11.4228 Y-10.7898 F200.00
G01 X11.3839 Y-10.7665 F200.00
G01 X11.3430 Y-10.7471 F200.00
G01 X11.3003 Y-10.7319 F200.00
G01 X11.2680 Y-10.7235 F200.00
G01 X11.2446 Y-10.7188 F200.00
G01 X11.2115 Y-10.7142 F200.00
G01 X11.1722 Y-10.7121 F200.00
G01 X10.7288 Y-10.7120 F200.00
G01 X10.6954 Y-10.7133 F200.00
G01 X10.6717 Y-10.7157 F200.00
G01 X10.6387 Y-10.7209 F200.00
G01 X10.6062 Y-10.7287 F200.00
G01 X10.5947 Y-10.7319 F200.00
G01 X10.5632 Y-10.7429 F200.00
G01 X10.5411 Y-10.7520 F200.00
G01 X10.5111 Y-10.7665 F200.00
G01 X10.4722 Y-10.7898 F200.00
G01 X10.4358 Y-10.8168 F200.00
G01 X10.4022 Y-10.8472 F200.00
G01 X10.3718 Y-10.8808 F200.00
G01 X10.3517 Y-10.9075 F200.00
G01 X10.3384 Y-10.9273 F200.00
G01 X10.3215 Y-10.9561 F200.00
G01 X10.3070 Y-10.9861 F200.00
G01 X10.3021 Y-10.9970 F200.00
G01 X10.2906 Y-11.0284 F200.00
G01 X10.2869 Y-11.0397 F200.00
G01 X10.2785 Y-11.0720 F200.00
G01 X10.2759 Y-11.0837 F200.00
G01 X10.2707 Y-11.1167 F200.00
G01 X10.2683 Y-11.1404 F200.00
G01 X10.2670 Y-11.1737 F200.00
G01 X10.2670 Y-11.4839 F200.00
G01 X10.0527 Y-11.6982 F200.00
G01 X10.0529 Y-11.1678 F200.00
G01 X10.0517 Y-11.1404 F200.00
G01 X10.0493 Y-11.1167 F200.00
G01 X10.0441 Y-11.0837 F200.00
G01 X10.0363 Y-11.0512 F200.00
G01 X10.0294 Y-11.0284 F200.00
G01 X10.0179 Y-10.9970 F200.00
G01 X9.9985 Y-10.9561 F200.00
G01 X9.9752 Y-10.9172 F200.00
G01 X9.9482 Y-10.8808 F200.00
G01 X9.9178 Y-10.8472 F200.00
G01 X9.8842 Y-10.8168 F200.00
G01 X9.8478 Y-10.7898 F200.00
G01 X9.8156 Y-10.7703 F200.00
G01 X9.8155 Y-10.7239 F200.00
G01 X9.8128 Y-10.6811 F200.00
G01 X9.8045 Y-10.6321 F200.00
G01 X9.7949 Y-10.5974 F200.00
G01 X9.7859 Y-10.5716 F200.00
G01 X9.7717 Y-10.5385 F200.00
G01 X9.7477 Y-10.4950 F200.00
G01 X9.7278 Y-10.4663 F200.00
G01 X9.7542 Y-10.4832 F200.00
G01 X9.8056 Y-10.5111 F200.00
G01 X9.8595 Y-10.5339 F200.00
G01 X9.8852 Y-10.5429 F200.00
G01 X9.9415 Y-10.5587 F200.00
G01 X9.9991 Y-10.5689 F200.00
G01 X10.0262 Y-10.5719 F200.00
G01 X10.0846 Y-10.5748 F200.00
G01 X10.1430 Y-10.5719 F200.00
G01 X10.1701 Y-10.5689 F200.00
G01 X10.2277 Y-10.5587 F200.00
G01 X10.2840 Y-10.5429 F200.00
G01 X10.3097 Y-10.5339 F200.00
G01 X10.3636 Y-10.5111 F200.00
G01 X10.4149 Y-10.4832 F200.00
G01 X10.4380 Y-10.4687 F200.00
G01 X10.4855 Y-10.4345 F200.00
G01 X10.5293 Y-10.3958 F200.00
G01 X10.5486 Y-10.3766 F200.00
G01 X10.5873 Y-10.3327 F200.00
G01 X10.6214 Y-10.2852 F200.00
G01 X10.6359 Y-10.2622 F200.00
G01 X10.6639 Y-10.2108 F200.00
G01 X10.6866 Y-10.1569 F200.00
G01 X10.6956 Y-10.1312 F200.00
G01 X10.7115 Y-10.0749 F200.00
G01 X10.7216 Y-10.0173 F200.00
G01 X10.7247 Y-9.9902 F200.00
G01 X10.7276 Y-9.9318 F200.00
G01 X10.7247 Y-9.8734 F200.00
G01 X10.7216 Y-9.8463 F200.00
G01 X10.7115 Y-9.7887 F200.00
G01 X10.6956 Y-9.7324 F200.00
G01 X10.6866 Y-9.7067 F200.00
G01 X10.6639 Y-9.6528 F200.00
G01 X10.6290 Y-9.5897 F200.00
G01 X10.5955 Y-9.5418 F200.00
G01 X10.5785 Y-9.5205 F200.00
G01 X10.5392 Y-9.4771 F200.00
G01 X10.4855 Y-9.4291 F200.00
G01 X10.4380 Y-9.3949 F200.00
G01 X10.4149 Y-9.3804 F200.00
G01 X10.3636 Y-9.3525 F200.00
G01 X10.2969 Y-9.3249 F200.00
G01 X10.2277 Y-9.3049 F200.00
G01 X10.1701 Y-9.2948 F200.00
G01 X10.1430 Y-9.2917 F200.00
G01 X10.0982 Y-9.2892 F200.00
G01 X10.0687 Y-9.2893 F200.00
G01 X9.9764 Y-9.1970 F200.00
G01 X9.9989 Y-9.1860 F200.00
G01 X10.0277 Y-9.1691 F200.00
G01 X10.0475 Y-9.1558 F200.00
G01 X10.0742 Y-9.1357 F200.00
G01 X10.0991 Y-9.1135 F200.00
G01 X10.1160 Y-9.0966 F200.00
G01 X10.1382 Y-9.0717 F200.00
G01 X10.1583 Y-9.0450 F200.00
G01 X10.1716 Y-9.0252 F200.00
G01 X10.1885 Y-8.9964 F200.00
G01 X10.2079 Y-8.9555 F200.00
G01 X10.2194 Y-8.9241 F200.00
G01 X10.2263 Y-8.9013 F200.00
G01 X10.2341 Y-8.8688 F200.00
G01 X10.2393 Y-8.8358 F200.00
G01 X10.2417 Y-8.8121 F200.00
G01 X10.2430 Y-8.7787 F200.00
G01 X10.2430 Y-8.3413 F200.00
G01 X10.2417 Y-8.3079 F200.00
G01 X10.2393 Y-8.2842 F200.00
G01 X10.2341 Y-8.2512 F200.00
G01 X10.2263 Y-8.2187 F200.00
G01 X10.2194 Y-8.1959 F200.00
G01 X10.2079 Y-8.1645 F200.00
G01 X10.1885 Y-8.1236 F200.00
G01 X10.1716 Y-8.0948 F200.00
G01 X10.1583 Y-8.0750 F200.00
G01 X10.1382 Y-8.0483 F200.00
G01 X10.1078 Y-8.0147 F200.00
G01 X10.0832 Y-7.9921 F200.00
G01 X10.0742 Y-7.9843 F200.00
G01 X10.0475 Y-7.9642 F200.00
G01 X10.0277 Y-7.9509 F200.00
G01 X9.9989 Y-7.9340 F200.00
G01 X9.9580 Y-7.9146 F200.00
G01 X9.9153 Y-7.8994 F200.00
G01 X9.8713 Y-7.8884 F200.00
G01 X9.8265 Y-7.8817 F200.00
G01 X9.7812 Y-7.8795 F200.00
G01 X9.2688 Y-7.8795 F200.00
G01 X9.2354 Y-7.8808 F200.00
G01 X9.2117 Y-7.8832 F200.00
G01 X9.1787 Y-7.8884 F200.00
G01 X9.1347 Y-7.8994 F200.00
G01 X9.0920 Y-7.9146 F200.00
G01 X9.0511 Y-7.9340 F200.00
G01 X9.0122 Y-7.9573 F200.00
G01 X8.9758 Y-7.9843 F200.00
G01 X8.9422 Y-8.0147 F200.00
G01 X8.9196 Y-8.0393 F200.00
G01 X8.9118 Y-8.0483 F200.00
G01 X8.8917 Y-8.0750 F200.00
G01 X8.8784 Y-8.0948 F200.00
G01 X8.8615 Y-8.1236 F200.00
G01 X8.8562 Y-8.1342 F200.00
G01 X8.8421 Y-8.1645 F200.00
G01 X8.8379 Y-8.1757 F200.00
G01 X8.8269 Y-8.2072 F200.00
G01 X8.8159 Y-8.2512 F200.00
G01 X8.8092 Y-8.2960 F200.00
G01 X8.8071 Y-8.3353 F200.00
G01 X8.8071 Y-8.7847 F200.00
G01 X8.8092 Y-8.8240 F200.00
G01 X8.8138 Y-8.8571 F200.00
G01 X8.8185 Y-8.8805 F200.00
G01 X8.8269 Y-8.9128 F200.00
G01 X8.8421 Y-8.9555 F200.00
G01 X8.8615 Y-8.9964 F200.00
G01 X8.8848 Y-9.0353 F200.00
G01 X8.9045 Y-9.0623 F200.00
G01 X8.9196 Y-9.0807 F200.00
G01 X8.9422 Y-9.1053 F200.00
G01 X8.9509 Y-9.1135 F200.00
G01 X8.9758 Y-9.1357 F200.00
G01 X9.0025 Y-9.1558 F200.00
G01 X9.0122 Y-9.1627 F200.00
G01 X9.0407 Y-9.1801 F200.00
G01 X9.0511 Y-9.1860 F200.00
G01 X9.0819 Y-9.2009 F200.00
G01 X9.0820 Y-9.3791 F200.00
G01 X9.0847 Y-9.4219 F200.00
G01 X9.0930 Y-9.4708 F200.00
G01 X9.1068 Y-9.5186 F200.00
G01 X9.1258 Y-9.5645 F200.00
G01 X9.1498 Y-9.6080 F200.00
G01 X9.1704 Y-9.6376 F200.00
G01 X9.1805 Y-9.6509 F200.00
G01 X9.1647 Y-9.6412 F200.00
G01 X9.1133 Y-9.6132 F200.00
G01 X9.0594 Y-9.5905 F200.00
G01 X9.0337 Y-9.5815 F200.00
G01 X8.9774 Y-9.5657 F200.00
G01 X8.9198 Y-9.5555 F200.00
G01 X8.8927 Y-9.5524 F200.00
G01 X8.8343 Y-9.5495 F200.00
G01 X8.7623 Y-9.5536 F200.00
G01 X8.7046 Y-9.5630 F200.00
G01 X8.6780 Y-9.5691 F200.00
G01 X8.6220 Y-9.5856 F200.00
G01 X8.5678 Y-9.6077 F200.00
G01 X8.5432 Y-9.6195 F200.00
G01 X8.4922 Y-9.6481 F200.00
G01 X8.4443 Y-9.6816 F200.00
G01 X8.4230 Y-9.6986 F200.00
G01 X8.3797 Y-9.7379 F200.00
G01 X8.3404 Y-9.7812 F200.00
G01 X8.3234 Y-9.8025 F200.00
G01 X8.2899 Y-9.8504 F200.00
G01 X8.2550 Y-9.9136 F200.00
G01 X8.2323 Y-9.9674 F200.00
G01 X8.2233 Y-9.9932 F200.00
G01 X8.2074 Y-10.0495 F200.00
G01 X8.1973 Y-10.1071 F200.00
G01 X8.1942 Y-10.1341 F200.00
G01 X8.1913 Y-10.1925 F200.00
G01 X8.1954 Y-10.2645 F200.00
G01 X8.2074 Y-10.3356 F200.00
G01 X8.2233 Y-10.3919 F200.00
G01 X8.2323 Y-10.4176 F200.00
G01 X8.2494 Y-10.4591 F200.00
G01 X8.2613 Y-10.4836 F200.00
G01 X8.2899 Y-10.5346 F200.00
G01 X8.3316 Y-10.5934 F200.00
G01 X8.3797 Y-10.6472 F200.00
G01 X8.4230 Y-10.6865 F200.00
G01 X8.4443 Y-10.7035 F200.00
G01 X8.4809 Y-10.7294 F200.00
G01 X8.5040 Y-10.7439 F200.00
G01 X8.5553 Y-10.7719 F200.00
G01 X8.6220 Y-10.7995 F200.00
G01 X8.6912 Y-10.8194 F200.00
G01 X8.7488 Y-10.8296 F200.00
G01 X8.7759 Y-10.8326 F200.00
G01 X8.8207 Y-10.8352 F200.00
G01 X8.8399 Y-10.8354 F200.00
G01 X8.8272 Y-10.8472 F200.00
G01 X8.8046 Y-10.8718 F200.00
G01 X8.7968 Y-10.8808 F200.00
G01 X8.7767 Y-10.9075 F200.00
G01 X8.7698 Y-10.9172 F200.00
G01 X8.7524 Y-10.9457 F200.00
G01 X8.7465 Y-10.9561 F200.00
G01 X8.7320 Y-10.9861 F200.00
G01 X8.7271 Y-10.9970 F200.00
G01 X8.7156 Y-11.0284 F200.00
G01 X8.7119 Y-11.0397 F200.00
G01 X8.7035 Y-11.0720 F200.00
G01 X8.7009 Y-11.0837 F200.00
G01 X8.6957 Y-11.1167 F200.00
G01 X8.6942 Y-11.1285 F200.00
G01 X8.6923 Y-11.1618 F200.00
G01 X8.6920 Y-11.6862 F200.00
G01 X8.6942 Y-11.7315 F200.00
G01 X8.7009 Y-11.7763 F200.00
G01 X8.7087 Y-11.8088 F200.00
G01 X8.7156 Y-11.8316 F200.00
G01 X8.7271 Y-11.8630 F200.00
G01 X8.7412 Y-11.8933 F200.00
G01 X8.7524 Y-11.9143 F200.00
G01 X8.7698 Y-11.9428 F200.00
G01 X8.7895 Y-11.9698 F200.00
G01 X8.7968 Y-11.9792 F200.00
G01 X8.8190 Y-12.0041 F200.00
G01 X8.8359 Y-12.0210 F200.00
G01 X8.8608 Y-12.0432 F200.00
G01 X8.8702 Y-12.0505 F200.00
G01 X8.8972 Y-12.0702 F200.00
G01 X8.9073 Y-12.0766 F200.00
G01 X8.9361 Y-12.0935 F200.00
G01 X8.9770 Y-12.1129 F200.00
G01 X9.0197 Y-12.1281 F200.00
G01 X9.0637 Y-12.1391 F200.00
G01 X9.1085 Y-12.1458 F200.00
G01 X9.1478 Y-12.1479 F200.00
G01 X9.6032 Y-12.1477 F200.00
G01 X9.4940 Y-12.2569 F200.00
G01 X6.1805 Y-12.2569 F200.00
G01 X6.1598 Y-12.2360 F200.00
G00 Z2.5400
G00 X8.9079 Y-10.6764
G01 F100.00
G01 Z-0.1000
G01 F200.00
G01 X9.0824 Y-10.8509 F200.00
G01 X9.0824 Y-10.8736 F200.00
G01 X9.0641 Y-10.8783 F200.00
G01 X9.0397 Y-10.8869 F200.00
G01 X9.0082 Y-10.9015 F200.00
G01 X8.9822 Y-10.9170 F200.00
G01 X8.9614 Y-10.9324 F200.00
G01 X8.9354 Y-10.9554 F200.00
G01 X8.9124 Y-10.9814 F200.00
G01 X8.8970 Y-11.0022 F200.00
G01 X8.8815 Y-11.0282 F200.00
G01 X8.8669 Y-11.0597 F200.00
G01 X8.8583 Y-11.0841 F200.00
G01 X8.8509 Y-11.1135 F200.00
G01 X8.8465 Y-11.1435 F200.00
G01 X8.8450 Y-11.1738 F200.00
G01 X8.8450 Y-11.6862 F200.00
G01 X8.8462 Y-11.7121 F200.00
G01 X8.8509 Y-11.7465 F200.00
G01 X8.8597 Y-11.7801 F200.00
G01 X8.8685 Y-11.8044 F200.00
G01 X8.8795 Y-11.8279 F200.00
G01 X8.8970 Y-11.8578 F200.00
G01 X8.9151 Y-11.8821 F200.00
G01 X8.9354 Y-11.9046 F200.00
G01 X8.9579 Y-11.9249 F200.00
G01 X8.9860 Y-11.9453 F200.00
G01 X9.0082 Y-11.9585 F200.00
G01 X9.0316 Y-11.9697 F200.00
G01 X9.0599 Y-11.9803 F200.00
G01 X9.0935 Y-11.9891 F200.00
G01 X9.1235 Y-11.9935 F200.00
G01 X9.1538 Y-11.9950 F200.00
G01 X9.5912 Y-11.9950 F200.00
G01 X9.6215 Y-11.9935 F200.00
G01 X9.6515 Y-11.9891 F200.00
G01 X9.6851 Y-11.9803 F200.00
G01 X9.7094 Y-11.9715 F200.00
G01 X9.7329 Y-11.9605 F200.00
G01 X9.7628 Y-11.9430 F200.00
G01 X9.7871 Y-11.9249 F200.00
G01 X9.8096 Y-11.9046 F200.00
G01 X9.8299 Y-11.8821 F200.00
G01 X9.8503 Y-11.8540 F200.00
G01 X9.8635 Y-11.8318 F200.00
G01 X9.8747 Y-11.8084 F200.00
G01 X9.8853 Y-11.7801 F200.00
G01 X9.8941 Y-11.7465 F200.00
G01 X9.8980 Y-11.7209 F200.00
G01 X9.9000 Y-11.6862 F200.00
G01 X9.9000 Y-11.1715 F200.00
G01 X9.8985 Y-11.1435 F200.00
G01 X9.8941 Y-11.1135 F200.00
G01 X9.8867 Y-11.0841 F200.00
G01 X9.8765 Y-11.0556 F200.00
G01 X9.8614 Y-11.0244 F200.00
G01 X9.8480 Y-11.0022 F200.00
G01 X9.8326 Y-10.9814 F200.00
G01 X9.8096 Y-10.9554 F200.00
G01 X9.7871 Y-10.9351 F200.00
G01 X9.7628 Y-10.9170 F200.00
G01 X9.7329 Y-10.8995 F200.00
G01 X9.7053 Y-10.8869 F200.00
G01 X9.6809 Y-10.8783 F200.00
G01 X9.6626 Y-10.8736 F200.00
G01 X9.6626 Y-10.7307 F200.00
G01 X9.6601 Y-10.6932 F200.00
G01 X9.6553 Y-10.6662 F200.00
G01 X9.6463 Y-10.6349 F200.00
G01 X9.6339 Y-10.6048 F200.00
G01 X9.6207 Y-10.5807 F200.00
G01 X9.5993 Y-10.5498 F200.00
G01 X9.5794 Y-10.5274 F200.00
G01 X9.3182 Y-10.2662 F200.00
G01 X9.3217 Y-10.2424 F200.00
G01 X9.3242 Y-10.1875 F200.00
G01 X9.3212 Y-10.1377 F200.00
G01 X9.3108 Y-10.0786 F200.00
G01 X9.2968 Y-10.0307 F200.00
G01 X9.2758 Y-9.9799 F200.00
G01 X9.2492 Y-9.9318 F200.00
G01 X9.2174 Y-9.8870 F200.00
G01 X9.1808 Y-9.8461 F200.00
G01 X9.1358 Y-9.8064 F200.00
G01 X9.0950 Y-9.7776 F200.00
G01 X9.0514 Y-9.7534 F200.00
G01 X9.0009 Y-9.7318 F200.00
G01 X8.9434 Y-9.7148 F200.00
G01 X8.8892 Y-9.7056 F200.00
G01 X8.8343 Y-9.7025 F200.00
G01 X8.7795 Y-9.7056 F200.00
G01 X8.7253 Y-9.7148 F200.00
G01 X8.6773 Y-9.7285 F200.00
G01 X8.6263 Y-9.7490 F200.00
G01 X8.6172 Y-9.7534 F200.00
G01 X8.5736 Y-9.7776 F200.00
G01 X8.5288 Y-9.8094 F200.00
G01 X8.4878 Y-9.8461 F200.00
G01 X8.4512 Y-9.8870 F200.00
G01 X8.4194 Y-9.9318 F200.00
G01 X8.3952 Y-9.9755 F200.00
G01 X8.3908 Y-9.9845 F200.00
G01 X8.3703 Y-10.0355 F200.00
G01 X8.3566 Y-10.0835 F200.00
G01 X8.3474 Y-10.1377 F200.00
G01 X8.3443 Y-10.1925 F200.00
G01 X8.3474 Y-10.2474 F200.00
G01 X8.3566 Y-10.3016 F200.00
G01 X8.3703 Y-10.3496 F200.00
G01 X8.3908 Y-10.4005 F200.00
G01 X8.3952 Y-10.4096 F200.00
G01 X8.4194 Y-10.4532 F200.00
G01 X8.4512 Y-10.4981 F200.00
G01 X8.4878 Y-10.5390 F200.00
G01 X8.5288 Y-10.5756 F200.00
G01 X8.5736 Y-10.6074 F200.00
G01 X8.6217 Y-10.6340 F200.00
G01 X8.6725 Y-10.6550 F200.00
G01 X8.7204 Y-10.6690 F200.00
G01 X8.7795 Y-10.6795 F200.00
G01 X8.8293 Y-10.6824 F200.00
G01 X8.8842 Y-10.6799 F200.00
G01 X8.9079 Y-10.6764 F200.00
G01 X9.0824 Y-10.8509 F200.00
G00 Z2.5400
G00 X9.4744 Y-10.1340
G01 F100.00
G01 Z-0.1000
G01 F200.00
G01 X9.4769 Y-10.1789 F200.00
G01 X9.4768 Y-10.2084 F200.00
G01 X9.5370 Y-10.2685 F200.00
G01 X9.5052 Y-10.2108 F200.00
G01 X9.4825 Y-10.1569 F200.00
G01 X9.4744 Y-10.1340 F200.00
G01 X9.4769 Y-10.1789 F200.00
G00 Z2.5400
G00 X9.3819 Y-9.8558
G01 F100.00
G01 Z-0.1000
G01 F200.00
G01 X9.4137 Y-9.9136 F200.00
G01 X9.4364 Y-9.9674 F200.00
G01 X9.4445 Y-9.9903 F200.00
G01 X9.4420 Y-9.9454 F200.00
G01 X9.4421 Y-9.9160 F200.00
G01 X9.3819 Y-9.8558 F200.00
G01 X9.4137 Y-9.9136 F200.00
G00 Z2.5400
G00 X9.2349 Y-9.0856
G01 F100.00
G01 Z-0.1000
G01 F200.00
G01 X9.2349 Y-9.3722 F200.00
G01 X9.2363 Y-9.3997 F200.00
G01 X9.2374 Y-9.4097 F200.00
G01 X9.2434 Y-9.4417 F200.00
G01 X9.2512 Y-9.4681 F200.00
G01 X9.2616 Y-9.4935 F200.00
G01 X9.2659 Y-9.5026 F200.00
G01 X9.2822 Y-9.5308 F200.00
G01 X9.2982 Y-9.5531 F200.00
G01 X9.3181 Y-9.5756 F200.00
G01 X9.6007 Y-9.8582 F200.00
G01 X9.5972 Y-9.8820 F200.00
G01 X9.5946 Y-9.9318 F200.00
G01 X9.5977 Y-9.9867 F200.00
G01 X9.6069 Y-10.0409 F200.00
G01 X9.6221 Y-10.0937 F200.00
G01 X9.6431 Y-10.1444 F200.00
G01 X9.6697 Y-10.1925 F200.00
G01 X9.7015 Y-10.2373 F200.00
G01 X9.7381 Y-10.2783 F200.00
G01 X9.7791 Y-10.3149 F200.00
G01 X9.8239 Y-10.3467 F200.00
G01 X9.8720 Y-10.3733 F200.00
G01 X9.9180 Y-10.3925 F200.00
G01 X9.9706 Y-10.4083 F200.00
G01 X9.9805 Y-10.4105 F200.00
G01 X10.0297 Y-10.4187 F200.00
G01 X10.0846 Y-10.4218 F200.00
G01 X10.1394 Y-10.4187 F200.00
G01 X10.1936 Y-10.4095 F200.00
G01 X10.2464 Y-10.3943 F200.00
G01 X10.2926 Y-10.3754 F200.00
G01 X10.3017 Y-10.3710 F200.00
G01 X10.3495 Y-10.3439 F200.00
G01 X10.3901 Y-10.3149 F200.00
G01 X10.4311 Y-10.2783 F200.00
G01 X10.4677 Y-10.2373 F200.00
G01 X10.4967 Y-10.1967 F200.00
G01 X10.5260 Y-10.1444 F200.00
G01 X10.5471 Y-10.0937 F200.00
G01 X10.5610 Y-10.0457 F200.00
G01 X10.5715 Y-9.9867 F200.00
G01 X10.5746 Y-9.9318 F200.00
G01 X10.5719 Y-9.8820 F200.00
G01 X10.5623 Y-9.8228 F200.00
G01 X10.5453 Y-9.7653 F200.00
G01 X10.5260 Y-9.7192 F200.00
G01 X10.4995 Y-9.6711 F200.00
G01 X10.4644 Y-9.6224 F200.00
G01 X10.4311 Y-9.5853 F200.00
G01 X10.3939 Y-9.5520 F200.00
G01 X10.3453 Y-9.5169 F200.00
G01 X10.2972 Y-9.4903 F200.00
G01 X10.2416 Y-9.4678 F200.00
G01 X10.1936 Y-9.4541 F200.00
G01 X10.1444 Y-9.4456 F200.00
G01 X10.0846 Y-9.4418 F200.00
G01 X10.0347 Y-9.4445 F200.00
G01 X10.0110 Y-9.4479 F200.00
G01 X9.8151 Y-9.2521 F200.00
G01 X9.8151 Y-9.0856 F200.00
G01 X9.8415 Y-9.0816 F200.00
G01 X9.8709 Y-9.0742 F200.00
G01 X9.8994 Y-9.0640 F200.00
G01 X9.9229 Y-9.0530 F200.00
G01 X9.9564 Y-9.0329 F200.00
G01 X9.9771 Y-9.0174 F200.00
G01 X9.9996 Y-8.9971 F200.00
G01 X10.0199 Y-8.9746 F200.00
G01 X10.0380 Y-8.9503 F200.00
G01 X10.0535 Y-8.9243 F200.00
G01 X10.0647 Y-8.9009 F200.00
G01 X10.0779 Y-8.8641 F200.00
G01 X10.0841 Y-8.8390 F200.00
G01 X10.0885 Y-8.8090 F200.00
G01 X10.0900 Y-8.7787 F200.00
G01 X10.0900 Y-8.3413 F200.00
G01 X10.0885 Y-8.3110 F200.00
G01 X10.0841 Y-8.2810 F200.00
G01 X10.0767 Y-8.2516 F200.00
G01 X10.0665 Y-8.2231 F200.00
G01 X10.0535 Y-8.1957 F200.00
G01 X10.0380 Y-8.1697 F200.00
G01 X10.0199 Y-8.1454 F200.00
G01 X9.9996 Y-8.1229 F200.00
G01 X9.9771 Y-8.1026 F200.00
G01 X9.9564 Y-8.0871 F200.00
G01 X9.9268 Y-8.0690 F200.00
G01 X9.8953 Y-8.0544 F200.00
G01 X9.8709 Y-8.0458 F200.00
G01 X9.8458 Y-8.0394 F200.00
G01 X9.8115 Y-8.0340 F200.00
G01 X9.7812 Y-8.0325 F200.00
G01 X9.2688 Y-8.0325 F200.00
G01 X9.2385 Y-8.0340 F200.00
G01 X9.2085 Y-8.0384 F200.00
G01 X9.1791 Y-8.0458 F200.00
G01 X9.1506 Y-8.0560 F200.00
G01 X9.1194 Y-8.0711 F200.00
G01 X9.0936 Y-8.0871 F200.00
G01 X9.0729 Y-8.1026 F200.00
G01 X9.0536 Y-8.1199 F200.00
G01 X9.0301 Y-8.1454 F200.00
G01 X9.0146 Y-8.1661 F200.00
G01 X8.9945 Y-8.1996 F200.00
G01 X8.9835 Y-8.2231 F200.00
G01 X8.9747 Y-8.2474 F200.00
G01 X8.9659 Y-8.2810 F200.00
G01 X8.9612 Y-8.3154 F200.00
G01 X8.9600 Y-8.3413 F200.00
G01 X8.9600 Y-8.7787 F200.00
G01 X8.9615 Y-8.8090 F200.00
G01 X8.9669 Y-8.8433 F200.00
G01 X8.9733 Y-8.8684 F200.00
G01 X8.9835 Y-8.8969 F200.00
G01 X8.9965 Y-8.9243 F200.00
G01 X9.0097 Y-8.9465 F200.00
G01 X9.0330 Y-8.9780 F200.00
G01 X9.0504 Y-8.9971 F200.00
G01 X9.0695 Y-9.0145 F200.00
G01 X9.1010 Y-9.0378 F200.00
G01 X9.1232 Y-9.0510 F200.00
G01 X9.1506 Y-9.0640 F200.00
G01 X9.1834 Y-9.0754 F200.00
G01 X9.2085 Y-9.0816 F200.00
G01 X9.2349 Y-9.0856 F200.00
G01 X9.2349 Y-9.3722 F200.00
G00 Z2.5400
G00 X11.6686 Y-9.3739
G01 F100.00
G01 Z-0.1000
G01 F200.00
G01 X15.4583 Y-13.1635 F200.00
G01 X15.4825 Y-13.1852 F200.00
G01 X15.5049 Y-13.2012 F200.00
G01 X15.5375 Y-13.2198 F200.00
G01 X15.5676 Y-13.2322 F200.00
G01 X15.5989 Y-13.2412 F200.00
G01 X15.6309 Y-13.2467 F200.00
G01 X15.6634 Y-13.2485 F200.00
G01 X18.6612 Y-13.2485 F200.00
G01 X18.6756 Y-13.2678 F200.00
G01 X18.7089 Y-13.3049 F200.00
G01 X18.7499 Y-13.3415 F200.00
G01 X18.7947 Y-13.3733 F200.00
G01 X18.8428 Y-13.3999 F200.00
G01 X18.8936 Y-13.4209 F200.00
G01 X18.9464 Y-13.4361 F200.00
G01 X19.0006 Y-13.4453 F200.00
G01 X19.0554 Y-13.4484 F200.00
G01 X19.1153 Y-13.4446 F200.00
G01 X19.1645 Y-13.4361 F200.00
G01 X19.2125 Y-13.4224 F200.00
G01 X19.2680 Y-13.3999 F200.00
G01 X19.3161 Y-13.3733 F200.00
G01 X19.3609 Y-13.3415 F200.00
G01 X19.4054 Y-13.3012 F200.00
G01 X19.4385 Y-13.2639 F200.00
G01 X19.4675 Y-13.2233 F200.00
G01 X19.4969 Y-13.1710 F200.00
G01 X19.5179 Y-13.1202 F200.00
G01 X19.5331 Y-13.0674 F200.00
G01 X19.5423 Y-13.0133 F200.00
G01 X19.5454 Y-12.9584 F200.00
G01 X19.5423 Y-12.9035 F200.00
G01 X19.5331 Y-12.8494 F200.00
G01 X19.5179 Y-12.7966 F200.00
G01 X19.4946 Y-12.7413 F200.00
G01 X19.4675 Y-12.6935 F200.00
G01 X19.4385 Y-12.6529 F200.00
G01 X19.4054 Y-12.6156 F200.00
G01 X19.3609 Y-12.5753 F200.00
G01 X19.3203 Y-12.5463 F200.00
G01 X19.2680 Y-12.5169 F200.00
G01 X19.2173 Y-12.4959 F200.00
G01 X19.1645 Y-12.4807 F200.00
G01 X19.1103 Y-12.4715 F200.00
G01 X19.0554 Y-12.4684 F200.00
G01 X18.9956 Y-12.4722 F200.00
G01 X18.9464 Y-12.4807 F200.00
G01 X18.8984 Y-12.4944 F200.00
G01 X18.8474 Y-12.5149 F200.00
G01 X18.7947 Y-12.5435 F200.00
G01 X18.7499 Y-12.5753 F200.00
G01 X18.7089 Y-12.6119 F200.00
G01 X18.6756 Y-12.6490 F200.00
G01 X18.6612 Y-12.6683 F200.00
G01 X15.7836 Y-12.6683 F200.00
G01 X12.0789 Y-8.9636 F200.00
G01 X12.0824 Y-8.9398 F200.00
G01 X12.0850 Y-8.8900 F200.00
G01 X12.0819 Y-8.8351 F200.00
G01 X12.0727 Y-8.7810 F200.00
G01 X12.0575 Y-8.7282 F200.00
G01 X12.0365 Y-8.6774 F200.00
G01 X12.0099 Y-8.6293 F200.00
G01 X11.9781 Y-8.5845 F200.00
G01 X11.9415 Y-8.5435 F200.00
G01 X11.9005 Y-8.5069 F200.00
G01 X11.8557 Y-8.4751 F200.00
G01 X11.8076 Y-8.4485 F200.00
G01 X11.7568 Y-8.4275 F200.00
G01 X11.7040 Y-8.4123 F200.00
G01 X11.6499 Y-8.4031 F200.00
G01 X11.5950 Y-8.4000 F200.00
G01 X11.5401 Y-8.4031 F200.00
G01 X11.4860 Y-8.4123 F200.00
G01 X11.4380 Y-8.4260 F200.00
G01 X11.3870 Y-8.4465 F200.00
G01 X11.3779 Y-8.4508 F200.00
G01 X11.3343 Y-8.4751 F200.00
G01 X11.2895 Y-8.5069 F200.00
G01 X11.2485 Y-8.5435 F200.00
G01 X11.2119 Y-8.5845 F200.00
G01 X11.1801 Y-8.6293 F200.00
G01 X11.1559 Y-8.6729 F200.00
G01 X11.1515 Y-8.6820 F200.00
G01 X11.1310 Y-8.7330 F200.00
G01 X11.1173 Y-8.7810 F200.00
G01 X11.1081 Y-8.8351 F200.00
G01 X11.1050 Y-8.8900 F200.00
G01 X11.1081 Y-8.9449 F200.00
G01 X11.1173 Y-8.9990 F200.00
G01 X11.1310 Y-9.0470 F200.00
G01 X11.1515 Y-9.0980 F200.00
G01 X11.1559 Y-9.1071 F200.00
G01 X11.1801 Y-9.1507 F200.00
G01 X11.2119 Y-9.1955 F200.00
G01 X11.2485 Y-9.2365 F200.00
G01 X11.2895 Y-9.2731 F200.00
G01 X11.3343 Y-9.3049 F200.00
G01 X11.3824 Y-9.3315 F200.00
G01 X11.4332 Y-9.3525 F200.00
G01 X11.4811 Y-9.3665 F200.00
G01 X11.5401 Y-9.3769 F200.00
G01 X11.5900 Y-9.3799 F200.00
G01 X11.6448 Y-9.3773 F200.00
G01 X11.6686 Y-9.3739 F200.00
G01 X15.4583 Y-13.1635 F200.00
G00 Z2.5400
G00 X11.5036 Y-8.1039
G01 F100.00
G01 Z-0.1000
G01 F200.00
G01 X11.6249 Y-8.2251 F200.00
G01 X11.6532 Y-8.2498 F200.00
G01 X11.6757 Y-8.2656 F200.00
G01 X11.7087 Y-8.2834 F200.00
G01 X11.7390 Y-8.2954 F200.00
G01 X11.7654 Y-8.3028 F200.00
G01 X11.7851 Y-8.3063 F200.00
G01 X15.4189 Y-11.9401 F200.00
G01 X15.4431 Y-11.9618 F200.00
G01 X15.4655 Y-11.9778 F200.00
G01 X15.4981 Y-11.9964 F200.00
G01 X15.5282 Y-12.0088 F200.00
G01 X15.5594 Y-12.0178 F200.00
G01 X15.5915 Y-12.0233 F200.00
G01 X15.6240 Y-12.0251 F200.00
G01 X19.7048 Y-12.0251 F200.00
G01 X19.8361 Y-12.1564 F200.00
G01 X19.8327 Y-12.1802 F200.00
G01 X19.8301 Y-12.2351 F200.00
G01 X19.8331 Y-12.2849 F200.00
G01 X19.8423 Y-12.3390 F200.00
G01 X19.8575 Y-12.3918 F200.00
G01 X19.8765 Y-12.4380 F200.00
G01 X19.8808 Y-12.4471 F200.00
G01 X19.9079 Y-12.4949 F200.00
G01 X19.9369 Y-12.5355 F200.00
G01 X19.9700 Y-12.5728 F200.00
G01 X20.0145 Y-12.6131 F200.00
G01 X20.0637 Y-12.6475 F200.00
G01 X20.1074 Y-12.6715 F200.00
G01 X20.1534 Y-12.6907 F200.00
G01 X20.1630 Y-12.6940 F200.00
G01 X20.2159 Y-12.7087 F200.00
G01 X20.2651 Y-12.7169 F200.00
G01 X20.3200 Y-12.7200 F200.00
G01 X20.3749 Y-12.7169 F200.00
G01 X20.4241 Y-12.7087 F200.00
G01 X20.4770 Y-12.6940 F200.00
G01 X20.4866 Y-12.6907 F200.00
G01 X20.5326 Y-12.6715 F200.00
G01 X20.5807 Y-12.6449 F200.00
G01 X20.6255 Y-12.6131 F200.00
G01 X20.6628 Y-12.5800 F200.00
G01 X20.6998 Y-12.5394 F200.00
G01 X20.7061 Y-12.5315 F200.00
G01 X20.7349 Y-12.4907 F200.00
G01 X20.7615 Y-12.4426 F200.00
G01 X20.7825 Y-12.3918 F200.00
G01 X20.7987 Y-12.3341 F200.00
G01 X20.8069 Y-12.2849 F200.00
G01 X20.8099 Y-12.2351 F200.00
G01 X20.8069 Y-12.1751 F200.00
G01 X20.7965 Y-12.1161 F200.00
G01 X20.7825 Y-12.0682 F200.00
G01 X20.7635 Y-12.0220 F200.00
G01 X20.7349 Y-11.9693 F200.00
G01 X20.6998 Y-11.9206 F200.00
G01 X20.6665 Y-11.8835 F200.00
G01 X20.6215 Y-11.8439 F200.00
G01 X20.5807 Y-11.8151 F200.00
G01 X20.5371 Y-11.7909 F200.00
G01 X20.4866 Y-11.7693 F200.00
G01 X20.4290 Y-11.7523 F200.00
G01 X20.3749 Y-11.7431 F200.00
G01 X20.3200 Y-11.7400 F200.00
G01 X20.2702 Y-11.7427 F200.00
G01 X20.2464 Y-11.7461 F200.00
G01 X20.0301 Y-11.5299 F200.00
G01 X20.0059 Y-11.5082 F200.00
G01 X19.9793 Y-11.4894 F200.00
G01 X19.9508 Y-11.4736 F200.00
G01 X19.9208 Y-11.4612 F200.00
G01 X19.8846 Y-11.4512 F200.00
G01 X19.8575 Y-11.4467 F200.00
G01 X19.8250 Y-11.4449 F200.00
G01 X15.7442 Y-11.4449 F200.00
G01 X12.1141 Y-7.8149 F200.00
G01 X12.0899 Y-7.7932 F200.00
G01 X12.0676 Y-7.7772 F200.00
G01 X12.0349 Y-7.7586 F200.00
G01 X12.0000 Y-7.7446 F200.00
G01 X11.9736 Y-7.7372 F200.00
G01 X11.9540 Y-7.7337 F200.00
G01 X11.9139 Y-7.6936 F200.00
G01 X11.9173 Y-7.6698 F200.00
G01 X11.9200 Y-7.6200 F200.00
G01 X11.9169 Y-7.5651 F200.00
G01 X11.9077 Y-7.5110 F200.00
G01 X11.8925 Y-7.4582 F200.00
G01 X11.8715 Y-7.4074 F200.00
G01 X11.8449 Y-7.3593 F200.00
G01 X11.8131 Y-7.3145 F200.00
G01 X11.7765 Y-7.2735 F200.00
G01 X11.7355 Y-7.2369 F200.00
G01 X11.6907 Y-7.2051 F200.00
G01 X11.6426 Y-7.1785 F200.00
G01 X11.5918 Y-7.1575 F200.00
G01 X11.5390 Y-7.1423 F200.00
G01 X11.4849 Y-7.1331 F200.00
G01 X11.4300 Y-7.1300 F200.00
G01 X11.3751 Y-7.1331 F200.00
G01 X11.3210 Y-7.1423 F200.00
G01 X11.2682 Y-7.1575 F200.00
G01 X11.2174 Y-7.1785 F200.00
G01 X11.1737 Y-7.2025 F200.00
G01 X11.1651 Y-7.2079 F200.00
G01 X11.1206 Y-7.2402 F200.00
G01 X11.0835 Y-7.2735 F200.00
G01 X11.0469 Y-7.3145 F200.00
G01 X11.0151 Y-7.3593 F200.00
G01 X10.9908 Y-7.4029 F200.00
G01 X10.9865 Y-7.4120 F200.00
G01 X10.9660 Y-7.4630 F200.00
G01 X10.9523 Y-7.5110 F200.00
G01 X10.9431 Y-7.5651 F200.00
G01 X10.9400 Y-7.6200 F200.00
G01 X10.9431 Y-7.6749 F200.00
G01 X10.9523 Y-7.7290 F200.00
G01 X10.9660 Y-7.7770 F200.00
G01 X10.9865 Y-7.8280 F200.00
G01 X10.9908 Y-7.8371 F200.00
G01 X11.0151 Y-7.8807 F200.00
G01 X11.0469 Y-7.9255 F200.00
G01 X11.0835 Y-7.9665 F200.00
G01 X11.1245 Y-8.0031 F200.00
G01 X11.1693 Y-8.0349 F200.00
G01 X11.2174 Y-8.0615 F200.00
G01 X11.2682 Y-8.0825 F200.00
G01 X11.3161 Y-8.0965 F200.00
G01 X11.3751 Y-8.1069 F200.00
G01 X11.4250 Y-8.1099 F200.00
G01 X11.4798 Y-8.1073 F200.00
G01 X11.5036 Y-8.1039 F200.00
G01 X11.6249 Y-8.2251 F200.00
G00 Z2.5400
G00 X11.5036 Y-6.9989
G01 F100.00
G01 Z-0.1000
G01 F200.00
G01 X11.6267 Y-7.1219 F200.00
G01 X11.6491 Y-7.1418 F200.00
G01 X11.6800 Y-7.1632 F200.00
G01 X11.7041 Y-7.1764 F200.00
G01 X11.7295 Y-7.1870 F200.00
G01 X11.7654 Y-7.1978 F200.00
G01 X11.8025 Y-7.2037 F200.00
G01 X11.8275 Y-7.2051 F200.00
G01 X11.8748 Y-7.2051 F200.00
G01 X15.9049 Y-11.2351 F200.00
G01 X15.9291 Y-11.2568 F200.00
G01 X15.9557 Y-11.2756 F200.00
G01 X15.9841 Y-11.2914 F200.00
G01 X16.0095 Y-11.3020 F200.00
G01 X16.0190 Y-11.3054 F200.00
G01 X16.0504 Y-11.3138 F200.00
G01 X16.0775 Y-11.3183 F200.00
G01 X16.1100 Y-11.3201 F200.00
G01 X22.3398 Y-11.3201 F200.00
G01 X22.3761 Y-11.3564 F200.00
G01 X22.3727 Y-11.3802 F200.00
G01 X22.3700 Y-11.4300 F200.00
G01 X22.3731 Y-11.4849 F200.00
G01 X22.3823 Y-11.5390 F200.00
G01 X22.3975 Y-11.5918 F200.00
G01 X22.4185 Y-11.6426 F200.00
G01 X22.4425 Y-11.6863 F200.00
G01 X22.4479 Y-11.6949 F200.00
G01 X22.4802 Y-11.7394 F200.00
G01 X22.5135 Y-11.7765 F200.00
G01 X22.5545 Y-11.8131 F200.00
G01 X22.5993 Y-11.8449 F200.00
G01 X22.6474 Y-11.8715 F200.00
G01 X22.6982 Y-11.8925 F200.00
G01 X22.7510 Y-11.9077 F200.00
G01 X22.8051 Y-11.9169 F200.00
G01 X22.8550 Y-11.9199 F200.00
G01 X22.9149 Y-11.9169 F200.00
G01 X22.9739 Y-11.9065 F200.00
G01 X23.0218 Y-11.8925 F200.00
G01 X23.0680 Y-11.8735 F200.00
G01 X23.0771 Y-11.8692 F200.00
G01 X23.1249 Y-11.8421 F200.00
G01 X23.1655 Y-11.8131 F200.00
G01 X23.2028 Y-11.7800 F200.00
G01 X23.2431 Y-11.7355 F200.00
G01 X23.2775 Y-11.6863 F200.00
G01 X23.3015 Y-11.6426 F200.00
G01 X23.3207 Y-11.5966 F200.00
G01 X23.3377 Y-11.5390 F200.00
G01 X23.3473 Y-11.4798 F200.00
G01 X23.3500 Y-11.4300 F200.00
G01 X23.3473 Y-11.3802 F200.00
G01 X23.3377 Y-11.3210 F200.00
G01 X23.3225 Y-11.2682 F200.00
G01 X23.2992 Y-11.2129 F200.00
G01 X23.2749 Y-11.1693 F200.00
G01 X23.2461 Y-11.1285 F200.00
G01 X23.2065 Y-11.0835 F200.00
G01 X23.1655 Y-11.0469 F200.00
G01 X23.1207 Y-11.0151 F200.00
G01 X23.0726 Y-10.9885 F200.00
G01 X23.0218 Y-10.9675 F200.00
G01 X22.9690 Y-10.9523 F200.00
G01 X22.9149 Y-10.9431 F200.00
G01 X22.8600 Y-10.9400 F200.00
G01 X22.8102 Y-10.9427 F200.00
G01 X22.7864 Y-10.9461 F200.00
G01 X22.6633 Y-10.8231 F200.00
G01 X22.6409 Y-10.8032 F200.00
G01 X22.6185 Y-10.7872 F200.00
G01 X22.5859 Y-10.7686 F200.00
G01 X22.5558 Y-10.7562 F200.00
G01 X22.5246 Y-10.7472 F200.00
G01 X22.4925 Y-10.7417 F200.00
G01 X22.4600 Y-10.7399 F200.00
G01 X16.2302 Y-10.7399 F200.00
G01 X12.1983 Y-6.7081 F200.00
G01 X12.1759 Y-6.6882 F200.00
G01 X12.1535 Y-6.6722 F200.00
G01 X12.1450 Y-6.6668 F200.00
G01 X12.1163 Y-6.6516 F200.00
G01 X12.0908 Y-6.6412 F200.00
G01 X12.0645 Y-6.6334 F200.00
G01 X12.0325 Y-6.6274 F200.00
G01 X11.9975 Y-6.6249 F200.00
G01 X11.9502 Y-6.6249 F200.00
G01 X11.9139 Y-6.5886 F200.00
G01 X11.9173 Y-6.5648 F200.00
G01 X11.9200 Y-6.5150 F200.00
G01 X11.9169 Y-6.4601 F200.00
G01 X11.9077 Y-6.4060 F200.00
G01 X11.8925 Y-6.3532 F200.00
G01 X11.8715 Y-6.3024 F200.00
G01 X11.8449 Y-6.2543 F200.00
G01 X11.8131 Y-6.2095 F200.00
G01 X11.7765 Y-6.1685 F200.00
G01 X11.7355 Y-6.1319 F200.00
G01 X11.6907 Y-6.1001 F200.00
G01 X11.6426 Y-6.0735 F200.00
G01 X11.5918 Y-6.0525 F200.00
G01 X11.5390 Y-6.0373 F200.00
G01 X11.4849 Y-6.0281 F200.00
G01 X11.4300 Y-6.0250 F200.00
G01 X11.3751 Y-6.0281 F200.00
G01 X11.3210 Y-6.0373 F200.00
G01 X11.2682 Y-6.0525 F200.00
G01 X11.2174 Y-6.0735 F200.00
G01 X11.1737 Y-6.0976 F200.00
G01 X11.1651 Y-6.1029 F200.00
G01 X11.1206 Y-6.1352 F200.00
G01 X11.0835 Y-6.1685 F200.00
G01 X11.0469 Y-6.2095 F200.00
G01 X11.0151 Y-6.2543 F200.00
G01 X10.9908 Y-6.2979 F200.00
G01 X10.9865 Y-6.3070 F200.00
G01 X10.9660 Y-6.3580 F200.00
G01 X10.9523 Y-6.4060 F200.00
G01 X10.9431 Y-6.4601 F200.00
G01 X10.9400 Y-6.5150 F200.00
G01 X10.9431 Y-6.5699 F200.00
G01 X10.9523 Y-6.6240 F200.00
G01 X10.9660 Y-6.6720 F200.00
G01 X10.9865 Y-6.7230 F200.00
G01 X10.9908 Y-6.7321 F200.00
G01 X11.0151 Y-6.7757 F200.00
G01 X11.0469 Y-6.8205 F200.00
G01 X11.0835 Y-6.8615 F200.00
G01 X11.1245 Y-6.8981 F200.00
G01 X11.1693 Y-6.9299 F200.00
G01 X11.2174 Y-6.9565 F200.00
G01 X11.2682 Y-6.9775 F200.00
G01 X11.3161 Y-6.9915 F200.00
G01 X11.3751 Y-7.0019 F200.00
G01 X11.4250 Y-7.0049 F200.00
G01 X11.4798 Y-7.0024 F200.00
G01 X11.5036 Y-6.9989 F200.00
G01 X11.6267 Y-7.1219 F200.00
G00 Z2.5400
G00 X9.9659 Y-6.2264
G01 F100.00
G01 Z-0.1000
G01 F200.00
G01 X9.9304 Y-6.2322 F200.00
G01 X9.8945 Y-6.2430 F200.00
G01 X9.8691 Y-6.2536 F200.00
G01 X9.8450 Y-6.2668 F200.00
G01 X9.8181 Y-6.2852 F200.00
G01 X9.7899 Y-6.3099 F200.00
G01 X9.6422 Y-6.4575 F200.00
G01 X9.2665 Y-6.4575 F200.00
G01 X9.2385 Y-6.4590 F200.00
G01 X9.2085 Y-6.4634 F200.00
G01 X9.1791 Y-6.4708 F200.00
G01 X9.1506 Y-6.4810 F200.00
G01 X9.1232 Y-6.4940 F200.00
G01 X9.0972 Y-6.5095 F200.00
G01 X9.0729 Y-6.5276 F200.00
G01 X9.0504 Y-6.5479 F200.00
G01 X9.0301 Y-6.5704 F200.00
G01 X9.0146 Y-6.5911 F200.00
G01 X8.9965 Y-6.6207 F200.00
G01 X8.9819 Y-6.6522 F200.00
G01 X8.9733 Y-6.6766 F200.00
G01 X8.9669 Y-6.7017 F200.00
G01 X8.9615 Y-6.7360 F200.00
G01 X8.9600 Y-6.7663 F200.00
G01 X8.9600 Y-7.2037 F200.00
G01 X8.9615 Y-7.2340 F200.00
G01 X8.9659 Y-7.2640 F200.00
G01 X8.9733 Y-7.2934 F200.00
G01 X8.9835 Y-7.3219 F200.00
G01 X8.9986 Y-7.3531 F200.00
G01 X9.0146 Y-7.3789 F200.00
G01 X9.0301 Y-7.3996 F200.00
G01 X9.0474 Y-7.4189 F200.00
G01 X9.0729 Y-7.4424 F200.00
G01 X9.0936 Y-7.4579 F200.00
G01 X9.1271 Y-7.4780 F200.00
G01 X9.1506 Y-7.4890 F200.00
G01 X9.1791 Y-7.4992 F200.00
G01 X9.2129 Y-7.5073 F200.00
G01 X9.2385 Y-7.5110 F200.00
G01 X9.2643 Y-7.5124 F200.00
G01 X9.7857 Y-7.5124 F200.00
G01 X9.8115 Y-7.5110 F200.00
G01 X9.8415 Y-7.5066 F200.00
G01 X9.8709 Y-7.4992 F200.00
G01 X9.8994 Y-7.4890 F200.00
G01 X9.9268 Y-7.4760 F200.00
G01 X9.9528 Y-7.4605 F200.00
G01 X9.9771 Y-7.4424 F200.00
G01 X10.0026 Y-7.4189 F200.00
G01 X10.0199 Y-7.3996 F200.00
G01 X10.0403 Y-7.3715 F200.00
G01 X10.0535 Y-7.3493 F200.00
G01 X10.0647 Y-7.3259 F200.00
G01 X10.0753 Y-7.2976 F200.00
G01 X10.0848 Y-7.2596 F200.00
G01 X10.0885 Y-7.2340 F200.00
G01 X10.0899 Y-7.2082 F200.00
G01 X10.0900 Y-6.9226 F200.00
G01 X10.1049 Y-6.9325 F200.00
G01 X10.1532 Y-6.9585 F200.00
G01 X10.1994 Y-6.9775 F200.00
G01 X10.2571 Y-6.9937 F200.00
G01 X10.3063 Y-7.0019 F200.00
G01 X10.3612 Y-7.0050 F200.00
G01 X10.4161 Y-7.0019 F200.00
G01 X10.4702 Y-6.9927 F200.00
G01 X10.5230 Y-6.9775 F200.00
G01 X10.5692 Y-6.9585 F200.00
G01 X10.6176 Y-6.9325 F200.00
G01 X10.6261 Y-6.9271 F200.00
G01 X10.6667 Y-6.8981 F200.00
G01 X10.7077 Y-6.8615 F200.00
G01 X10.7443 Y-6.8205 F200.00
G01 X10.7733 Y-6.7799 F200.00
G01 X10.8004 Y-6.7321 F200.00
G01 X10.8047 Y-6.7230 F200.00
G01 X10.8237 Y-6.6768 F200.00
G01 X10.8399 Y-6.6191 F200.00
G01 X10.8481 Y-6.5699 F200.00
G01 X10.8512 Y-6.5150 F200.00
G01 X10.8481 Y-6.4601 F200.00
G01 X10.8389 Y-6.4060 F200.00
G01 X10.8237 Y-6.3532 F200.00
G01 X10.8047 Y-6.3070 F200.00
G01 X10.8004 Y-6.2979 F200.00
G01 X10.7733 Y-6.2501 F200.00
G01 X10.7443 Y-6.2095 F200.00
G01 X10.7077 Y-6.1685 F200.00
G01 X10.6667 Y-6.1319 F200.00
G01 X10.6261 Y-6.1029 F200.00
G01 X10.5738 Y-6.0735 F200.00
G01 X10.5278 Y-6.0543 F200.00
G01 X10.4751 Y-6.0386 F200.00
G01 X10.4653 Y-6.0363 F200.00
G01 X10.4161 Y-6.0281 F200.00
G01 X10.3612 Y-6.0250 F200.00
G01 X10.3063 Y-6.0281 F200.00
G01 X10.2571 Y-6.0363 F200.00
G01 X10.2473 Y-6.0386 F200.00
G01 X10.1947 Y-6.0543 F200.00
G01 X10.1486 Y-6.0735 F200.00
G01 X10.1005 Y-6.1001 F200.00
G01 X10.0557 Y-6.1319 F200.00
G01 X10.0184 Y-6.1651 F200.00
G01 X9.9814 Y-6.2056 F200.00
G01 X9.9659 Y-6.2264 F200.00
G01 X9.9304 Y-6.2322 F200.00
G00 Z2.5400
G00 X9.7328 Y-6.1581
G01 F100.00
G01 Z-0.1000
G01 F200.00
G01 X9.0735 Y-6.1581 F200.00
G01 X8.8975 Y-6.3341 F200.00
G01 X8.8976 Y-6.3636 F200.00
G01 X8.8940 Y-6.4220 F200.00
G01 X8.8819 Y-6.4931 F200.00
G01 X8.8710 Y-6.5322 F200.00
G01 X8.8848 Y-6.5097 F200.00
G01 X8.9118 Y-6.4733 F200.00
G01 X8.9422 Y-6.4397 F200.00
G01 X8.9668 Y-6.4171 F200.00
G01 X8.9758 Y-6.4093 F200.00
G01 X9.0025 Y-6.3892 F200.00
G01 X9.0223 Y-6.3759 F200.00
G01 X9.0511 Y-6.3590 F200.00
G01 X9.0920 Y-6.3396 F200.00
G01 X9.1347 Y-6.3244 F200.00
G01 X9.1670 Y-6.3160 F200.00
G01 X9.1787 Y-6.3134 F200.00
G01 X9.2117 Y-6.3082 F200.00
G01 X9.2354 Y-6.3058 F200.00
G01 X9.2688 Y-6.3045 F200.00
G01 X9.5789 Y-6.3045 F200.00
G01 X9.6866 Y-6.1969 F200.00
G01 X9.7187 Y-6.1686 F200.00
G01 X9.7328 Y-6.1581 F200.00
G01 X9.0735 Y-6.1581 F200.00
G00 Z2.5400
G00 X8.3286 Y-5.8661
G01 F100.00
G01 Z-0.1000
G01 F200.00
G01 X8.3048 Y-5.8627 F200.00
G01 X8.2500 Y-5.8601 F200.00
G01 X8.2001 Y-5.8631 F200.00
G01 X8.1411 Y-5.8735 F200.00
G01 X8.0932 Y-5.8875 F200.00
G01 X8.0424 Y-5.9085 F200.00
G01 X7.9943 Y-5.9351 F200.00
G01 X7.9495 Y-5.9669 F200.00
G01 X7.9085 Y-6.0035 F200.00
G01 X7.8752 Y-6.0406 F200.00
G01 X7.8689 Y-6.0485 F200.00
G01 X7.8375 Y-6.0937 F200.00
G01 X7.8135 Y-6.1374 F200.00
G01 X7.7925 Y-6.1882 F200.00
G01 X7.7773 Y-6.2410 F200.00
G01 X7.7681 Y-6.2951 F200.00
G01 X7.7650 Y-6.3500 F200.00
G01 X7.7677 Y-6.3998 F200.00
G01 X7.7763 Y-6.4541 F200.00
G01 X7.7785 Y-6.4639 F200.00
G01 X7.7925 Y-6.5118 F200.00
G01 X7.8135 Y-6.5626 F200.00
G01 X7.8401 Y-6.6107 F200.00
G01 X7.8719 Y-6.6555 F200.00
G01 X7.9085 Y-6.6965 F200.00
G01 X7.9456 Y-6.7298 F200.00
G01 X7.9901 Y-6.7621 F200.00
G01 X7.9987 Y-6.7675 F200.00
G01 X8.0424 Y-6.7915 F200.00
G01 X8.0932 Y-6.8125 F200.00
G01 X8.1460 Y-6.8277 F200.00
G01 X8.2001 Y-6.8369 F200.00
G01 X8.2550 Y-6.8400 F200.00
G01 X8.3099 Y-6.8369 F200.00
G01 X8.3640 Y-6.8277 F200.00
G01 X8.4168 Y-6.8125 F200.00
G01 X8.4676 Y-6.7915 F200.00
G01 X8.5157 Y-6.7649 F200.00
G01 X8.5605 Y-6.7331 F200.00
G01 X8.6015 Y-6.6965 F200.00
G01 X8.6381 Y-6.6555 F200.00
G01 X8.6699 Y-6.6107 F200.00
G01 X8.6965 Y-6.5626 F200.00
G01 X8.7175 Y-6.5118 F200.00
G01 X8.7327 Y-6.4590 F200.00
G01 X8.7419 Y-6.4049 F200.00
G01 X8.7450 Y-6.3500 F200.00
G01 X8.7423 Y-6.3002 F200.00
G01 X8.7389 Y-6.2764 F200.00
G01 X9.0102 Y-6.0051 F200.00
G01 X22.1048 Y-6.0051 F200.00
G01 X22.3761 Y-6.2764 F200.00
G01 X22.3727 Y-6.3002 F200.00
G01 X22.3700 Y-6.3500 F200.00
G01 X22.3731 Y-6.4049 F200.00
G01 X22.3823 Y-6.4590 F200.00
G01 X22.3975 Y-6.5118 F200.00
G01 X22.4185 Y-6.5626 F200.00
G01 X22.4451 Y-6.6107 F200.00
G01 X22.4769 Y-6.6555 F200.00
G01 X22.5100 Y-6.6928 F200.00
G01 X22.5172 Y-6.7000 F200.00
G01 X22.5585 Y-6.7361 F200.00
G01 X22.5993 Y-6.7649 F200.00
G01 X22.6520 Y-6.7935 F200.00
G01 X22.6982 Y-6.8125 F200.00
G01 X22.7510 Y-6.8277 F200.00
G01 X22.8051 Y-6.8369 F200.00
G01 X22.8600 Y-6.8400 F200.00
G01 X22.9149 Y-6.8369 F200.00
G01 X22.9641 Y-6.8287 F200.00
G01 X22.9739 Y-6.8265 F200.00
G01 X23.0266 Y-6.8107 F200.00
G01 X23.0726 Y-6.7915 F200.00
G01 X23.1207 Y-6.7649 F200.00
G01 X23.1655 Y-6.7331 F200.00
G01 X23.2065 Y-6.6965 F200.00
G01 X23.2431 Y-6.6555 F200.00
G01 X23.2721 Y-6.6149 F200.00
G01 X23.2775 Y-6.6063 F200.00
G01 X23.3035 Y-6.5580 F200.00
G01 X23.3225 Y-6.5118 F200.00
G01 X23.3377 Y-6.4590 F200.00
G01 X23.3469 Y-6.4049 F200.00
G01 X23.3499 Y-6.3550 F200.00
G01 X23.3469 Y-6.2951 F200.00
G01 X23.3377 Y-6.2410 F200.00
G01 X23.3225 Y-6.1882 F200.00
G01 X23.3015 Y-6.1374 F200.00
G01 X23.2749 Y-6.0893 F200.00
G01 X23.2431 Y-6.0445 F200.00
G01 X23.2065 Y-6.0035 F200.00
G01 X23.1655 Y-5.9669 F200.00
G01 X23.1207 Y-5.9351 F200.00
G01 X23.0726 Y-5.9085 F200.00
G01 X23.0218 Y-5.8875 F200.00
G01 X22.9739 Y-5.8735 F200.00
G01 X22.9149 Y-5.8631 F200.00
G01 X22.8650 Y-5.8601 F200.00
G01 X22.8102 Y-5.8627 F200.00
G01 X22.7864 Y-5.8661 F200.00
G01 X22.4301 Y-5.5099 F200.00
G01 X22.4059 Y-5.4882 F200.00
G01 X22.3750 Y-5.4668 F200.00
G01 X22.3509 Y-5.4536 F200.00
G01 X22.3208 Y-5.4412 F200.00
G01 X22.2846 Y-5.4312 F200.00
G01 X22.2575 Y-5.4267 F200.00
G01 X22.2275 Y-5.4249 F200.00
G01 X8.8875 Y-5.4249 F200.00
G01 X8.8575 Y-5.4267 F200.00
G01 X8.8304 Y-5.4312 F200.00
G01 X8.7942 Y-5.4412 F200.00
G01 X8.7641 Y-5.4536 F200.00
G01 X8.7400 Y-5.4668 F200.00
G01 X8.7091 Y-5.4882 F200.00
G01 X8.6849 Y-5.5099 F200.00
G01 X8.3286 Y-5.8661 F200.00
G01 X8.3048 Y-5.8627 F200.00
G00 Z2.5400
G00 X8.2709 Y-5.7075
G01 F100.00
G01 Z-0.1000
G01 F200.00
G01 X8.2414 Y-5.7074 F200.00
G01 X8.1830 Y-5.7110 F200.00
G01 X8.1119 Y-5.7231 F200.00
G01 X8.0426 Y-5.7431 F200.00
G01 X7.9885 Y-5.7651 F200.00
G01 X7.9639 Y-5.7769 F200.00
G01 X7.9246 Y-5.7986 F200.00
G01 X7.9016 Y-5.8131 F200.00
G01 X7.8541 Y-5.8473 F200.00
G01 X7.8102 Y-5.8860 F200.00
G01 X7.7910 Y-5.9052 F200.00
G01 X7.7523 Y-5.9491 F200.00
G01 X7.7106 Y-6.0079 F200.00
G01 X7.6757 Y-6.0710 F200.00
G01 X7.6481 Y-6.1376 F200.00
G01 X7.6281 Y-6.2069 F200.00
G01 X7.6179 Y-6.2645 F200.00
G01 X7.6149 Y-6.2916 F200.00
G01 X7.6124 Y-6.3364 F200.00
G01 X7.6124 Y-6.3636 F200.00
G01 X7.6160 Y-6.4220 F200.00
G01 X7.6255 Y-6.4797 F200.00
G01 X7.6315 Y-6.5063 F200.00
G01 X7.6481 Y-6.5624 F200.00
G01 X7.6701 Y-6.6165 F200.00
G01 X7.6819 Y-6.6411 F200.00
G01 X7.7106 Y-6.6921 F200.00
G01 X7.7441 Y-6.7400 F200.00
G01 X7.7611 Y-6.7613 F200.00
G01 X7.8003 Y-6.8047 F200.00
G01 X7.8437 Y-6.8439 F200.00
G01 X7.8650 Y-6.8609 F200.00
G01 X7.9129 Y-6.8944 F200.00
G01 X7.9760 Y-6.9293 F200.00
G01 X8.0299 Y-6.9521 F200.00
G01 X8.0556 Y-6.9611 F200.00
G01 X8.1119 Y-6.9769 F200.00
G01 X8.1695 Y-6.9871 F200.00
G01 X8.1966 Y-6.9901 F200.00
G01 X8.2414 Y-6.9926 F200.00
G01 X8.2686 Y-6.9926 F200.00
G01 X8.3270 Y-6.9890 F200.00
G01 X8.3847 Y-6.9795 F200.00
G01 X8.4113 Y-6.9735 F200.00
G01 X8.4544 Y-6.9611 F200.00
G01 X8.4801 Y-6.9521 F200.00
G01 X8.5340 Y-6.9293 F200.00
G01 X8.5854 Y-6.9014 F200.00
G01 X8.6084 Y-6.8869 F200.00
G01 X8.6559 Y-6.8527 F200.00
G01 X8.7097 Y-6.8047 F200.00
G01 X8.7489 Y-6.7613 F200.00
G01 X8.7659 Y-6.7400 F200.00
G01 X8.7994 Y-6.6921 F200.00
G01 X8.8213 Y-6.6534 F200.00
G01 X8.8159 Y-6.6762 F200.00
G01 X8.8107 Y-6.7092 F200.00
G01 X8.8083 Y-6.7329 F200.00
G01 X8.8070 Y-6.7663 F200.00
G01 X8.8071 Y-7.2097 F200.00
G01 X8.8092 Y-7.2490 F200.00
G01 X8.8138 Y-7.2821 F200.00
G01 X8.8185 Y-7.3055 F200.00
G01 X8.8269 Y-7.3378 F200.00
G01 X8.8379 Y-7.3693 F200.00
G01 X8.8421 Y-7.3805 F200.00
G01 X8.8562 Y-7.4108 F200.00
G01 X8.8674 Y-7.4318 F200.00
G01 X8.8848 Y-7.4603 F200.00
G01 X8.9118 Y-7.4967 F200.00
G01 X8.9422 Y-7.5303 F200.00
G01 X8.9758 Y-7.5607 F200.00
G01 X9.0122 Y-7.5877 F200.00
G01 X9.0407 Y-7.6051 F200.00
G01 X9.0617 Y-7.6163 F200.00
G01 X9.0920 Y-7.6304 F200.00
G01 X9.1032 Y-7.6346 F200.00
G01 X9.1347 Y-7.6456 F200.00
G01 X9.1462 Y-7.6488 F200.00
G01 X9.1787 Y-7.6566 F200.00
G01 X9.2117 Y-7.6618 F200.00
G01 X9.2235 Y-7.6633 F200.00
G01 X9.2568 Y-7.6652 F200.00
G01 X9.7872 Y-7.6654 F200.00
G01 X9.8146 Y-7.6642 F200.00
G01 X9.8383 Y-7.6618 F200.00
G01 X9.8713 Y-7.6566 F200.00
G01 X9.9038 Y-7.6488 F200.00
G01 X9.9153 Y-7.6456 F200.00
G01 X9.9468 Y-7.6346 F200.00
G01 X9.9689 Y-7.6255 F200.00
G01 X9.9989 Y-7.6110 F200.00
G01 X10.0093 Y-7.6051 F200.00
G01 X10.0378 Y-7.5877 F200.00
G01 X10.0475 Y-7.5808 F200.00
G01 X10.0742 Y-7.5607 F200.00
G01 X10.1078 Y-7.5303 F200.00
G01 X10.1382 Y-7.4967 F200.00
G01 X10.1652 Y-7.4603 F200.00
G01 X10.1885 Y-7.4214 F200.00
G01 X10.2079 Y-7.3805 F200.00
G01 X10.2231 Y-7.3378 F200.00
G01 X10.2315 Y-7.3055 F200.00
G01 X10.2341 Y-7.2938 F200.00
G01 X10.2393 Y-7.2608 F200.00
G01 X10.2417 Y-7.2371 F200.00
G01 X10.2429 Y-7.2097 F200.00
G01 X10.2430 Y-7.1465 F200.00
G01 X10.2892 Y-7.1540 F200.00
G01 X10.3476 Y-7.1576 F200.00
G01 X10.3748 Y-7.1576 F200.00
G01 X10.4332 Y-7.1540 F200.00
G01 X10.4909 Y-7.1445 F200.00
G01 X10.5175 Y-7.1385 F200.00
G01 X10.5736 Y-7.1219 F200.00
G01 X10.6278 Y-7.0999 F200.00
G01 X10.6523 Y-7.0881 F200.00
G01 X10.7033 Y-7.0595 F200.00
G01 X10.7512 Y-7.0259 F200.00
G01 X10.7725 Y-7.0089 F200.00
G01 X10.8060 Y-6.9790 F200.00
G01 X10.8252 Y-6.9598 F200.00
G01 X10.8639 Y-6.9159 F200.00
G01 X10.8956 Y-6.8719 F200.00
G01 X10.9273 Y-6.9159 F200.00
G01 X10.9753 Y-6.9697 F200.00
G01 X11.0291 Y-7.0177 F200.00
G01 X11.0766 Y-7.0519 F200.00
G01 X11.1017 Y-7.0675 F200.00
G01 X11.0766 Y-7.0831 F200.00
G01 X11.0400 Y-7.1091 F200.00
G01 X11.0187 Y-7.1261 F200.00
G01 X10.9753 Y-7.1653 F200.00
G01 X10.9273 Y-7.2191 F200.00
G01 X10.8931 Y-7.2666 F200.00
G01 X10.8786 Y-7.2896 F200.00
G01 X10.8507 Y-7.3410 F200.00
G01 X10.8231 Y-7.4076 F200.00
G01 X10.8065 Y-7.4637 F200.00
G01 X10.8005 Y-7.4903 F200.00
G01 X10.7910 Y-7.5480 F200.00
G01 X10.7870 Y-7.6200 F200.00
G01 X10.7899 Y-7.6784 F200.00
G01 X10.7929 Y-7.7055 F200.00
G01 X10.8031 Y-7.7631 F200.00
G01 X10.8189 Y-7.8194 F200.00
G01 X10.8279 Y-7.8451 F200.00
G01 X10.8451 Y-7.8865 F200.00
G01 X10.8569 Y-7.9111 F200.00
G01 X10.8856 Y-7.9621 F200.00
G01 X10.9273 Y-8.0209 F200.00
G01 X10.9660 Y-8.0648 F200.00
G01 X10.9852 Y-8.0840 F200.00
G01 X11.0291 Y-8.1227 F200.00
G01 X11.0766 Y-8.1569 F200.00
G01 X11.0996 Y-8.1714 F200.00
G01 X11.1510 Y-8.1993 F200.00
G01 X11.2049 Y-8.2221 F200.00
G01 X11.2306 Y-8.2311 F200.00
G01 X11.2869 Y-8.2469 F200.00
G01 X11.3445 Y-8.2571 F200.00
G01 X11.3716 Y-8.2601 F200.00
G01 X11.4164 Y-8.2626 F200.00
G01 X11.4459 Y-8.2625 F200.00
G01 X11.4476 Y-8.2642 F200.00
G01 X11.3826 Y-8.2831 F200.00
G01 X11.3160 Y-8.3107 F200.00
G01 X11.2529 Y-8.3456 F200.00
G01 X11.2050 Y-8.3791 F200.00
G01 X11.1837 Y-8.3961 F200.00
G01 X11.1403 Y-8.4353 F200.00
G01 X11.1011 Y-8.4787 F200.00
G01 X11.0841 Y-8.5000 F200.00
G01 X11.0506 Y-8.5479 F200.00
G01 X11.0219 Y-8.5989 F200.00
G01 X11.0101 Y-8.6235 F200.00
G01 X10.9930 Y-8.6649 F200.00
G01 X10.9840 Y-8.6906 F200.00
G01 X10.9681 Y-8.7469 F200.00
G01 X10.9561 Y-8.8180 F200.00
G01 X10.9520 Y-8.8900 F200.00
G01 X10.9561 Y-8.9620 F200.00
G01 X10.9681 Y-9.0331 F200.00
G01 X10.9881 Y-9.1024 F200.00
G01 X11.0157 Y-9.1690 F200.00
G01 X11.0436 Y-9.2204 F200.00
G01 X11.0581 Y-9.2434 F200.00
G01 X11.0923 Y-9.2909 F200.00
G01 X11.1310 Y-9.3348 F200.00
G01 X11.1502 Y-9.3540 F200.00
G01 X11.1837 Y-9.3839 F200.00
G01 X11.2050 Y-9.4009 F200.00
G01 X11.2529 Y-9.4344 F200.00
G01 X11.3039 Y-9.4631 F200.00
G01 X11.3285 Y-9.4749 F200.00
G01 X11.3826 Y-9.4969 F200.00
G01 X11.4519 Y-9.5169 F200.00
G01 X11.5230 Y-9.5290 F200.00
G01 X11.5814 Y-9.5326 F200.00
G01 X11.6109 Y-9.5325 F200.00
G01 X15.3501 Y-13.2717 F200.00
G01 X15.3767 Y-13.2960 F200.00
G01 X15.3980 Y-13.3130 F200.00
G01 X15.4277 Y-13.3336 F200.00
G01 X15.4590 Y-13.3514 F200.00
G01 X15.4836 Y-13.3632 F200.00
G01 X15.5171 Y-13.3766 F200.00
G01 X15.5516 Y-13.3870 F200.00
G01 X15.5782 Y-13.3930 F200.00
G01 X15.6138 Y-13.3987 F200.00
G01 X15.6566 Y-13.4014 F200.00
