(G-CODE GENERATED BY FLATCAM v8.913 - www.flatcam.org - Version Date: 2019/04/13)

(Name: 7_segment_display-PTH.drl_mill_cnc)
(Type: G-code from Geometry)
(Units: MM)

(Created on Sunday, 12 May 2019 at 21:33)

(TOOL DIAMETER: 0.8 mm)

(Feedrate: 50.0 mm/min)
(Feedrate_Z: 50.0 mm/min)
(Feedrate rapids 76.2 mm/min)

(Z_Cut: -2.0 mm)
(Z_Move: 2.54 mm)
(Z Toolchange: 20.0 mm)
(X,Y Toolchange: 0.0000, 0.0000 mm)
(Z Start: None mm)
(Z End: 20.0 mm)
(Steps per circle: 64)
(Postprocessor Geometry: grbl_11)

(X range:    3.7100 ...   30.5800  mm)
(Y range:  -17.3350 ...   -1.8950  mm)

(Spindle Speed: 20000 RPM)


G21
G90
G94
G17

G01 F50.00
G00 Z2.5400

M03 S20000
G4 P1.0
G00 X3.9100 Y-5.0800
G01 F50.00
G01 Z-2.0000
G01 F50.00
G01 X3.9081 Y-5.0995 F50.00
G01 X3.9024 Y-5.1183 F50.00
G01 X3.8931 Y-5.1356 F50.00
G01 X3.8807 Y-5.1507 F50.00
G01 X3.8656 Y-5.1631 F50.00
G01 X3.8483 Y-5.1724 F50.00
G01 X3.8295 Y-5.1781 F50.00
G01 X3.8100 Y-5.1800 F50.00
G01 X3.7905 Y-5.1781 F50.00
G01 X3.7717 Y-5.1724 F50.00
G01 X3.7544 Y-5.1631 F50.00
G01 X3.7393 Y-5.1507 F50.00
G01 X3.7269 Y-5.1356 F50.00
G01 X3.7176 Y-5.1183 F50.00
G01 X3.7119 Y-5.0995 F50.00
G01 X3.7100 Y-5.0800 F50.00
G01 X3.7119 Y-5.0605 F50.00
G01 X3.7176 Y-5.0417 F50.00
G01 X3.7269 Y-5.0244 F50.00
G01 X3.7393 Y-5.0093 F50.00
G01 X3.7544 Y-4.9969 F50.00
G01 X3.7717 Y-4.9876 F50.00
G01 X3.7905 Y-4.9819 F50.00
G01 X3.8100 Y-4.9800 F50.00
G01 X3.8295 Y-4.9819 F50.00
G01 X3.8483 Y-4.9876 F50.00
G01 X3.8656 Y-4.9969 F50.00
G01 X3.8807 Y-5.0093 F50.00
G01 X3.8931 Y-5.0244 F50.00
G01 X3.9024 Y-5.0417 F50.00
G01 X3.9081 Y-5.0605 F50.00
G01 X3.9100 Y-5.0800 F50.00
G01 X3.9081 Y-5.0995 F50.00
G00 Z2.5400
G00 X3.9100 Y-7.6200
G01 F50.00
G01 Z-2.0000
G01 F50.00
G01 X3.9081 Y-7.6395 F50.00
G01 X3.9024 Y-7.6583 F50.00
G01 X3.8931 Y-7.6756 F50.00
G01 X3.8807 Y-7.6907 F50.00
G01 X3.8656 Y-7.7031 F50.00
G01 X3.8483 Y-7.7124 F50.00
G01 X3.8295 Y-7.7181 F50.00
G01 X3.8100 Y-7.7200 F50.00
G01 X3.7905 Y-7.7181 F50.00
G01 X3.7717 Y-7.7124 F50.00
G01 X3.7544 Y-7.7031 F50.00
G01 X3.7393 Y-7.6907 F50.00
G01 X3.7269 Y-7.6756 F50.00
G01 X3.7176 Y-7.6583 F50.00
G01 X3.7119 Y-7.6395 F50.00
G01 X3.7100 Y-7.6200 F50.00
G01 X3.7119 Y-7.6005 F50.00
G01 X3.7176 Y-7.5817 F50.00
G01 X3.7269 Y-7.5644 F50.00
G01 X3.7393 Y-7.5493 F50.00
G01 X3.7544 Y-7.5369 F50.00
G01 X3.7717 Y-7.5276 F50.00
G01 X3.7905 Y-7.5219 F50.00
G01 X3.8100 Y-7.5200 F50.00
G01 X3.8295 Y-7.5219 F50.00
G01 X3.8483 Y-7.5276 F50.00
G01 X3.8656 Y-7.5369 F50.00
G01 X3.8807 Y-7.5493 F50.00
G01 X3.8931 Y-7.5644 F50.00
G01 X3.9024 Y-7.5817 F50.00
G01 X3.9081 Y-7.6005 F50.00
G01 X3.9100 Y-7.6200 F50.00
G01 X3.9081 Y-7.6395 F50.00
G00 Z2.5400
G00 X3.9100 Y-10.1600
G01 F50.00
G01 Z-2.0000
G01 F50.00
G01 X3.9081 Y-10.1795 F50.00
G01 X3.9024 Y-10.1983 F50.00
G01 X3.8931 Y-10.2156 F50.00
G01 X3.8807 Y-10.2307 F50.00
G01 X3.8656 Y-10.2431 F50.00
G01 X3.8483 Y-10.2524 F50.00
G01 X3.8295 Y-10.2581 F50.00
G01 X3.8100 Y-10.2600 F50.00
G01 X3.7905 Y-10.2581 F50.00
G01 X3.7717 Y-10.2524 F50.00
G01 X3.7544 Y-10.2431 F50.00
G01 X3.7393 Y-10.2307 F50.00
G01 X3.7269 Y-10.2156 F50.00
G01 X3.7176 Y-10.1983 F50.00
G01 X3.7119 Y-10.1795 F50.00
G01 X3.7100 Y-10.1600 F50.00
G01 X3.7119 Y-10.1405 F50.00
G01 X3.7176 Y-10.1217 F50.00
G01 X3.7269 Y-10.1044 F50.00
G01 X3.7393 Y-10.0893 F50.00
G01 X3.7544 Y-10.0769 F50.00
G01 X3.7717 Y-10.0676 F50.00
G01 X3.7905 Y-10.0619 F50.00
G01 X3.8100 Y-10.0600 F50.00
G01 X3.8295 Y-10.0619 F50.00
G01 X3.8483 Y-10.0676 F50.00
G01 X3.8656 Y-10.0769 F50.00
G01 X3.8807 Y-10.0893 F50.00
G01 X3.8931 Y-10.1044 F50.00
G01 X3.9024 Y-10.1217 F50.00
G01 X3.9081 Y-10.1405 F50.00
G01 X3.9100 Y-10.1600 F50.00
G01 X3.9081 Y-10.1795 F50.00
G00 Z2.5400
G00 X3.9100 Y-12.7000
G01 F50.00
G01 Z-2.0000
G01 F50.00
G01 X3.9081 Y-12.7195 F50.00
G01 X3.9024 Y-12.7383 F50.00
G01 X3.8931 Y-12.7556 F50.00
G01 X3.8807 Y-12.7707 F50.00
G01 X3.8656 Y-12.7831 F50.00
G01 X3.8483 Y-12.7924 F50.00
G01 X3.8295 Y-12.7981 F50.00
G01 X3.8100 Y-12.8000 F50.00
G01 X3.7905 Y-12.7981 F50.00
G01 X3.7717 Y-12.7924 F50.00
G01 X3.7544 Y-12.7831 F50.00
G01 X3.7393 Y-12.7707 F50.00
G01 X3.7269 Y-12.7556 F50.00
G01 X3.7176 Y-12.7383 F50.00
G01 X3.7119 Y-12.7195 F50.00
G01 X3.7100 Y-12.7000 F50.00
G01 X3.7119 Y-12.6805 F50.00
G01 X3.7176 Y-12.6617 F50.00
G01 X3.7269 Y-12.6444 F50.00
G01 X3.7393 Y-12.6293 F50.00
G01 X3.7544 Y-12.6169 F50.00
G01 X3.7717 Y-12.6076 F50.00
G01 X3.7905 Y-12.6019 F50.00
G01 X3.8100 Y-12.6000 F50.00
G01 X3.8295 Y-12.6019 F50.00
G01 X3.8483 Y-12.6076 F50.00
G01 X3.8656 Y-12.6169 F50.00
G01 X3.8807 Y-12.6293 F50.00
G01 X3.8931 Y-12.6444 F50.00
G01 X3.9024 Y-12.6617 F50.00
G01 X3.9081 Y-12.6805 F50.00
G01 X3.9100 Y-12.7000 F50.00
G01 X3.9081 Y-12.7195 F50.00
G00 Z2.5400
G00 X3.9100 Y-15.2400
G01 F50.00
G01 Z-2.0000
G01 F50.00
G01 X3.9081 Y-15.2595 F50.00
G01 X3.9024 Y-15.2783 F50.00
G01 X3.8931 Y-15.2956 F50.00
G01 X3.8807 Y-15.3107 F50.00
G01 X3.8656 Y-15.3231 F50.00
G01 X3.8483 Y-15.3324 F50.00
G01 X3.8295 Y-15.3381 F50.00
G01 X3.8100 Y-15.3400 F50.00
G01 X3.7905 Y-15.3381 F50.00
G01 X3.7717 Y-15.3324 F50.00
G01 X3.7544 Y-15.3231 F50.00
G01 X3.7393 Y-15.3107 F50.00
G01 X3.7269 Y-15.2956 F50.00
G01 X3.7176 Y-15.2783 F50.00
G01 X3.7119 Y-15.2595 F50.00
G01 X3.7100 Y-15.2400 F50.00
G01 X3.7119 Y-15.2205 F50.00
G01 X3.7176 Y-15.2017 F50.00
G01 X3.7269 Y-15.1844 F50.00
G01 X3.7393 Y-15.1693 F50.00
G01 X3.7544 Y-15.1569 F50.00
G01 X3.7717 Y-15.1476 F50.00
G01 X3.7905 Y-15.1419 F50.00
G01 X3.8100 Y-15.1400 F50.00
G01 X3.8295 Y-15.1419 F50.00
G01 X3.8483 Y-15.1476 F50.00
G01 X3.8656 Y-15.1569 F50.00
G01 X3.8807 Y-15.1693 F50.00
G01 X3.8931 Y-15.1844 F50.00
G01 X3.9024 Y-15.2017 F50.00
G01 X3.9081 Y-15.2205 F50.00
G01 X3.9100 Y-15.2400 F50.00
G01 X3.9081 Y-15.2595 F50.00
G00 Z2.5400
G00 X16.3850 Y-17.2350
G01 F50.00
G01 Z-2.0000
G01 F50.00
G01 X16.3831 Y-17.2545 F50.00
G01 X16.3774 Y-17.2733 F50.00
G01 X16.3681 Y-17.2906 F50.00
G01 X16.3557 Y-17.3057 F50.00
G01 X16.3406 Y-17.3181 F50.00
G01 X16.3233 Y-17.3274 F50.00
G01 X16.3045 Y-17.3331 F50.00
G01 X16.2850 Y-17.3350 F50.00
G01 X16.2655 Y-17.3331 F50.00
G01 X16.2467 Y-17.3274 F50.00
G01 X16.2294 Y-17.3181 F50.00
G01 X16.2143 Y-17.3057 F50.00
G01 X16.2019 Y-17.2906 F50.00
G01 X16.1926 Y-17.2733 F50.00
G01 X16.1869 Y-17.2545 F50.00
G01 X16.1850 Y-17.2350 F50.00
G01 X16.1869 Y-17.2155 F50.00
G01 X16.1926 Y-17.1967 F50.00
G01 X16.2019 Y-17.1794 F50.00
G01 X16.2143 Y-17.1643 F50.00
G01 X16.2294 Y-17.1519 F50.00
G01 X16.2467 Y-17.1426 F50.00
G01 X16.2655 Y-17.1369 F50.00
G01 X16.2850 Y-17.1350 F50.00
G01 X16.3045 Y-17.1369 F50.00
G01 X16.3233 Y-17.1426 F50.00
G01 X16.3406 Y-17.1519 F50.00
G01 X16.3557 Y-17.1643 F50.00
G01 X16.3681 Y-17.1794 F50.00
G01 X16.3774 Y-17.1967 F50.00
G01 X16.3831 Y-17.2155 F50.00
G01 X16.3850 Y-17.2350 F50.00
G01 X16.3831 Y-17.2545 F50.00
G00 Z2.5400
G00 X18.9250 Y-17.2350
G01 F50.00
G01 Z-2.0000
G01 F50.00
G01 X18.9231 Y-17.2545 F50.00
G01 X18.9174 Y-17.2733 F50.00
G01 X18.9081 Y-17.2906 F50.00
G01 X18.8957 Y-17.3057 F50.00
G01 X18.8806 Y-17.3181 F50.00
G01 X18.8633 Y-17.3274 F50.00
G01 X18.8445 Y-17.3331 F50.00
G01 X18.8250 Y-17.3350 F50.00
G01 X18.8055 Y-17.3331 F50.00
G01 X18.7867 Y-17.3274 F50.00
G01 X18.7694 Y-17.3181 F50.00
G01 X18.7543 Y-17.3057 F50.00
G01 X18.7419 Y-17.2906 F50.00
G01 X18.7326 Y-17.2733 F50.00
G01 X18.7269 Y-17.2545 F50.00
G01 X18.7250 Y-17.2350 F50.00
G01 X18.7269 Y-17.2155 F50.00
G01 X18.7326 Y-17.1967 F50.00
G01 X18.7419 Y-17.1794 F50.00
G01 X18.7543 Y-17.1643 F50.00
G01 X18.7694 Y-17.1519 F50.00
G01 X18.7867 Y-17.1426 F50.00
G01 X18.8055 Y-17.1369 F50.00
G01 X18.8250 Y-17.1350 F50.00
G01 X18.8445 Y-17.1369 F50.00
G01 X18.8633 Y-17.1426 F50.00
G01 X18.8806 Y-17.1519 F50.00
G01 X18.8957 Y-17.1643 F50.00
G01 X18.9081 Y-17.1794 F50.00
G01 X18.9174 Y-17.1967 F50.00
G01 X18.9231 Y-17.2155 F50.00
G01 X18.9250 Y-17.2350 F50.00
G01 X18.9231 Y-17.2545 F50.00
G00 Z2.5400
G00 X21.4650 Y-17.2350
G01 F50.00
G01 Z-2.0000
G01 F50.00
G01 X21.4631 Y-17.2545 F50.00
G01 X21.4574 Y-17.2733 F50.00
G01 X21.4481 Y-17.2906 F50.00
G01 X21.4357 Y-17.3057 F50.00
G01 X21.4206 Y-17.3181 F50.00
G01 X21.4033 Y-17.3274 F50.00
G01 X21.3845 Y-17.3331 F50.00
G01 X21.3650 Y-17.3350 F50.00
G01 X21.3455 Y-17.3331 F50.00
G01 X21.3267 Y-17.3274 F50.00
G01 X21.3094 Y-17.3181 F50.00
G01 X21.2943 Y-17.3057 F50.00
G01 X21.2819 Y-17.2906 F50.00
G01 X21.2726 Y-17.2733 F50.00
G01 X21.2669 Y-17.2545 F50.00
G01 X21.2650 Y-17.2350 F50.00
G01 X21.2669 Y-17.2155 F50.00
G01 X21.2726 Y-17.1967 F50.00
G01 X21.2819 Y-17.1794 F50.00
G01 X21.2943 Y-17.1643 F50.00
G01 X21.3094 Y-17.1519 F50.00
G01 X21.3267 Y-17.1426 F50.00
G01 X21.3455 Y-17.1369 F50.00
G01 X21.3650 Y-17.1350 F50.00
G01 X21.3845 Y-17.1369 F50.00
G01 X21.4033 Y-17.1426 F50.00
G01 X21.4206 Y-17.1519 F50.00
G01 X21.4357 Y-17.1643 F50.00
G01 X21.4481 Y-17.1794 F50.00
G01 X21.4574 Y-17.1967 F50.00
G01 X21.4631 Y-17.2155 F50.00
G01 X21.4650 Y-17.2350 F50.00
G01 X21.4631 Y-17.2545 F50.00
G00 Z2.5400
G00 X24.0050 Y-17.2350
G01 F50.00
G01 Z-2.0000
G01 F50.00
G01 X24.0031 Y-17.2545 F50.00
G01 X23.9974 Y-17.2733 F50.00
G01 X23.9881 Y-17.2906 F50.00
G01 X23.9757 Y-17.3057 F50.00
G01 X23.9606 Y-17.3181 F50.00
G01 X23.9433 Y-17.3274 F50.00
G01 X23.9245 Y-17.3331 F50.00
G01 X23.9050 Y-17.3350 F50.00
G01 X23.8855 Y-17.3331 F50.00
G01 X23.8667 Y-17.3274 F50.00
G01 X23.8494 Y-17.3181 F50.00
G01 X23.8343 Y-17.3057 F50.00
G01 X23.8219 Y-17.2906 F50.00
G01 X23.8126 Y-17.2733 F50.00
G01 X23.8069 Y-17.2545 F50.00
G01 X23.8050 Y-17.2350 F50.00
G01 X23.8069 Y-17.2155 F50.00
G01 X23.8126 Y-17.1967 F50.00
G01 X23.8219 Y-17.1794 F50.00
G01 X23.8343 Y-17.1643 F50.00
G01 X23.8494 Y-17.1519 F50.00
G01 X23.8667 Y-17.1426 F50.00
G01 X23.8855 Y-17.1369 F50.00
G01 X23.9050 Y-17.1350 F50.00
G01 X23.9245 Y-17.1369 F50.00
G01 X23.9433 Y-17.1426 F50.00
G01 X23.9606 Y-17.1519 F50.00
G01 X23.9757 Y-17.1643 F50.00
G01 X23.9881 Y-17.1794 F50.00
G01 X23.9974 Y-17.1967 F50.00
G01 X24.0031 Y-17.2155 F50.00
G01 X24.0050 Y-17.2350 F50.00
G01 X24.0031 Y-17.2545 F50.00
G00 Z2.5400
G00 X26.5450 Y-17.2350
G01 F50.00
G01 Z-2.0000
G01 F50.00
G01 X26.5431 Y-17.2545 F50.00
G01 X26.5374 Y-17.2733 F50.00
G01 X26.5281 Y-17.2906 F50.00
G01 X26.5157 Y-17.3057 F50.00
G01 X26.5006 Y-17.3181 F50.00
G01 X26.4833 Y-17.3274 F50.00
G01 X26.4645 Y-17.3331 F50.00
G01 X26.4450 Y-17.3350 F50.00
G01 X26.4255 Y-17.3331 F50.00
G01 X26.4067 Y-17.3274 F50.00
G01 X26.3894 Y-17.3181 F50.00
G01 X26.3743 Y-17.3057 F50.00
G01 X26.3619 Y-17.2906 F50.00
G01 X26.3526 Y-17.2733 F50.00
G01 X26.3469 Y-17.2545 F50.00
G01 X26.3450 Y-17.2350 F50.00
G01 X26.3469 Y-17.2155 F50.00
G01 X26.3526 Y-17.1967 F50.00
G01 X26.3619 Y-17.1794 F50.00
G01 X26.3743 Y-17.1643 F50.00
G01 X26.3894 Y-17.1519 F50.00
G01 X26.4067 Y-17.1426 F50.00
G01 X26.4255 Y-17.1369 F50.00
G01 X26.4450 Y-17.1350 F50.00
G01 X26.4645 Y-17.1369 F50.00
G01 X26.4833 Y-17.1426 F50.00
G01 X26.5006 Y-17.1519 F50.00
G01 X26.5157 Y-17.1643 F50.00
G01 X26.5281 Y-17.1794 F50.00
G01 X26.5374 Y-17.1967 F50.00
G01 X26.5431 Y-17.2155 F50.00
G01 X26.5450 Y-17.2350 F50.00
G01 X26.5431 Y-17.2545 F50.00
G00 Z2.5400
G00 X30.5800 Y-15.2400
G01 F50.00
G01 Z-2.0000
G01 F50.00
G01 X30.5781 Y-15.2595 F50.00
G01 X30.5724 Y-15.2783 F50.00
G01 X30.5631 Y-15.2956 F50.00
G01 X30.5507 Y-15.3107 F50.00
G01 X30.5356 Y-15.3231 F50.00
G01 X30.5183 Y-15.3324 F50.00
G01 X30.4995 Y-15.3381 F50.00
G01 X30.4800 Y-15.3400 F50.00
G01 X30.4605 Y-15.3381 F50.00
G01 X30.4417 Y-15.3324 F50.00
G01 X30.4244 Y-15.3231 F50.00
G01 X30.4093 Y-15.3107 F50.00
G01 X30.3969 Y-15.2956 F50.00
G01 X30.3876 Y-15.2783 F50.00
G01 X30.3819 Y-15.2595 F50.00
G01 X30.3800 Y-15.2400 F50.00
G01 X30.3819 Y-15.2205 F50.00
G01 X30.3876 Y-15.2017 F50.00
G01 X30.3969 Y-15.1844 F50.00
G01 X30.4093 Y-15.1693 F50.00
G01 X30.4244 Y-15.1569 F50.00
G01 X30.4417 Y-15.1476 F50.00
G01 X30.4605 Y-15.1419 F50.00
G01 X30.4800 Y-15.1400 F50.00
G01 X30.4995 Y-15.1419 F50.00
G01 X30.5183 Y-15.1476 F50.00
G01 X30.5356 Y-15.1569 F50.00
G01 X30.5507 Y-15.1693 F50.00
G01 X30.5631 Y-15.1844 F50.00
G01 X30.5724 Y-15.2017 F50.00
G01 X30.5781 Y-15.2205 F50.00
G01 X30.5800 Y-15.2400 F50.00
G01 X30.5781 Y-15.2595 F50.00
G00 Z2.5400
G00 X30.5800 Y-12.7000
G01 F50.00
G01 Z-2.0000
G01 F50.00
G01 X30.5781 Y-12.7195 F50.00
G01 X30.5724 Y-12.7383 F50.00
G01 X30.5631 Y-12.7556 F50.00
G01 X30.5507 Y-12.7707 F50.00
G01 X30.5356 Y-12.7831 F50.00
G01 X30.5183 Y-12.7924 F50.00
G01 X30.4995 Y-12.7981 F50.00
G01 X30.4800 Y-12.8000 F50.00
G01 X30.4605 Y-12.7981 F50.00
G01 X30.4417 Y-12.7924 F50.00
G01 X30.4244 Y-12.7831 F50.00
G01 X30.4093 Y-12.7707 F50.00
G01 X30.3969 Y-12.7556 F50.00
G01 X30.3876 Y-12.7383 F50.00
G01 X30.3819 Y-12.7195 F50.00
G01 X30.3800 Y-12.7000 F50.00
G01 X30.3819 Y-12.6805 F50.00
G01 X30.3876 Y-12.6617 F50.00
G01 X30.3969 Y-12.6444 F50.00
G01 X30.4093 Y-12.6293 F50.00
G01 X30.4244 Y-12.6169 F50.00
G01 X30.4417 Y-12.6076 F50.00
G01 X30.4605 Y-12.6019 F50.00
G01 X30.4800 Y-12.6000 F50.00
G01 X30.4995 Y-12.6019 F50.00
G01 X30.5183 Y-12.6076 F50.00
G01 X30.5356 Y-12.6169 F50.00
G01 X30.5507 Y-12.6293 F50.00
G01 X30.5631 Y-12.6444 F50.00
G01 X30.5724 Y-12.6617 F50.00
G01 X30.5781 Y-12.6805 F50.00
G01 X30.5800 Y-12.7000 F50.00
G01 X30.5781 Y-12.7195 F50.00
G00 Z2.5400
G00 X30.5800 Y-10.1600
G01 F50.00
G01 Z-2.0000
G01 F50.00
G01 X30.5781 Y-10.1795 F50.00
G01 X30.5724 Y-10.1983 F50.00
G01 X30.5631 Y-10.2156 F50.00
G01 X30.5507 Y-10.2307 F50.00
G01 X30.5356 Y-10.2431 F50.00
G01 X30.5183 Y-10.2524 F50.00
G01 X30.4995 Y-10.2581 F50.00
G01 X30.4800 Y-10.2600 F50.00
G01 X30.4605 Y-10.2581 F50.00
G01 X30.4417 Y-10.2524 F50.00
G01 X30.4244 Y-10.2431 F50.00
G01 X30.4093 Y-10.2307 F50.00
G01 X30.3969 Y-10.2156 F50.00
G01 X30.3876 Y-10.1983 F50.00
G01 X30.3819 Y-10.1795 F50.00
G01 X30.3800 Y-10.1600 F50.00
G01 X30.3819 Y-10.1405 F50.00
G01 X30.3876 Y-10.1217 F50.00
G01 X30.3969 Y-10.1044 F50.00
G01 X30.4093 Y-10.0893 F50.00
G01 X30.4244 Y-10.0769 F50.00
G01 X30.4417 Y-10.0676 F50.00
G01 X30.4605 Y-10.0619 F50.00
G01 X30.4800 Y-10.0600 F50.00
G01 X30.4995 Y-10.0619 F50.00
G01 X30.5183 Y-10.0676 F50.00
G01 X30.5356 Y-10.0769 F50.00
G01 X30.5507 Y-10.0893 F50.00
G01 X30.5631 Y-10.1044 F50.00
G01 X30.5724 Y-10.1217 F50.00
G01 X30.5781 Y-10.1405 F50.00
G01 X30.5800 Y-10.1600 F50.00
G01 X30.5781 Y-10.1795 F50.00
G00 Z2.5400
G00 X30.5800 Y-7.6200
G01 F50.00
G01 Z-2.0000
G01 F50.00
G01 X30.5781 Y-7.6395 F50.00
G01 X30.5724 Y-7.6583 F50.00
G01 X30.5631 Y-7.6756 F50.00
G01 X30.5507 Y-7.6907 F50.00
G01 X30.5356 Y-7.7031 F50.00
G01 X30.5183 Y-7.7124 F50.00
G01 X30.4995 Y-7.7181 F50.00
G01 X30.4800 Y-7.7200 F50.00
G01 X30.4605 Y-7.7181 F50.00
G01 X30.4417 Y-7.7124 F50.00
G01 X30.4244 Y-7.7031 F50.00
G01 X30.4093 Y-7.6907 F50.00
G01 X30.3969 Y-7.6756 F50.00
G01 X30.3876 Y-7.6583 F50.00
G01 X30.3819 Y-7.6395 F50.00
G01 X30.3800 Y-7.6200 F50.00
G01 X30.3819 Y-7.6005 F50.00
G01 X30.3876 Y-7.5817 F50.00
G01 X30.3969 Y-7.5644 F50.00
G01 X30.4093 Y-7.5493 F50.00
G01 X30.4244 Y-7.5369 F50.00
G01 X30.4417 Y-7.5276 F50.00
G01 X30.4605 Y-7.5219 F50.00
G01 X30.4800 Y-7.5200 F50.00
G01 X30.4995 Y-7.5219 F50.00
G01 X30.5183 Y-7.5276 F50.00
G01 X30.5356 Y-7.5369 F50.00
G01 X30.5507 Y-7.5493 F50.00
G01 X30.5631 Y-7.5644 F50.00
G01 X30.5724 Y-7.5817 F50.00
G01 X30.5781 Y-7.6005 F50.00
G01 X30.5800 Y-7.6200 F50.00
G01 X30.5781 Y-7.6395 F50.00
G00 Z2.5400
G00 X30.5800 Y-5.0800
G01 F50.00
G01 Z-2.0000
G01 F50.00
G01 X30.5781 Y-5.0995 F50.00
G01 X30.5724 Y-5.1183 F50.00
G01 X30.5631 Y-5.1356 F50.00
G01 X30.5507 Y-5.1507 F50.00
G01 X30.5356 Y-5.1631 F50.00
G01 X30.5183 Y-5.1724 F50.00
G01 X30.4995 Y-5.1781 F50.00
G01 X30.4800 Y-5.1800 F50.00
G01 X30.4605 Y-5.1781 F50.00
G01 X30.4417 Y-5.1724 F50.00
G01 X30.4244 Y-5.1631 F50.00
G01 X30.4093 Y-5.1507 F50.00
G01 X30.3969 Y-5.1356 F50.00
G01 X30.3876 Y-5.1183 F50.00
G01 X30.3819 Y-5.0995 F50.00
G01 X30.3800 Y-5.0800 F50.00
G01 X30.3819 Y-5.0605 F50.00
G01 X30.3876 Y-5.0417 F50.00
G01 X30.3969 Y-5.0244 F50.00
G01 X30.4093 Y-5.0093 F50.00
G01 X30.4244 Y-4.9969 F50.00
G01 X30.4417 Y-4.9876 F50.00
G01 X30.4605 Y-4.9819 F50.00
G01 X30.4800 Y-4.9800 F50.00
G01 X30.4995 Y-4.9819 F50.00
G01 X30.5183 Y-4.9876 F50.00
G01 X30.5356 Y-4.9969 F50.00
G01 X30.5507 Y-5.0093 F50.00
G01 X30.5631 Y-5.0244 F50.00
G01 X30.5724 Y-5.0417 F50.00
G01 X30.5781 Y-5.0605 F50.00
G01 X30.5800 Y-5.0800 F50.00
G01 X30.5781 Y-5.0995 F50.00
G00 Z2.5400
G00 X26.5450 Y-1.9950
G01 F50.00
G01 Z-2.0000
G01 F50.00
G01 X26.5431 Y-2.0145 F50.00
G01 X26.5374 Y-2.0333 F50.00
G01 X26.5281 Y-2.0506 F50.00
G01 X26.5157 Y-2.0657 F50.00
G01 X26.5006 Y-2.0781 F50.00
G01 X26.4833 Y-2.0874 F50.00
G01 X26.4645 Y-2.0931 F50.00
G01 X26.4450 Y-2.0950 F50.00
G01 X26.4255 Y-2.0931 F50.00
G01 X26.4067 Y-2.0874 F50.00
G01 X26.3894 Y-2.0781 F50.00
G01 X26.3743 Y-2.0657 F50.00
G01 X26.3619 Y-2.0506 F50.00
G01 X26.3526 Y-2.0333 F50.00
G01 X26.3469 Y-2.0145 F50.00
G01 X26.3450 Y-1.9950 F50.00
G01 X26.3469 Y-1.9755 F50.00
G01 X26.3526 Y-1.9567 F50.00
G01 X26.3619 Y-1.9394 F50.00
G01 X26.3743 Y-1.9243 F50.00
G01 X26.3894 Y-1.9119 F50.00
G01 X26.4067 Y-1.9026 F50.00
G01 X26.4255 Y-1.8969 F50.00
G01 X26.4450 Y-1.8950 F50.00
G01 X26.4645 Y-1.8969 F50.00
G01 X26.4833 Y-1.9026 F50.00
G01 X26.5006 Y-1.9119 F50.00
G01 X26.5157 Y-1.9243 F50.00
G01 X26.5281 Y-1.9394 F50.00
G01 X26.5374 Y-1.9567 F50.00
G01 X26.5431 Y-1.9755 F50.00
G01 X26.5450 Y-1.9950 F50.00
G01 X26.5431 Y-2.0145 F50.00
G00 Z2.5400
G00 X24.0050 Y-1.9950
G01 F50.00
G01 Z-2.0000
G01 F50.00
G01 X24.0031 Y-2.0145 F50.00
G01 X23.9974 Y-2.0333 F50.00
G01 X23.9881 Y-2.0506 F50.00
G01 X23.9757 Y-2.0657 F50.00
G01 X23.9606 Y-2.0781 F50.00
G01 X23.9433 Y-2.0874 F50.00
G01 X23.9245 Y-2.0931 F50.00
G01 X23.9050 Y-2.0950 F50.00
G01 X23.8855 Y-2.0931 F50.00
G01 X23.8667 Y-2.0874 F50.00
G01 X23.8494 Y-2.0781 F50.00
G01 X23.8343 Y-2.0657 F50.00
G01 X23.8219 Y-2.0506 F50.00
G01 X23.8126 Y-2.0333 F50.00
G01 X23.8069 Y-2.0145 F50.00
G01 X23.8050 Y-1.9950 F50.00
G01 X23.8069 Y-1.9755 F50.00
G01 X23.8126 Y-1.9567 F50.00
G01 X23.8219 Y-1.9394 F50.00
G01 X23.8343 Y-1.9243 F50.00
G01 X23.8494 Y-1.9119 F50.00
G01 X23.8667 Y-1.9026 F50.00
G01 X23.8855 Y-1.8969 F50.00
G01 X23.9050 Y-1.8950 F50.00
G01 X23.9245 Y-1.8969 F50.00
G01 X23.9433 Y-1.9026 F50.00
G01 X23.9606 Y-1.9119 F50.00
G01 X23.9757 Y-1.9243 F50.00
G01 X23.9881 Y-1.9394 F50.00
G01 X23.9974 Y-1.9567 F50.00
G01 X24.0031 Y-1.9755 F50.00
G01 X24.0050 Y-1.9950 F50.00
G01 X24.0031 Y-2.0145 F50.00
G00 Z2.5400
G00 X21.4650 Y-1.9950
G01 F50.00
G01 Z-2.0000
G01 F50.00
G01 X21.4631 Y-2.0145 F50.00
G01 X21.4574 Y-2.0333 F50.00
G01 X21.4481 Y-2.0506 F50.00
G01 X21.4357 Y-2.0657 F50.00
G01 X21.4206 Y-2.0781 F50.00
G01 X21.4033 Y-2.0874 F50.00
G01 X21.3845 Y-2.0931 F50.00
G01 X21.3650 Y-2.0950 F50.00
G01 X21.3455 Y-2.0931 F50.00
G01 X21.3267 Y-2.0874 F50.00
G01 X21.3094 Y-2.0781 F50.00
G01 X21.2943 Y-2.0657 F50.00
G01 X21.2819 Y-2.0506 F50.00
G01 X21.2726 Y-2.0333 F50.00
G01 X21.2669 Y-2.0145 F50.00
G01 X21.2650 Y-1.9950 F50.00
G01 X21.2669 Y-1.9755 F50.00
G01 X21.2726 Y-1.9567 F50.00
G01 X21.2819 Y-1.9394 F50.00
G01 X21.2943 Y-1.9243 F50.00
G01 X21.3094 Y-1.9119 F50.00
G01 X21.3267 Y-1.9026 F50.00
G01 X21.3455 Y-1.8969 F50.00
G01 X21.3650 Y-1.8950 F50.00
G01 X21.3845 Y-1.8969 F50.00
G01 X21.4033 Y-1.9026 F50.00
G01 X21.4206 Y-1.9119 F50.00
G01 X21.4357 Y-1.9243 F50.00
G01 X21.4481 Y-1.9394 F50.00
G01 X21.4574 Y-1.9567 F50.00
G01 X21.4631 Y-1.9755 F50.00
G01 X21.4650 Y-1.9950 F50.00
G01 X21.4631 Y-2.0145 F50.00
G00 Z2.5400
G00 X18.9250 Y-1.9950
G01 F50.00
G01 Z-2.0000
G01 F50.00
G01 X18.9231 Y-2.0145 F50.00
G01 X18.9174 Y-2.0333 F50.00
G01 X18.9081 Y-2.0506 F50.00
G01 X18.8957 Y-2.0657 F50.00
G01 X18.8806 Y-2.0781 F50.00
G01 X18.8633 Y-2.0874 F50.00
G01 X18.8445 Y-2.0931 F50.00
G01 X18.8250 Y-2.0950 F50.00
G01 X18.8055 Y-2.0931 F50.00
G01 X18.7867 Y-2.0874 F50.00
G01 X18.7694 Y-2.0781 F50.00
G01 X18.7543 Y-2.0657 F50.00
G01 X18.7419 Y-2.0506 F50.00
G01 X18.7326 Y-2.0333 F50.00
G01 X18.7269 Y-2.0145 F50.00
G01 X18.7250 Y-1.9950 F50.00
G01 X18.7269 Y-1.9755 F50.00
G01 X18.7326 Y-1.9567 F50.00
G01 X18.7419 Y-1.9394 F50.00
G01 X18.7543 Y-1.9243 F50.00
G01 X18.7694 Y-1.9119 F50.00
G01 X18.7867 Y-1.9026 F50.00
G01 X18.8055 Y-1.8969 F50.00
G01 X18.8250 Y-1.8950 F50.00
G01 X18.8445 Y-1.8969 F50.00
G01 X18.8633 Y-1.9026 F50.00
G01 X18.8806 Y-1.9119 F50.00
G01 X18.8957 Y-1.9243 F50.00
G01 X18.9081 Y-1.9394 F50.00
G01 X18.9174 Y-1.9567 F50.00
G01 X18.9231 Y-1.9755 F50.00
G01 X18.9250 Y-1.9950 F50.00
G01 X18.9231 Y-2.0145 F50.00
G00 Z2.5400
G00 X16.3850 Y-1.9950
G01 F50.00
G01 Z-2.0000
G01 F50.00
G01 X16.3831 Y-2.0145 F50.00
G01 X16.3774 Y-2.0333 F50.00
G01 X16.3681 Y-2.0506 F50.00
G01 X16.3557 Y-2.0657 F50.00
G01 X16.3406 Y-2.0781 F50.00
G01 X16.3233 Y-2.0874 F50.00
G01 X16.3045 Y-2.0931 F50.00
G01 X16.2850 Y-2.0950 F50.00
G01 X16.2655 Y-2.0931 F50.00
G01 X16.2467 Y-2.0874 F50.00
G01 X16.2294 Y-2.0781 F50.00
G01 X16.2143 Y-2.0657 F50.00
G01 X16.2019 Y-2.0506 F50.00
G01 X16.1926 Y-2.0333 F50.00
G01 X16.1869 Y-2.0145 F50.00
G01 X16.1850 Y-1.9950 F50.00
G01 X16.1869 Y-1.9755 F50.00
G01 X16.1926 Y-1.9567 F50.00
G01 X16.2019 Y-1.9394 F50.00
G01 X16.2143 Y-1.9243 F50.00
G01 X16.2294 Y-1.9119 F50.00
G01 X16.2467 Y-1.9026 F50.00
G01 X16.2655 Y-1.8969 F50.00
G01 X16.2850 Y-1.8950 F50.00
G01 X16.3045 Y-1.8969 F50.00
G01 X16.3233 Y-1.9026 F50.00
G01 X16.3406 Y-1.9119 F50.00
G01 X16.3557 Y-1.9243 F50.00
G01 X16.3681 Y-1.9394 F50.00
G01 X16.3774 Y-1.9567 F50.00
G01 X16.3831 Y-1.9755 F50.00
G01 X16.3850 Y-1.9950 F50.00
G01 X16.3831 Y-2.0145 F50.00
G00 Z2.5400
M05
G00 Z2.5400
G00 Z20.00
G00 X0.0 Y0.0

M02