(G-CODE GENERATED BY FLATCAM v8.913 - www.flatcam.org - Version Date: 2019/04/13)

(Name: 7_segment_display-PTH.drl_cnc)
(Type: G-code from Excellon)
(Units: MM)

(Created on Sunday, 12 May 2019 at 21:25)

(Feedrate: 50.0 mm/min)
(Feedrate rapids 100.0 mm/min)

(Z_Cut: -2.0 mm)
(Z_Move: 2.54 mm)
(Z Toolchange: 20.0 mm)
(X,Y Toolchange: 0.0000, 0.0000 mm)
(Z Start: None mm)
(Z End: 20.0 mm)
(Steps per circle: 64)
(Postprocessor Excellon: grbl_11)
(X range:    3.3100 ...   30.9800  mm)
(Y range:  -17.7350 ...   -1.4950  mm)

(Spindle Speed: 20000.0 RPM)


G21
G90
G94
G17

G01 F50.00
G00 Z2.5400

M03 S20000
G4 P1.0
G00 X3.8100 Y-3.1750
G01 Z-2.0000
G00 Z2.5400
G00 X8.2550 Y-6.3500
G01 Z-2.0000
G00 Z2.5400
G00 X10.3610 Y-6.5150
G01 Z-2.0000
G00 Z2.5400
G00 X11.4300 Y-6.5150
G01 Z-2.0000
G00 Z2.5400
G00 X11.4300 Y-7.6200
G01 Z-2.0000
G00 Z2.5400
G00 X11.5950 Y-8.8900
G01 Z-2.0000
G00 Z2.5400
G00 X10.0850 Y-9.9320
G01 Z-2.0000
G00 Z2.5400
G00 X8.8340 Y-10.1930
G01 Z-2.0000
G00 Z2.5400
G00 X12.0650 Y-11.4300
G01 Z-2.0000
G00 Z2.5400
G00 X15.5620 Y-9.3510
G01 Z-2.0000
G00 Z2.5400
G00 X14.6050 Y-4.9150
G01 Z-2.0000
G00 Z2.5400
G00 X19.0500 Y-6.9850
G01 Z-2.0000
G00 Z2.5400
G00 X22.8600 Y-6.3500
G01 Z-2.0000
G00 Z2.5400
G00 X25.4000 Y-5.0800
G01 Z-2.0000
G00 Z2.5400
G00 X29.8450 Y-3.1750
G01 Z-2.0000
G00 Z2.5400
G00 X22.8600 Y-11.4300
G01 Z-2.0000
G00 Z2.5400
G00 X20.3200 Y-12.2300
G01 Z-2.0000
G00 Z2.5400
G00 X19.0550 Y-12.9580
G01 Z-2.0000
G00 Z2.5400
G00 X13.9700 Y-17.1450
G01 Z-2.0000
G00 Z2.5400
G00 X5.7150 Y-15.2400
G01 Z-2.0000
G00 Z2.5400
G00 X5.7150 Y-12.7000
G01 Z-2.0000
G00 Z2.5400
M05
G00 Z20.00
G00 X0.0 Y0.0

M02