(G-CODE GENERATED BY FLATCAM v8.913 - www.flatcam.org - Version Date: 2019/04/13)

(Name: Alignment Drills_mill_cnc)
(Type: G-code from Geometry)
(Units: MM)

(Created on Sunday, 12 May 2019 at 20:59)

(TOOL DIAMETER: 0.8 mm)

(Feedrate: 50.0 mm/min)
(Feedrate_Z: 50.0 mm/min)
(Feedrate rapids 76.2 mm/min)

(Z_Cut: -2.0 mm)
(Z_Move: 2.54 mm)
(Z Toolchange: 20.0 mm)
(X,Y Toolchange: 0.0000, 0.0000 mm)
(Z Start: None mm)
(Z End: 20.0 mm)
(Steps per circle: 64)
(Postprocessor Geometry: grbl_11)

(X range:   -6.2000 ...   81.2000  mm)
(Y range:  -25.2000 ...  -22.8000  mm)

(Spindle Speed: 20000 RPM)


G21
G90
G94
G17

G01 F50.00
G00 Z2.5400

M03 S20000
G4 P1.0
G00 X-3.8000 Y-24.0000
G01 F50.00
G01 Z-2.0000
G01 F50.00
G01 X-3.8058 Y-24.1176 F50.00
G01 X-3.8231 Y-24.2341 F50.00
G01 X-3.8517 Y-24.3483 F50.00
G01 X-3.8913 Y-24.4592 F50.00
G01 X-3.9417 Y-24.5657 F50.00
G01 X-4.0022 Y-24.6667 F50.00
G01 X-4.0724 Y-24.7613 F50.00
G01 X-4.1515 Y-24.8485 F50.00
G01 X-4.2387 Y-24.9276 F50.00
G01 X-4.3333 Y-24.9978 F50.00
G01 X-4.4343 Y-25.0583 F50.00
G01 X-4.5408 Y-25.1087 F50.00
G01 X-4.6517 Y-25.1483 F50.00
G01 X-4.7659 Y-25.1769 F50.00
G01 X-4.8824 Y-25.1942 F50.00
G01 X-5.0000 Y-25.2000 F50.00
G01 X-5.1176 Y-25.1942 F50.00
G01 X-5.2341 Y-25.1769 F50.00
G01 X-5.3483 Y-25.1483 F50.00
G01 X-5.4592 Y-25.1087 F50.00
G01 X-5.5657 Y-25.0583 F50.00
G01 X-5.6667 Y-24.9978 F50.00
G01 X-5.7613 Y-24.9276 F50.00
G01 X-5.8485 Y-24.8485 F50.00
G01 X-5.9276 Y-24.7613 F50.00
G01 X-5.9978 Y-24.6667 F50.00
G01 X-6.0583 Y-24.5657 F50.00
G01 X-6.1087 Y-24.4592 F50.00
G01 X-6.1483 Y-24.3483 F50.00
G01 X-6.1769 Y-24.2341 F50.00
G01 X-6.1942 Y-24.1176 F50.00
G01 X-6.2000 Y-24.0000 F50.00
G01 X-6.1942 Y-23.8824 F50.00
G01 X-6.1769 Y-23.7659 F50.00
G01 X-6.1483 Y-23.6517 F50.00
G01 X-6.1087 Y-23.5408 F50.00
G01 X-6.0583 Y-23.4343 F50.00
G01 X-5.9978 Y-23.3333 F50.00
G01 X-5.9276 Y-23.2387 F50.00
G01 X-5.8485 Y-23.1515 F50.00
G01 X-5.7613 Y-23.0724 F50.00
G01 X-5.6667 Y-23.0022 F50.00
G01 X-5.5657 Y-22.9417 F50.00
G01 X-5.4592 Y-22.8913 F50.00
G01 X-5.3483 Y-22.8517 F50.00
G01 X-5.2341 Y-22.8231 F50.00
G01 X-5.1176 Y-22.8058 F50.00
G01 X-5.0000 Y-22.8000 F50.00
G01 X-4.8824 Y-22.8058 F50.00
G01 X-4.7659 Y-22.8231 F50.00
G01 X-4.6517 Y-22.8517 F50.00
G01 X-4.5408 Y-22.8913 F50.00
G01 X-4.4343 Y-22.9417 F50.00
G01 X-4.3333 Y-23.0022 F50.00
G01 X-4.2387 Y-23.0724 F50.00
G01 X-4.1515 Y-23.1515 F50.00
G01 X-4.0724 Y-23.2387 F50.00
G01 X-4.0022 Y-23.3333 F50.00
G01 X-3.9417 Y-23.4343 F50.00
G01 X-3.8913 Y-23.5408 F50.00
G01 X-3.8517 Y-23.6517 F50.00
G01 X-3.8231 Y-23.7659 F50.00
G01 X-3.8058 Y-23.8824 F50.00
G01 X-3.8000 Y-24.0000 F50.00
G01 X-3.8058 Y-24.1176 F50.00
G00 Z2.5400
G00 X-3.8000 Y-24.0000
G01 F50.00
G01 Z-2.0000
G01 F50.00
G01 X-3.8058 Y-24.1176 F50.00
G01 X-3.8231 Y-24.2341 F50.00
G01 X-3.8517 Y-24.3483 F50.00
G01 X-3.8913 Y-24.4592 F50.00
G01 X-3.9417 Y-24.5657 F50.00
G01 X-4.0022 Y-24.6667 F50.00
G01 X-4.0724 Y-24.7613 F50.00
G01 X-4.1515 Y-24.8485 F50.00
G01 X-4.2387 Y-24.9276 F50.00
G01 X-4.3333 Y-24.9978 F50.00
G01 X-4.4343 Y-25.0583 F50.00
G01 X-4.5408 Y-25.1087 F50.00
G01 X-4.6517 Y-25.1483 F50.00
G01 X-4.7659 Y-25.1769 F50.00
G01 X-4.8824 Y-25.1942 F50.00
G01 X-5.0000 Y-25.2000 F50.00
G01 X-5.1176 Y-25.1942 F50.00
G01 X-5.2341 Y-25.1769 F50.00
G01 X-5.3483 Y-25.1483 F50.00
G01 X-5.4592 Y-25.1087 F50.00
G01 X-5.5657 Y-25.0583 F50.00
G01 X-5.6667 Y-24.9978 F50.00
G01 X-5.7613 Y-24.9276 F50.00
G01 X-5.8485 Y-24.8485 F50.00
G01 X-5.9276 Y-24.7613 F50.00
G01 X-5.9978 Y-24.6667 F50.00
G01 X-6.0583 Y-24.5657 F50.00
G01 X-6.1087 Y-24.4592 F50.00
G01 X-6.1483 Y-24.3483 F50.00
G01 X-6.1769 Y-24.2341 F50.00
G01 X-6.1942 Y-24.1176 F50.00
G01 X-6.2000 Y-24.0000 F50.00
G01 X-6.1942 Y-23.8824 F50.00
G01 X-6.1769 Y-23.7659 F50.00
G01 X-6.1483 Y-23.6517 F50.00
G01 X-6.1087 Y-23.5408 F50.00
G01 X-6.0583 Y-23.4343 F50.00
G01 X-5.9978 Y-23.3333 F50.00
G01 X-5.9276 Y-23.2387 F50.00
G01 X-5.8485 Y-23.1515 F50.00
G01 X-5.7613 Y-23.0724 F50.00
G01 X-5.6667 Y-23.0022 F50.00
G01 X-5.5657 Y-22.9417 F50.00
G01 X-5.4592 Y-22.8913 F50.00
G01 X-5.3483 Y-22.8517 F50.00
G01 X-5.2341 Y-22.8231 F50.00
G01 X-5.1176 Y-22.8058 F50.00
G01 X-5.0000 Y-22.8000 F50.00
G01 X-4.8824 Y-22.8058 F50.00
G01 X-4.7659 Y-22.8231 F50.00
G01 X-4.6517 Y-22.8517 F50.00
G01 X-4.5408 Y-22.8913 F50.00
G01 X-4.4343 Y-22.9417 F50.00
G01 X-4.3333 Y-23.0022 F50.00
G01 X-4.2387 Y-23.0724 F50.00
G01 X-4.1515 Y-23.1515 F50.00
G01 X-4.0724 Y-23.2387 F50.00
G01 X-4.0022 Y-23.3333 F50.00
G01 X-3.9417 Y-23.4343 F50.00
G01 X-3.8913 Y-23.5408 F50.00
G01 X-3.8517 Y-23.6517 F50.00
G01 X-3.8231 Y-23.7659 F50.00
G01 X-3.8058 Y-23.8824 F50.00
G01 X-3.8000 Y-24.0000 F50.00
G01 X-3.8058 Y-24.1176 F50.00
G00 Z2.5400
G00 X81.2000 Y-24.0000
G01 F50.00
G01 Z-2.0000
G01 F50.00
G01 X81.1942 Y-24.1176 F50.00
G01 X81.1769 Y-24.2341 F50.00
G01 X81.1483 Y-24.3483 F50.00
G01 X81.1087 Y-24.4592 F50.00
G01 X81.0583 Y-24.5657 F50.00
G01 X80.9978 Y-24.6667 F50.00
G01 X80.9276 Y-24.7613 F50.00
G01 X80.8485 Y-24.8485 F50.00
G01 X80.7613 Y-24.9276 F50.00
G01 X80.6667 Y-24.9978 F50.00
G01 X80.5657 Y-25.0583 F50.00
G01 X80.4592 Y-25.1087 F50.00
G01 X80.3483 Y-25.1483 F50.00
G01 X80.2341 Y-25.1769 F50.00
G01 X80.1176 Y-25.1942 F50.00
G01 X80.0000 Y-25.2000 F50.00
G01 X79.8824 Y-25.1942 F50.00
G01 X79.7659 Y-25.1769 F50.00
G01 X79.6517 Y-25.1483 F50.00
G01 X79.5408 Y-25.1087 F50.00
G01 X79.4343 Y-25.0583 F50.00
G01 X79.3333 Y-24.9978 F50.00
G01 X79.2387 Y-24.9276 F50.00
G01 X79.1515 Y-24.8485 F50.00
G01 X79.0724 Y-24.7613 F50.00
G01 X79.0022 Y-24.6667 F50.00
G01 X78.9417 Y-24.5657 F50.00
G01 X78.8913 Y-24.4592 F50.00
G01 X78.8517 Y-24.3483 F50.00
G01 X78.8231 Y-24.2341 F50.00
G01 X78.8058 Y-24.1176 F50.00
G01 X78.8000 Y-24.0000 F50.00
G01 X78.8058 Y-23.8824 F50.00
G01 X78.8231 Y-23.7659 F50.00
G01 X78.8517 Y-23.6517 F50.00
G01 X78.8913 Y-23.5408 F50.00
G01 X78.9417 Y-23.4343 F50.00
G01 X79.0022 Y-23.3333 F50.00
G01 X79.0724 Y-23.2387 F50.00
G01 X79.1515 Y-23.1515 F50.00
G01 X79.2387 Y-23.0724 F50.00
G01 X79.3333 Y-23.0022 F50.00
G01 X79.4343 Y-22.9417 F50.00
G01 X79.5408 Y-22.8913 F50.00
G01 X79.6517 Y-22.8517 F50.00
G01 X79.7659 Y-22.8231 F50.00
G01 X79.8824 Y-22.8058 F50.00
G01 X80.0000 Y-22.8000 F50.00
G01 X80.1176 Y-22.8058 F50.00
G01 X80.2341 Y-22.8231 F50.00
G01 X80.3483 Y-22.8517 F50.00
G01 X80.4592 Y-22.8913 F50.00
G01 X80.5657 Y-22.9417 F50.00
G01 X80.6667 Y-23.0022 F50.00
G01 X80.7613 Y-23.0724 F50.00
G01 X80.8485 Y-23.1515 F50.00
G01 X80.9276 Y-23.2387 F50.00
G01 X80.9978 Y-23.3333 F50.00
G01 X81.0583 Y-23.4343 F50.00
G01 X81.1087 Y-23.5408 F50.00
G01 X81.1483 Y-23.6517 F50.00
G01 X81.1769 Y-23.7659 F50.00
G01 X81.1942 Y-23.8824 F50.00
G01 X81.2000 Y-24.0000 F50.00
G01 X81.1942 Y-24.1176 F50.00
G00 Z2.5400
G00 X81.2000 Y-24.0000
G01 F50.00
G01 Z-2.0000
G01 F50.00
G01 X81.1942 Y-24.1176 F50.00
G01 X81.1769 Y-24.2341 F50.00
G01 X81.1483 Y-24.3483 F50.00
G01 X81.1087 Y-24.4592 F50.00
G01 X81.0583 Y-24.5657 F50.00
G01 X80.9978 Y-24.6667 F50.00
G01 X80.9276 Y-24.7613 F50.00
G01 X80.8485 Y-24.8485 F50.00
G01 X80.7613 Y-24.9276 F50.00
G01 X80.6667 Y-24.9978 F50.00
G01 X80.5657 Y-25.0583 F50.00
G01 X80.4592 Y-25.1087 F50.00
G01 X80.3483 Y-25.1483 F50.00
G01 X80.2341 Y-25.1769 F50.00
G01 X80.1176 Y-25.1942 F50.00
G01 X80.0000 Y-25.2000 F50.00
G01 X79.8824 Y-25.1942 F50.00
G01 X79.7659 Y-25.1769 F50.00
G01 X79.6517 Y-25.1483 F50.00
G01 X79.5408 Y-25.1087 F50.00
G01 X79.4343 Y-25.0583 F50.00
G01 X79.3333 Y-24.9978 F50.00
G01 X79.2387 Y-24.9276 F50.00
G01 X79.1515 Y-24.8485 F50.00
G01 X79.0724 Y-24.7613 F50.00
G01 X79.0022 Y-24.6667 F50.00
G01 X78.9417 Y-24.5657 F50.00
G01 X78.8913 Y-24.4592 F50.00
G01 X78.8517 Y-24.3483 F50.00
G01 X78.8231 Y-24.2341 F50.00
G01 X78.8058 Y-24.1176 F50.00
G01 X78.8000 Y-24.0000 F50.00
G01 X78.8058 Y-23.8824 F50.00
G01 X78.8231 Y-23.7659 F50.00
G01 X78.8517 Y-23.6517 F50.00
G01 X78.8913 Y-23.5408 F50.00
G01 X78.9417 Y-23.4343 F50.00
G01 X79.0022 Y-23.3333 F50.00
G01 X79.0724 Y-23.2387 F50.00
G01 X79.1515 Y-23.1515 F50.00
G01 X79.2387 Y-23.0724 F50.00
G01 X79.3333 Y-23.0022 F50.00
G01 X79.4343 Y-22.9417 F50.00
G01 X79.5408 Y-22.8913 F50.00
G01 X79.6517 Y-22.8517 F50.00
G01 X79.7659 Y-22.8231 F50.00
G01 X79.8824 Y-22.8058 F50.00
G01 X80.0000 Y-22.8000 F50.00
G01 X80.1176 Y-22.8058 F50.00
G01 X80.2341 Y-22.8231 F50.00
G01 X80.3483 Y-22.8517 F50.00
G01 X80.4592 Y-22.8913 F50.00
G01 X80.5657 Y-22.9417 F50.00
G01 X80.6667 Y-23.0022 F50.00
G01 X80.7613 Y-23.0724 F50.00
G01 X80.8485 Y-23.1515 F50.00
G01 X80.9276 Y-23.2387 F50.00
G01 X80.9978 Y-23.3333 F50.00
G01 X81.0583 Y-23.4343 F50.00
G01 X81.1087 Y-23.5408 F50.00
G01 X81.1483 Y-23.6517 F50.00
G01 X81.1769 Y-23.7659 F50.00
G01 X81.1942 Y-23.8824 F50.00
G01 X81.2000 Y-24.0000 F50.00
G01 X81.1942 Y-24.1176 F50.00
G00 Z2.5400
M05
G00 Z2.5400
G00 Z20.00
G00 X0.0 Y0.0

M02